; generated by PrusaSlicer 2.7.2+win64 on 2024-07-07 at 01:21:15 UTC


;
;
; 

; external perimeters extrusion width = 0.45mm
; perimeters extrusion width = 0.45mm
; infill extrusion width = 0.45mm
; solid infill extrusion width = 0.45mm
; top infill extrusion width = 0.40mm
; first layer extrusion width = 0.42mm

; external perimeters extrusion width = 0.45mm
; perimeters extrusion width = 0.45mm
; infill extrusion width = 0.45mm
; solid infill extrusion width = 0.45mm
; top infill extrusion width = 0.40mm
; first layer extrusion width = 0.42mm

; external perimeters extrusion width = 0.45mm
; perimeters extrusion width = 0.45mm
; infill extrusion width = 0.45mm
; solid infill extrusion width = 0.45mm
; top infill extrusion width = 0.40mm
; first layer extrusion width = 0.42mm

M73 P0 R419
M73 Q0 S428
M201 X1000 Y1000 Z200 E5000 ; sets maximum accelerations, mm/sec^2
M203 X200 Y200 Z12 E120 ; sets maximum feedrates, mm / sec
M204 S1250 T1250 ; sets acceleration (S) and retract acceleration (R), mm/sec^2
M205 X8.00 Y8.00 Z0.40 E4.50 ; sets the jerk limits, mm/sec
M205 S0 T0 ; sets the minimum extruding and travel feed rate, mm/sec

; printing object 0 id:0 copy 0
; stop printing object 0 id:0 copy 0
; printing object 0 id:2 copy 0
; stop printing object 0 id:2 copy 0
; printing object 0 id:1 copy 0
; stop printing object 0 id:1 copy 0

;TYPE:Custom
M862.3 P "MK3S" ; printer model check
M862.1 P0.4 ; nozzle diameter check
M115 U3.12.2 ; tell printer latest fw version
G90 ; use absolute coordinates
M83 ; extruder relative mode
M104 S215 ; set extruder temp
M140 S60 ; set bed temp
M190 S60 ; wait for bed temp
M109 S215 ; wait for extruder temp
G28 W ; home all without mesh bed level
G80 ; mesh bed leveling

G1 Z0.2 F720
G1 Y-3 F1000 ; go outside print area
G92 E0
G1 X60 E9 F1000 ; intro line
G1 X100 E12.5 F1000 ; intro line

G92 E0
M221 S95

; Don't change E values below. Excessive value can damage the printer.

M907 E538 ; set extruder motor current
G21 ; set units to millimeters
G90 ; use absolute coordinates
M83 ; use relative distances for extrusion
M900 K0.05 ; Filament gcode LA 1.5
M900 K30 ; Filament gcode LA 1.0
M107
;LAYER_CHANGE
;Z:0.2
;HEIGHT:0.2
G1 E-.8 F2100
G1 Z.6 F720
G1 X34.549 Y44.54 F10800
G1 Z.2 F720
G1 E.8 F2100
M204 S800
;TYPE:Skirt/Brim
;WIDTH:0.42
G1 F1200
G1 X36.088 Y43.346 E.06107
G1 X37.647 Y42.286 E.05911
G1 X39.395 Y41.247 E.06376
G1 X41.341 Y40.256 E.06847
G1 X43.07 Y39.507 E.05908
G1 X44.982 Y38.814 E.06377
G1 X47.05 Y38.212 E.06753
G1 X119.373 Y21.106 E2.3302
G1 X121.381 Y20.784 E.06376
G1 X123.406 Y20.588 E.06379
G1 X125.438 Y20.519 E.06375
G1 X127.424 Y20.577 E.0623
G1 X129.645 Y20.784 E.06994
G1 X131.653 Y21.107 E.06377
G1 X133.547 Y21.53 E.06085
G1 X204.358 Y39.113 E2.28765
G1 X206.259 Y39.663 E.06205
G1 X208.174 Y40.348 E.06377
G1 X210.042 Y41.151 E.06375
G1 X211.988 Y42.142 E.06847
G1 X213.736 Y43.182 E.06377
G1 X215.295 Y44.241 E.05909
G1 X217.02 Y45.579 E.06845
G1 X218.542 Y46.928 E.06377
G1 X219.969 Y48.36 E.06339
G1 X229.35 Y58.897 E.44234
G1 X229.952 Y60.478 E.05304
G1 X229.952 Y175.478 E3.60574
G1 X229.56 Y176.785 E.04278
G1 X228.515 Y177.661 E.04275
G1 X227.575 Y177.855 E.03009
G1 X165.075 Y177.855 E1.95964
G1 X23.793 Y176.959 E4.42989
M73 P0 R418
G1 X22.488 Y176.559 E.0428
G1 X21.619 Y175.508 E.04276
G1 X21.431 Y174.582 E.02963
G1 X21.431 Y59.582 E3.60574
G1 X22.033 Y58.002 E.05301
G1 X31.414 Y47.465 E.44234
G1 X32.841 Y46.032 E.06341
G1 X34.363 Y44.684 E.06375
G1 X34.502 Y44.576 E.00552
M204 S1000
; printing object 0 id:0 copy 0
;WIPE_START
G1 F8640
G1 X34.549 Y44.54 E-.01367
G1 X36.088 Y43.346 E-.44977
G1 X37.294 Y42.527 E-.33656
;WIPE_END
G1 Z.6 F720
G1 X224.034 Y61.08 F10800
G1 Z.2 F720
G1 E.8 F2100
M204 S800
;TYPE:Perimeter
;WIDTH:0.419999
G1 F1200
G1 X224.208 Y61.216 E.00692
G1 X224.438 Y61.265 E.00737
G1 X226.788 Y61.265 E.07368
G1 X226.788 Y63.614 E.07365
G1 X226.788 Y174.69 E3.4827
G1 X165.862 Y174.69 E1.91029
G1 X165.862 Y61.265 E3.55636
G1 X168.211 Y61.265 E.07365
M73 Q0 S427
G1 X168.344 Y61.249 E.0042
G1 X168.603 Y61.107 E.00926
G1 X168.744 Y60.891 E.00809
G1 X169.164 Y59.724 E.03889
G1 X169.893 Y58.039 E.05756
G1 X170.726 Y56.404 E.05753
G1 X171.66 Y54.825 E.05752
G1 X172.691 Y53.307 E.05754
G1 X173.816 Y51.857 E.05754
G1 X175.03 Y50.48 E.05756
G1 X176.327 Y49.183 E.05751
G1 X177.704 Y47.969 E.05756
G1 X179.154 Y46.844 E.05754
G1 X180.672 Y45.813 E.05754
G1 X182.252 Y44.878 E.05756
G1 X183.887 Y44.045 E.05753
G1 X185.571 Y43.316 E.05754
G1 X187.298 Y42.695 E.05754
G1 X189.06 Y42.183 E.05753
G1 X190.851 Y41.782 E.05755
G1 X192.664 Y41.495 E.05755
G1 X194.491 Y41.323 E.05754
G1 X196.325 Y41.265 E.05753
G1 X198.159 Y41.323 E.05753
G1 X199.986 Y41.495 E.05754
G1 X201.799 Y41.782 E.05755
G1 X203.59 Y42.183 E.05755
G1 X205.352 Y42.695 E.05753
G1 X207.079 Y43.316 E.05754
G1 X208.763 Y44.045 E.05754
G1 X210.398 Y44.878 E.05753
G1 X211.978 Y45.813 E.05756
G1 X213.496 Y46.844 E.05754
G1 X214.946 Y47.969 E.05754
G1 X216.292 Y49.156 E.05627
G1 X217.62 Y50.48 E.0588
G1 X218.834 Y51.857 E.05756
G1 X219.958 Y53.307 E.05752
G1 X220.99 Y54.825 E.05755
G1 X221.924 Y56.404 E.05752
G1 X222.757 Y58.039 E.05753
G1 X223.486 Y59.724 E.05756
G1 X223.797 Y60.586 E.02873
G1 X223.99 Y61.04 E.01547
M204 S1000
G1 X223.99 Y61.04 F10800
G1 X224.29 Y60.816
M204 S800
;TYPE:External perimeter
G1 F1200
G1 X224.438 Y60.888 E.00516
G1 X227.165 Y60.888 E.0855
G1 X227.165 Y63.614 E.08547
G1 X227.165 Y175.068 E3.49456
G1 X165.485 Y175.068 E1.93393
G1 X165.485 Y60.888 E3.58003
G1 X168.211 Y60.888 E.08547
G1 X168.288 Y60.871 E.00247
G1 X168.389 Y60.763 E.00464
G1 X168.813 Y59.585 E.03925
G1 X169.551 Y57.879 E.05828
G1 X170.395 Y56.223 E.05828
G1 X171.341 Y54.623 E.05828
G1 X172.386 Y53.085 E.0583
G1 X173.526 Y51.616 E.0583
G1 X174.755 Y50.222 E.05827
G1 X176.069 Y48.908 E.05826
G1 X177.464 Y47.678 E.05831
G1 X178.932 Y46.539 E.05826
G1 X180.47 Y45.494 E.0583
G1 X182.07 Y44.548 E.05828
G1 X183.726 Y43.704 E.05828
G1 X185.432 Y42.966 E.05828
G1 X187.181 Y42.336 E.05829
G1 X188.966 Y41.817 E.05829
G1 X190.78 Y41.412 E.05828
G1 X192.616 Y41.121 E.05828
G1 X194.467 Y40.946 E.0583
G1 X196.325 Y40.888 E.05828
G1 X198.183 Y40.946 E.05828
G1 X200.033 Y41.121 E.05826
G1 X201.869 Y41.412 E.05828
G1 X203.684 Y41.817 E.05831
G1 X205.469 Y42.336 E.05829
G1 X207.218 Y42.966 E.05829
G1 X208.924 Y43.704 E.05828
G1 X210.58 Y44.548 E.05828
G1 X212.18 Y45.494 E.05828
G1 X213.717 Y46.539 E.05828
G1 X215.186 Y47.678 E.05828
G1 X216.55 Y48.881 E.05702
G1 X217.895 Y50.222 E.05955
G1 X219.124 Y51.616 E.05827
G1 X220.264 Y53.085 E.0583
G1 X221.308 Y54.623 E.05828
G1 X222.255 Y56.223 E.0583
G1 X223.098 Y57.879 E.05826
G1 X223.837 Y59.585 E.05829
G1 X224.269 Y60.759 E.03922
M204 S1000
;WIPE_START
G1 F8640
G1 X224.29 Y60.816 E-.01403
G1 X224.438 Y60.888 E-.038
G1 X227.165 Y60.888 E-.62967
G1 X227.165 Y61.4 E-.1183
;WIPE_END
G1 Z.6 F720
G1 X214.526 Y47.786 F10800
G1 Z.2 F720
G1 E.8 F2100
M204 S800
;TYPE:Solid infill
;WIDTH:0.420429
G1 F1200
G1 X217.417 Y50.677 E.12834
G1 X218.616 Y52.037 E.05691
G1 X219.837 Y53.632 E.06305
G1 X213.171 Y46.965 E.29594
G1 X211.826 Y46.052 E.05103
G1 X211.574 Y45.902 E.00921
G1 X220.9 Y55.228 E.414
G1 X221.673 Y56.535 E.04767
G1 X210.267 Y45.13 E.50631
G1 X209.178 Y44.574 E.03838
G1 X222.228 Y57.624 E.57932
G1 X222.501 Y58.16 E.01888
G1 X222.708 Y58.638 E.01635
G1 X208.164 Y44.094 E.64564
G1 X207.223 Y43.687 E.03218
G1 X223.426 Y59.889 E.71926
M204 S1000
;WIPE_START
G1 F8640
G1 X220.976 Y57.439 E-.8
;WIPE_END
G1 Z.6 F720
G1 X225.982 Y61.378 F10800
G1 Z.2 F720
M73 P0 R417
G1 E.8 F2100
M204 S800
G1 F1200
G1 X226.505 Y61.901 E.02322
G1 X226.505 Y62.435 E.01676
G1 X225.617 Y61.547 E.03942
G1 X225.084 Y61.547 E.01673
G1 X226.505 Y62.969 E.0631
G1 X226.505 Y63.503 E.01676
G1 X224.55 Y61.547 E.08681
G1 X224.241 Y61.525 E.00972
G1 X224.092 Y61.474 E.00494
G1 X223.91 Y61.364 E.00668
G1 X223.803 Y61.262 E.00464
G1 X223.656 Y61.029 E.00865
G1 X223.445 Y60.442 E.01958
G1 X206.361 Y43.359 E.75837
G1 X205.526 Y43.058 E.02786
G1 X226.505 Y64.037 E.9313
G1 X226.505 Y64.571 E.01676
G1 X204.748 Y42.814 E.96584
G1 X203.996 Y42.595 E.02459
G1 X226.505 Y65.104 E.99922
G1 X226.505 Y65.638 E.01676
G1 X203.267 Y42.4 E1.03159
G1 X202.58 Y42.247 E.02209
G1 X226.505 Y66.172 E1.06208
G1 X226.505 Y66.706 E.01676
G1 X201.892 Y42.093 E1.09262
G1 X201.246 Y41.981 E.02058
G1 X226.505 Y67.24 E1.1213
G1 X226.505 Y67.774 E.01676
G1 X200.612 Y41.881 E1.14945
G1 X199.978 Y41.78 E.02015
G1 X226.505 Y68.308 E1.17761
G1 X226.505 Y68.842 E.01676
G1 X199.386 Y41.723 E1.20387
G1 X198.797 Y41.667 E.01857
G1 X226.505 Y69.375 E1.23002
G1 X226.505 Y69.909 E.01676
G1 X198.207 Y41.611 E1.25621
G1 X197.651 Y41.59 E.01747
G1 X226.505 Y70.443 E1.28087
G1 X226.505 Y70.977 E.01676
G1 X197.1 Y41.572 E1.30535
G1 X196.549 Y41.555 E.0173
G1 X226.505 Y71.511 E1.32981
G1 X226.505 Y72.045 E.01676
M73 Q0 S426
G1 X196.018 Y41.558 E1.35338
G1 X195.5 Y41.574 E.01627
G1 X226.505 Y72.579 E1.37638
G1 X226.505 Y73.113 E.01676
G1 X194.983 Y41.59 E1.39935
G1 X194.467 Y41.609 E.01621
G1 X226.505 Y73.646 E1.42221
G1 X226.505 Y74.18 E.01676
G1 X193.98 Y41.655 E1.44386
G1 X193.492 Y41.701 E.01539
G1 X226.505 Y74.714 E1.46552
G1 X226.505 Y75.248 E.01676
G1 X193.004 Y41.747 E1.48718
G1 X192.526 Y41.803 E.01511
G1 X226.505 Y75.782 E1.5084
G1 X226.505 Y76.316 E.01676
G1 X192.066 Y41.876 E1.52884
G1 X191.605 Y41.949 E.01465
G1 X226.505 Y76.85 E1.54931
G1 X226.505 Y77.384 E.01676
G1 X191.144 Y42.022 E1.56977
G1 X190.695 Y42.107 E.01434
G1 X226.505 Y77.918 E1.58971
G1 X226.505 Y78.451 E.01673
G1 X190.258 Y42.205 E1.60906
G1 X189.822 Y42.302 E.01402
M73 P0 R416
G1 X226.505 Y78.985 E1.62844
G1 X226.505 Y79.519 E.01676
G1 X189.386 Y42.4 E1.64779
G1 X188.959 Y42.507 E.01382
G1 X226.505 Y80.053 E1.66675
G1 X226.505 Y80.587 E.01676
G1 X188.545 Y42.627 E1.68513
G1 X188.131 Y42.747 E.01353
G1 X226.505 Y81.121 E1.7035
G1 X226.505 Y81.655 E.01676
G1 X187.718 Y42.867 E1.72186
G1 X187.308 Y42.992 E.01345
G1 X226.505 Y82.189 E1.74004
G1 X226.505 Y82.722 E.01673
G1 X186.916 Y43.133 E1.75744
G1 X186.523 Y43.274 E.01311
G1 X226.505 Y83.256 E1.77489
G1 X226.505 Y83.79 E.01676
G1 X186.13 Y43.416 E1.79231
G1 X185.738 Y43.557 E.01308
G1 X226.505 Y84.324 E1.80974
G1 X226.505 Y84.858 E.01676
M73 Q0 S425
G1 X185.362 Y43.715 E1.82643
G1 X184.989 Y43.876 E.01275
G1 X226.505 Y85.392 E1.84299
G1 X226.505 Y85.926 E.01676
G1 X184.617 Y44.038 E1.8595
G1 X184.244 Y44.199 E.01275
G1 X226.505 Y86.46 E1.87606
G1 X226.505 Y86.993 E.01673
G1 X183.878 Y44.367 E1.89228
G1 X183.525 Y44.547 E.01244
G1 X226.505 Y87.527 E1.90798
G1 X226.505 Y88.061 E.01676
G1 X183.171 Y44.727 E1.92369
G1 X182.817 Y44.908 E.01248
G1 X226.505 Y88.595 E1.93938
G1 X226.505 Y89.129 E.01676
G1 X182.464 Y45.088 E1.95508
G1 X182.124 Y45.282 E.01229
G1 X226.505 Y89.663 E1.97017
G1 X226.505 Y90.197 E.01676
M73 P0 R415
G1 X181.789 Y45.481 E1.98504
G1 X181.453 Y45.679 E.01224
G1 X226.505 Y90.731 E1.99996
G1 X226.505 Y91.264 E.01673
G1 X181.118 Y45.877 E2.01483
G1 X180.785 Y46.078 E.01221
G1 X226.505 Y91.798 E2.02961
G1 X226.505 Y92.332 E.01676
G1 X180.467 Y46.294 E2.04373
G1 X180.149 Y46.51 E.01207
G1 X226.505 Y92.866 E2.05784
G1 X226.505 Y93.4 E.01676
G1 X179.831 Y46.726 E2.07196
G1 X179.513 Y46.942 E.01207
G1 X226.505 Y93.934 E2.08608
G1 X226.505 Y94.468 E.01676
G1 X179.202 Y47.165 E2.09988
G1 X178.901 Y47.398 E.01195
M73 Q0 S424
G1 X226.505 Y95.002 E2.11324
G1 X226.505 Y95.535 E.01673
G1 X178.601 Y47.631 E2.12656
G1 X178.3 Y47.865 E.01197
G1 X226.505 Y96.069 E2.1399
G1 X226.505 Y96.603 E.01676
G1 X177.999 Y48.098 E2.15326
G1 X177.709 Y48.341 E.01188
G1 X226.505 Y97.137 E2.16616
G1 X226.505 Y97.671 E.01676
M73 P1 R415
G1 X177.426 Y48.592 E2.17872
G1 X177.142 Y48.842 E.01188
M73 Q1 S424
G1 X226.505 Y98.205 E2.19133
G1 X226.505 Y98.739 E.01676
G1 X176.858 Y49.092 E2.20394
G1 X176.574 Y49.342 E.01188
G1 X226.505 Y99.273 E2.21655
G1 X226.505 Y99.807 E.01676
M73 P1 R414
G1 X176.304 Y49.606 E2.22853
G1 X176.037 Y49.873 E.01185
G1 X226.505 Y100.34 E2.24036
G1 X226.505 Y100.874 E.01676
G1 X175.77 Y50.14 E2.25221
G1 X175.503 Y50.407 E.01185
G1 X226.505 Y101.408 E2.26407
G1 X226.505 Y101.942 E.01676
G1 X175.236 Y50.674 E2.27592
G1 X174.986 Y50.957 E.01185
G1 X226.505 Y102.476 E2.28704
G1 X226.505 Y103.01 E.01676
G1 X174.736 Y51.241 E2.29814
G1 X174.486 Y51.525 E.01188
G1 X226.505 Y103.544 E2.30924
G1 X226.505 Y104.078 E.01676
M73 Q1 S423
G1 X174.236 Y51.808 E2.32036
G1 X173.989 Y52.095 E.01189
G1 X226.505 Y104.611 E2.3313
G1 X226.505 Y105.145 E.01676
G1 X173.756 Y52.396 E2.34164
G1 X173.523 Y52.697 E.01195
G1 X226.505 Y105.679 E2.35199
G1 X226.505 Y106.213 E.01676
G1 X173.289 Y52.997 E2.36237
G1 X173.056 Y53.298 E.01195
G1 X226.505 Y106.747 E2.37272
G1 X226.505 Y107.281 E.01676
G1 X172.83 Y53.606 E2.38275
G1 X172.614 Y53.924 E.01207
G1 X226.505 Y107.815 E2.39234
G1 X226.505 Y108.349 E.01676
M73 P1 R413
G1 X172.398 Y54.242 E2.40193
G1 X172.182 Y54.56 E.01207
G1 X226.505 Y108.882 E2.41149
G1 X226.505 Y109.416 E.01676
G1 X171.966 Y54.877 E2.4211
G1 X171.762 Y55.207 E.01218
G1 X226.505 Y109.95 E2.43016
G1 X226.505 Y110.484 E.01676
G1 X171.564 Y55.543 E2.43895
G1 X171.365 Y55.878 E.01223
G1 X226.505 Y111.018 E2.44778
G1 X226.505 Y111.552 E.01676
G1 X171.167 Y56.214 E2.45657
G1 X170.969 Y56.55 E.01224
M73 Q1 S422
G1 X226.505 Y112.086 E2.46536
G1 X226.505 Y112.62 E.01676
G1 X170.789 Y56.903 E2.47338
G1 X170.609 Y57.257 E.01247
G1 X226.505 Y113.153 E2.48134
G1 X226.505 Y113.687 E.01676
G1 X170.428 Y57.611 E2.48936
G1 X170.248 Y57.964 E.01244
G1 X226.505 Y114.221 E2.49737
G1 X226.505 Y114.755 E.01676
G1 X170.076 Y58.327 E2.50498
G1 X169.915 Y58.699 E.01272
G1 X226.505 Y115.289 E2.51215
G1 X226.505 Y115.823 E.01676
G1 X169.754 Y59.072 E2.5193
G1 X169.593 Y59.444 E.01272
M73 P1 R412
G1 X226.505 Y116.357 E2.52647
G1 X226.505 Y116.891 E.01676
G1 X169.431 Y59.817 E2.53364
G1 X169.289 Y60.209 E.01309
G1 X226.505 Y117.425 E2.53994
G1 X226.505 Y117.958 E.01673
G1 X169.148 Y60.601 E2.5462
G1 X169.006 Y60.994 E.01312
G1 X226.505 Y118.492 E2.55248
G1 X226.505 Y119.026 E.01676
G1 X168.792 Y61.314 E2.56198
G1 X168.558 Y61.474 E.0089
G1 X168.454 Y61.509 E.00344
G1 X226.505 Y119.56 E2.57701
G1 X226.505 Y120.094 E.01676
M73 Q1 S421
G1 X167.959 Y61.547 E2.59901
G1 X167.425 Y61.547 E.01676
G1 X226.505 Y120.628 E2.62271
G1 X226.505 Y121.162 E.01676
G1 X166.891 Y61.547 E2.64642
G1 X166.357 Y61.547 E.01676
G1 X226.505 Y121.696 E2.67012
G1 X226.505 Y122.229 E.01673
G1 X166.145 Y61.869 E2.67951
G1 X166.145 Y62.403 E.01676
G1 X226.505 Y122.763 E2.67951
G1 X226.505 Y123.297 E.01676
G1 X166.145 Y62.937 E2.67951
G1 X166.145 Y63.471 E.01676
M73 P1 R411
G1 X226.505 Y123.831 E2.67951
G1 X226.505 Y124.365 E.01676
G1 X166.145 Y64.005 E2.67951
G1 X166.145 Y64.539 E.01676
G1 X226.505 Y124.899 E2.67951
G1 X226.505 Y125.433 E.01676
G1 X166.145 Y65.072 E2.67953
G1 X166.145 Y65.606 E.01676
G1 X226.505 Y125.967 E2.67953
G1 X226.505 Y126.5 E.01673
G1 X166.145 Y66.14 E2.67951
G1 X166.145 Y66.674 E.01676
G1 X226.505 Y127.034 E2.67951
G1 X226.505 Y127.568 E.01676
M73 Q1 S420
G1 X166.145 Y67.208 E2.67951
G1 X166.145 Y67.742 E.01676
G1 X226.505 Y128.102 E2.67951
G1 X226.505 Y128.636 E.01676
G1 X166.145 Y68.276 E2.67951
G1 X166.145 Y68.81 E.01676
G1 X226.505 Y129.17 E2.67951
G1 X226.505 Y129.704 E.01676
G1 X166.145 Y69.343 E2.67953
G1 X166.145 Y69.877 E.01676
G1 X226.505 Y130.238 E2.67953
G1 X226.505 Y130.771 E.01673
G1 X166.145 Y70.411 E2.67951
G1 X166.145 Y70.945 E.01676
M73 P2 R410
G1 X226.505 Y131.305 E2.67951
G1 X226.505 Y131.839 E.01676
G1 X166.145 Y71.479 E2.67951
G1 X166.145 Y72.013 E.01676
M73 Q2 S420
G1 X226.505 Y132.373 E2.67951
G1 X226.505 Y132.907 E.01676
G1 X166.145 Y72.547 E2.67951
G1 X166.145 Y73.081 E.01676
G1 X226.505 Y133.441 E2.67951
G1 X226.505 Y133.975 E.01676
G1 X166.145 Y73.615 E2.67951
G1 X166.145 Y74.148 E.01673
G1 X226.505 Y134.509 E2.67953
G1 X226.505 Y135.042 E.01673
M73 Q2 S419
G1 X166.145 Y74.682 E2.67951
G1 X166.145 Y75.216 E.01676
G1 X226.505 Y135.576 E2.67951
G1 X226.505 Y136.11 E.01676
G1 X166.145 Y75.75 E2.67951
G1 X166.145 Y76.284 E.01676
