; generated by PrusaSlicer 2.7.2+win64 on 2024-04-21 at 00:06:05 UTC


;
;
; 

; external perimeters extrusion width = 0.45mm
; perimeters extrusion width = 0.45mm
; infill extrusion width = 0.45mm
; solid infill extrusion width = 0.45mm
; top infill extrusion width = 0.40mm
; first layer extrusion width = 0.42mm

M73 P0 R207
M73 Q0 S213
M201 X1000 Y1000 Z200 E5000 ; sets maximum accelerations, mm/sec^2
M203 X200 Y200 Z12 E120 ; sets maximum feedrates, mm / sec
M204 S1250 T1250 ; sets acceleration (S) and retract acceleration (R), mm/sec^2
M205 X8.00 Y8.00 Z0.40 E4.50 ; sets the jerk limits, mm/sec
M205 S0 T0 ; sets the minimum extruding and travel feed rate, mm/sec

; printing object 0 id:0 copy 0
; stop printing object 0 id:0 copy 0

;TYPE:Custom
M862.3 P "MK3S" ; printer model check
M862.1 P0.4 ; nozzle diameter check
M115 U3.12.2 ; tell printer latest fw version
G90 ; use absolute coordinates
M83 ; extruder relative mode
M104 S215 ; set extruder temp
M140 S60 ; set bed temp
M190 S60 ; wait for bed temp
M109 S215 ; wait for extruder temp
G28 W ; home all without mesh bed level
G80 ; mesh bed leveling

G1 Z0.2 F720
G1 Y-3 F1000 ; go outside print area
G92 E0
G1 X60 E9 F1000 ; intro line
G1 X100 E12.5 F1000 ; intro line

G92 E0
M221 S95

; Don't change E values below. Excessive value can damage the printer.

M907 E538 ; set extruder motor current
G21 ; set units to millimeters
G90 ; use absolute coordinates
M83 ; use relative distances for extrusion
M900 K0.05 ; Filament gcode LA 1.5
M900 K30 ; Filament gcode LA 1.0
M107
;LAYER_CHANGE
;Z:0.2
;HEIGHT:0.2
G1 E-.8 F2100
G1 Z.6 F720
G1 X57.124 Y49.467 F10800
G1 Z.2 F720
G1 E.8 F2100
M204 S800
;TYPE:Skirt/Brim
;WIDTH:0.42
G1 F1200
G1 X58.335 Y48.527 E.04807
G1 X112.176 Y29.96 E1.78571
G1 X114.13 Y29.397 E.06376
G1 X115.97 Y28.986 E.05911
G1 X117.978 Y28.663 E.06377
G1 X120.151 Y28.458 E.06844
G1 X122.035 Y28.398 E.0591
G1 X124.021 Y28.456 E.0623
G1 X126.093 Y28.644 E.06523
G1 X128.103 Y28.958 E.06379
G1 X130.089 Y29.397 E.06377
G1 X132.155 Y29.996 E.06745
G1 X185.885 Y48.527 E1.78205
G1 X186.993 Y49.324 E.04279
G1 X187.487 Y50.774 E.04803
G1 X187.487 Y165.774 E3.60574
G1 X187.095 Y167.081 E.04278
G1 X186.049 Y167.958 E.0428
G1 X185.11 Y168.151 E.03006
G1 X59.11 Y168.151 E3.95064
G1 X57.803 Y167.76 E.04277
M73 Q0 S212
G1 X56.926 Y166.714 E.0428
G1 X56.733 Y165.774 E.03009
G1 X56.733 Y50.774 E3.60574
G1 X57.107 Y49.525 E.04088
M204 S1000
; printing object 0 id:0 copy 0
;WIPE_START
G1 F8640
G1 X57.124 Y49.467 E-.01396
G1 X58.335 Y48.527 E-.35398
G1 X60.104 Y47.917 E-.43206
;WIPE_END
G1 Z.6 F720
G1 X59.897 Y51.561 F10800
G1 Z.2 F720
G1 E.8 F2100
M204 S800
;TYPE:Perimeter
;WIDTH:0.419999
G1 F1200
G1 X93.996 Y51.561 E1.06915
G1 X94.121 Y51.548 E.00394
G1 X94.37 Y51.421 E.00876
G1 X94.528 Y51.187 E.00885
G1 X94.949 Y50.021 E.03887
G1 X95.677 Y48.336 E.05755
G1 X96.511 Y46.701 E.05755
G1 X97.445 Y45.122 E.05752
G1 X98.476 Y43.604 E.05754
G1 X99.601 Y42.154 E.05754
G1 X100.815 Y40.777 E.05756
G1 X102.112 Y39.479 E.05753
G1 X103.489 Y38.266 E.05754
G1 X104.939 Y37.141 E.05754
G1 X106.457 Y36.109 E.05755
G1 X108.036 Y35.175 E.05752
G1 X109.672 Y34.342 E.05756
G1 X111.356 Y33.613 E.05754
G1 X113.082 Y32.992 E.05751
G1 X114.845 Y32.48 E.05756
G1 X116.636 Y32.079 E.05755
G1 X118.448 Y31.792 E.05752
G1 X120.275 Y31.62 E.05754
G1 X122.11 Y31.562 E.05756
G1 X123.944 Y31.62 E.05753
G1 X125.771 Y31.792 E.05754
G1 X127.584 Y32.079 E.05755
G1 X129.375 Y32.48 E.05755
G1 X131.137 Y32.992 E.05753
G1 X132.863 Y33.613 E.05751
G1 X134.548 Y34.342 E.05756
G1 X136.183 Y35.175 E.05753
G1 X137.763 Y36.109 E.05755
G1 X139.28 Y37.141 E.05753
G1 X140.73 Y38.266 E.05754
G1 X142.107 Y39.479 E.05754
G1 X143.405 Y40.777 E.05756
G1 X144.618 Y42.154 E.05754
G1 X145.743 Y43.604 E.05754
G1 X146.775 Y45.122 E.05755
G1 X147.709 Y46.701 E.05752
G1 X148.542 Y48.336 E.05753
G1 X149.271 Y50.021 E.05756
G1 X149.74 Y51.29 E.04242
G1 X149.946 Y51.489 E.00898
G1 X150.223 Y51.561 E.00897
G1 X184.323 Y51.561 E1.06918
G1 X184.323 Y85.661 E1.06918
G1 X184.323 Y164.987 E2.48721
G1 X59.897 Y164.987 E3.90128
G1 X59.897 Y51.621 E3.55451
M204 S1000
G1 X59.897 Y51.621 F10800
M73 P0 R206
G1 X59.52 Y51.184
M204 S800
;TYPE:External perimeter
G1 F1200
G1 X94.059 Y51.174 E1.08294
G1 X94.174 Y51.06 E.00508
G1 X94.598 Y49.882 E.03925
G1 X95.336 Y48.176 E.05828
G1 X96.18 Y46.519 E.05831
G1 X97.126 Y44.919 E.05828
G1 X98.171 Y43.382 E.05828
G1 X99.31 Y41.913 E.05828
G1 X100.54 Y40.519 E.05829
G1 X101.854 Y39.204 E.05829
G1 X103.248 Y37.975 E.05827
G1 X104.717 Y36.836 E.05828
G1 X106.255 Y35.791 E.0583
G1 X107.855 Y34.845 E.05828
G1 X109.511 Y34.001 E.05828
G1 X111.217 Y33.262 E.05829
G1 X112.966 Y32.633 E.05828
G1 X114.751 Y32.114 E.05829
G1 X116.565 Y31.709 E.05828
G1 X118.401 Y31.418 E.05828
G1 X120.252 Y31.243 E.0583
G1 X122.11 Y31.185 E.05828
G1 X123.968 Y31.243 E.05828
G1 X125.818 Y31.418 E.05826
G1 X127.654 Y31.709 E.05828
G1 X129.468 Y32.114 E.05828
G1 X131.253 Y32.633 E.05829
G1 X133.002 Y33.262 E.05828
G1 X134.708 Y34.001 E.05829
G1 X136.365 Y34.845 E.05831
G1 X137.965 Y35.791 E.05828
G1 X139.502 Y36.836 E.05828
G1 X140.971 Y37.975 E.05828
G1 X142.365 Y39.204 E.05827
G1 X143.68 Y40.519 E.05831
G1 X144.909 Y41.913 E.05827
G1 X146.048 Y43.382 E.05828
G1 X147.093 Y44.919 E.05828
G1 X148.039 Y46.519 E.05828
G1 X148.883 Y48.176 E.05831
G1 X149.622 Y49.882 E.05829
G1 X150.076 Y51.114 E.04117
G1 X150.223 Y51.184 E.0051
G1 X184.7 Y51.184 E1.081
G1 X184.7 Y85.661 E1.081
G1 X184.7 Y165.364 E2.49903
G1 X59.52 Y165.364 E3.92492
G1 X59.52 Y51.244 E3.57815
M204 S1000
;WIPE_START
G1 F8640
G1 X59.52 Y51.184 E-.01385
G1 X62.925 Y51.183 E-.78615
;WIPE_END
G1 Z.6 F720
G1 X184.209 Y52.437 F10800
G1 Z.2 F720
G1 E.8 F2100
M204 S800
;TYPE:Solid infill
;WIDTH:0.420268
G1 F1200
G1 X183.616 Y51.844 E.02631
G1 X183.083 Y51.844 E.01672
G1 X184.04 Y52.801 E.04247
G1 X184.04 Y53.335 E.01676
G1 X182.549 Y51.844 E.06616
G1 X182.015 Y51.844 E.01676
G1 X184.04 Y53.869 E.08986
G1 X184.04 Y54.402 E.01672
G1 X181.482 Y51.844 E.11351
G1 X180.948 Y51.844 E.01676
G1 X184.04 Y54.936 E.1372
G1 X184.04 Y55.47 E.01676
G1 X180.414 Y51.844 E.1609
G1 X179.881 Y51.844 E.01672
G1 X184.04 Y56.003 E.18455
G1 X184.04 Y56.537 E.01676
G1 X179.347 Y51.844 E.20824
G1 X178.813 Y51.844 E.01676
G1 X184.04 Y57.071 E.23194
G1 X184.04 Y57.604 E.01672
M73 Q0 S211
G1 X178.28 Y51.844 E.25559
G1 X177.746 Y51.844 E.01676
G1 X184.04 Y58.138 E.27929
G1 X184.04 Y58.672 E.01676
G1 X177.213 Y51.844 E.30296
G1 X176.679 Y51.844 E.01676
G1 X184.04 Y59.205 E.32663
G1 X184.04 Y59.739 E.01676
G1 X176.145 Y51.844 E.35033
G1 X175.612 Y51.844 E.01672
G1 X184.04 Y60.273 E.374
G1 X184.04 Y60.806 E.01672
G1 X175.078 Y51.844 E.39767
G1 X174.544 Y51.844 E.01676
G1 X184.04 Y61.34 E.42137
G1 X184.04 Y61.873 E.01672
G1 X174.011 Y51.844 E.44502
G1 X173.477 Y51.844 E.01676
G1 X184.04 Y62.407 E.46871
G1 X184.04 Y62.941 E.01676
G1 X172.943 Y51.844 E.49241
G1 X172.41 Y51.844 E.01672
G1 X184.04 Y63.474 E.51606
G1 X184.04 Y64.008 E.01676
G1 X171.876 Y51.844 E.53976
G1 X171.342 Y51.844 E.01676
G1 X184.04 Y64.542 E.56345
G1 X184.04 Y65.075 E.01672
G1 X170.809 Y51.844 E.5871
G1 X170.275 Y51.844 E.01676
G1 X184.04 Y65.609 E.6108
G1 X184.04 Y66.143 E.01676
G1 X169.741 Y51.844 E.63449
G1 X169.208 Y51.844 E.01672
G1 X184.04 Y66.676 E.65814
G1 X184.04 Y67.21 E.01676
G1 X168.674 Y51.844 E.68184
G1 X168.14 Y51.844 E.01676
G1 X184.04 Y67.744 E.70553
G1 X184.04 Y68.277 E.01672
G1 X167.607 Y51.844 E.72919
G1 X167.073 Y51.844 E.01676
G1 X184.04 Y68.811 E.75288
G1 X184.04 Y69.345 E.01676
G1 X166.539 Y51.844 E.77658
G1 X166.006 Y51.844 E.01672
G1 X184.04 Y69.878 E.80023
G1 X184.04 Y70.412 E.01676
G1 X165.472 Y51.844 E.82392
G1 X164.939 Y51.844 E.01672
G1 X184.04 Y70.946 E.8476
G1 X184.04 Y71.479 E.01672
G1 X164.405 Y51.844 E.87127
G1 X163.871 Y51.844 E.01676
G1 X184.04 Y72.013 E.89496
G1 X184.04 Y72.546 E.01672
M73 P0 R205
G1 X163.338 Y51.844 E.91861
G1 X162.804 Y51.844 E.01676
G1 X184.04 Y73.08 E.94231
G1 X184.04 Y73.614 E.01676
G1 X162.27 Y51.844 E.96601
G1 X161.737 Y51.844 E.01672
G1 X184.04 Y74.147 E.98966
G1 X184.04 Y74.681 E.01676
G1 X161.203 Y51.844 E1.01335
G1 X160.669 Y51.844 E.01676
G1 X184.04 Y75.215 E1.03705
G1 X184.04 Y75.748 E.01672
G1 X160.136 Y51.844 E1.0607
G1 X159.602 Y51.844 E.01676
G1 X184.04 Y76.282 E1.08439
G1 X184.04 Y76.816 E.01676
M73 P1 R205
G1 X159.068 Y51.844 E1.10809
G1 X158.535 Y51.844 E.01672
G1 X184.04 Y77.349 E1.13174
G1 X184.04 Y77.883 E.01676
M73 Q1 S211
G1 X158.001 Y51.844 E1.15543
G1 X157.467 Y51.844 E.01676
G1 X184.04 Y78.417 E1.17913
G1 X184.04 Y78.95 E.01672
G1 X156.934 Y51.844 E1.20278
G1 X156.4 Y51.844 E.01676
G1 X184.04 Y79.484 E1.22648
G1 X184.04 Y80.018 E.01676
G1 X155.866 Y51.844 E1.25017
G1 X155.333 Y51.844 E.01672
G1 X184.04 Y80.551 E1.27382
G1 X184.04 Y81.085 E.01676
G1 X154.799 Y51.844 E1.29752
G1 X154.266 Y51.844 E.01672
G1 X184.04 Y81.619 E1.32119
G1 X184.04 Y82.152 E.01672
G1 X153.732 Y51.844 E1.34486
G1 X153.198 Y51.844 E.01676
M73 Q1 S210
G1 X184.04 Y82.686 E1.36856
G1 X184.04 Y83.219 E.01672
G1 X152.665 Y51.844 E1.39221
G1 X152.131 Y51.844 E.01676
G1 X184.04 Y83.753 E1.41591
G1 X184.04 Y84.287 E.01676
G1 X151.597 Y51.844 E1.4396
G1 X151.064 Y51.844 E.01672
G1 X184.04 Y84.82 E1.46325
G1 X184.04 Y85.354 E.01676
G1 X150.36 Y51.675 E1.49447
M204 S1000
;WIPE_START
G1 F8640
G1 X152.81 Y54.125 E-.8
;WIPE_END
G1 Z.6 F720
G1 X145.85 Y43.963 F10800
G1 Z.2 F720
G1 E.8 F2100
M204 S800
G1 F1200
G1 X139.753 Y37.866 E.27054
G1 X139.114 Y37.37 E.02538
G1 X137.896 Y36.542 E.04621
G1 X146.342 Y44.988 E.37478
G1 X146.536 Y45.273 E.01082
G1 X147.176 Y46.356 E.03947
G1 X136.529 Y35.708 E.47246
G1 X136.047 Y35.423 E.01757
G1 X135.36 Y35.073 E.02419
G1 X147.811 Y47.524 E.55249
G1 X148.344 Y48.591 E.03742
G1 X134.293 Y34.54 E.62349
G1 X133.352 Y34.133 E.03217
G1 X148.751 Y49.532 E.6833
G1 X149.008 Y50.125 E.02028
G1 X149.121 Y50.435 E.01035
G1 X132.451 Y33.765 E.7397
G1 X131.617 Y33.465 E.02781
G1 X184.04 Y85.888 E2.32618
G1 X184.04 Y86.421 E.01672
M73 P1 R204
G1 X130.809 Y33.191 E2.36201
G1 X130.057 Y32.972 E.02458
G1 X184.04 Y86.955 E2.3954
G1 X184.04 Y87.489 E.01676
G1 X129.305 Y32.754 E2.42877
G1 X128.618 Y32.6 E.02209
G1 X184.04 Y88.022 E2.45925
G1 X184.04 Y88.556 E.01676
G1 X127.93 Y32.447 E2.48976
G1 X127.265 Y32.315 E.02127
G1 X184.04 Y89.09 E2.51929
G1 X184.04 Y89.623 E.01672
G1 X126.631 Y32.215 E2.5474
G1 X125.997 Y32.114 E.02014
G1 X184.04 Y90.157 E2.57556
G1 X184.04 Y90.691 E.01676
G1 X125.389 Y32.04 E2.60253
G1 X124.8 Y31.985 E.01856
M73 Q1 S209
G1 X184.04 Y91.224 E2.62865
G1 X184.04 Y91.758 E.01676
G1 X124.211 Y31.929 E2.65481
G1 X123.641 Y31.893 E.01792
G1 X184.04 Y92.292 E2.6801
G1 X184.04 Y92.825 E.01672
G1 X123.09 Y31.876 E2.70453
G1 X122.539 Y31.858 E.0173
G1 X184.04 Y93.359 E2.729
G1 X184.04 Y93.892 E.01672
G1 X121.996 Y31.848 E2.75309
G1 X121.478 Y31.865 E.01626
M73 P1 R203
G1 X184.04 Y94.426 E2.77606
G1 X184.04 Y94.96 E.01676
G1 X120.961 Y31.881 E2.79902
G1 X120.444 Y31.897 E.01623
G1 X184.04 Y95.493 E2.82196
G1 X184.04 Y96.027 E.01676
G1 X119.947 Y31.935 E2.84399
G1 X119.46 Y31.981 E.01535
M73 P2 R203
G1 X184.04 Y96.561 E2.86562
G1 X184.04 Y97.094 E.01672
M73 Q2 S209
G1 X118.972 Y32.027 E2.88726
G1 X118.485 Y32.073 E.01535
G1 X184.04 Y97.628 E2.90889
G1 X184.04 Y98.162 E.01676
M73 Q2 S208
G1 X118.024 Y32.146 E2.92934
G1 X117.563 Y32.219 E.01464
G1 X184.04 Y98.695 E2.94978
G1 X184.04 Y99.229 E.01676
G1 X117.103 Y32.292 E2.97021
G1 X116.644 Y32.367 E.01459
G1 X184.04 Y99.763 E2.99058
G1 X184.04 Y100.296 E.01672
G1 X116.208 Y32.465 E3.0099
G1 X115.772 Y32.562 E.01401
G1 X184.04 Y100.83 E3.02927
G1 X184.04 Y101.364 E.01676
M73 P2 R202
G1 X115.336 Y32.66 E3.04862
G1 X114.9 Y32.758 E.01402
G1 X184.04 Y101.897 E3.06794
G1 X184.04 Y102.431 E.01676
G1 X114.487 Y32.878 E3.08629
G1 X114.073 Y32.998 E.01352
G1 X184.04 Y102.965 E3.10466
G1 X184.04 Y103.498 E.01672
G1 X113.66 Y33.118 E3.12299
G1 X113.246 Y33.238 E.01352
G1 X184.04 Y104.032 E3.14136
G1 X184.04 Y104.566 E.01676
G1 X112.85 Y33.376 E3.15893
G1 X112.458 Y33.517 E.01307
M73 Q2 S207
G1 X184.04 Y105.099 E3.17632
G1 X184.04 Y105.633 E.01676
G1 X112.065 Y33.658 E3.19376
G1 X111.673 Y33.8 E.01308
G1 X184.04 Y106.166 E3.21114
G1 X184.04 Y106.7 E.01676
G1 X111.29 Y33.95 E3.22815
G1 X110.917 Y34.111 E.01275
G1 X184.04 Y107.234 E3.2447
G1 X184.04 Y107.767 E.01672
M73 P2 R201
G1 X110.545 Y34.272 E3.26121
G1 X110.172 Y34.434 E.01276
G1 X184.04 Y108.301 E3.27774
G1 X184.04 Y108.835 E.01676
G1 X109.8 Y34.595 E3.29427
G1 X109.446 Y34.774 E.01245
G1 X184.04 Y109.368 E3.30998
G1 X184.04 Y109.902 E.01676
M73 P3 R201
G1 X109.092 Y34.955 E3.32566
G1 X108.739 Y35.135 E.01243
G1 X184.04 Y110.436 E3.34135
G1 X184.04 Y110.969 E.01672
M73 Q3 S206
G1 X108.385 Y35.315 E3.35703
G1 X108.039 Y35.502 E.01234
G1 X184.04 Y111.503 E3.37241
G1 X184.04 Y112.037 E.01676
G1 X107.704 Y35.701 E3.38728
G1 X107.368 Y35.899 E.01224
G1 X184.04 Y112.57 E3.40216
G1 X184.04 Y113.104 E.01676
G1 X107.033 Y36.097 E3.41705
G1 X106.698 Y36.296 E.01223
M73 P3 R200
G1 X184.04 Y113.638 E3.43191
G1 X184.04 Y114.171 E.01672
G1 X106.375 Y36.507 E3.44623
G1 X106.058 Y36.723 E.01204
G1 X184.04 Y114.705 E3.46031
G1 X184.04 Y115.239 E.01676
G1 X105.74 Y36.939 E3.47442
G1 X105.422 Y37.155 E.01206
G1 X184.04 Y115.772 E3.48851
G1 X184.04 Y116.306 E.01676
G1 X105.104 Y37.37 E3.50265
G1 X104.804 Y37.604 E.01194
M73 Q3 S205
G1 X184.04 Y116.839 E3.51594
G1 X184.04 Y117.373 E.01676
G1 X104.503 Y37.837 E3.52929
G1 X104.203 Y38.07 E.01192
G1 X184.04 Y117.907 E3.54263
G1 X184.04 Y118.44 E.01672
G1 X103.902 Y38.303 E3.55596
G1 X103.606 Y38.54 E.0119
G1 X184.04 Y118.974 E3.56912
G1 X184.04 Y119.508 E.01676
M73 P3 R199
G1 X103.322 Y38.79 E3.58172
G1 X103.038 Y39.04 E.01187
G1 X184.04 Y120.041 E3.5943
G1 X184.04 Y120.575 E.01676
G1 X102.755 Y39.29 E3.60688
G1 X102.471 Y39.54 E.01187
G1 X184.04 Y121.109 E3.61948
G1 X184.04 Y121.642 E.01672
M73 P4 R199
G1 X102.195 Y39.797 E3.63173
G1 X101.928 Y40.064 E.01185
G1 X184.04 Y122.176 E3.64358
G1 X184.04 Y122.71 E.01676
M73 Q3 S204
G1 X101.661 Y40.331 E3.65542
G1 X101.394 Y40.598 E.01185
M73 Q4 S204
G1 X184.04 Y123.243 E3.66725
G1 X184.04 Y123.777 E.01676
G1 X101.127 Y40.864 E3.67912
G1 X100.871 Y41.141 E.01183
G1 X184.04 Y124.311 E3.6905
G1 X184.04 Y124.844 E.01672
M73 P4 R198
G1 X100.62 Y41.425 E3.70159
G1 X100.37 Y41.709 E.01187
G1 X184.04 Y125.378 E3.71269
G1 X184.04 Y125.912 E.01676
G1 X100.12 Y41.992 E3.7238
G1 X99.87 Y42.276 E.01187
G1 X184.04 Y126.445 E3.73487
G1 X184.04 Y126.979 E.01676
G1 X99.634 Y42.573 E3.74537
G1 X99.401 Y42.873 E.01192
G1 X184.04 Y127.512 E3.75571
G1 X184.04 Y128.046 E.01676
M73 Q4 S203
G1 X99.168 Y43.174 E3.76605
G1 X98.934 Y43.474 E.01194
G1 X184.04 Y128.58 E3.77643
G1 X184.04 Y129.113 E.01672
G1 X98.702 Y43.775 E3.78672
G1 X98.486 Y44.093 E.01206
G1 X184.04 Y129.647 E3.79631
G1 X184.04 Y130.181 E.01676
M73 P4 R197
G1 X98.27 Y44.411 E3.80589
G1 X98.054 Y44.728 E.01204
G1 X184.04 Y130.714 E3.81548
G1 X184.04 Y131.248 E.01676
G1 X97.838 Y45.046 E3.82506
G1 X97.627 Y45.369 E.01211
G1 X184.04 Y131.782 E3.83442
G1 X184.04 Y132.315 E.01672
G1 X97.429 Y45.704 E3.84321
G1 X97.23 Y46.04 E.01225
M73 P5 R197
G1 X184.04 Y132.849 E3.85202
G1 X184.04 Y133.383 E.01676
M73 Q4 S202
G1 X97.032 Y46.375 E3.86083
G1 X96.834 Y46.71 E.01221
G1 X184.04 Y133.916 E3.86961
G1 X184.04 Y134.45 E.01676
M73 Q5 S202
G1 X96.647 Y47.057 E3.87791
G1 X96.467 Y47.41 E.01243
G1 X184.04 Y134.984 E3.88592
G1 X184.04 Y135.517 E.01672
M73 P5 R196
G1 X96.286 Y47.764 E3.89391
G1 X96.106 Y48.117 E.01243
G1 X184.04 Y136.051 E3.90192
G1 X184.04 Y136.585 E.01676
G1 X95.927 Y48.472 E3.90986
G1 X95.766 Y48.844 E.01272
G1 X184.04 Y137.118 E3.917
G1 X184.04 Y137.652 E.01676
G1 X95.605 Y49.217 E3.92415
G1 X95.443 Y49.589 E.01273
M73 Q5 S201
G1 X184.04 Y138.186 E3.93134
G1 X184.04 Y138.719 E.01672
G1 X95.282 Y49.962 E3.93846
G1 X95.131 Y50.345 E.01292
G1 X184.04 Y139.253 E3.94516
G1 X184.04 Y139.786 E.01672
G1 X94.989 Y50.736 E3.95146
G1 X94.846 Y51.127 E.01306
M73 P5 R195
G1 X184.04 Y140.32 E3.9578
G1 X184.04 Y140.854 E.01676
G1 X94.681 Y51.494 E3.96517
