; generated by PrusaSlicer 2.7.2+win64 on 2024-04-21 at 00:08:20 UTC


;
;
; 

; external perimeters extrusion width = 0.45mm
; perimeters extrusion width = 0.45mm
; infill extrusion width = 0.45mm
; solid infill extrusion width = 0.45mm
; top infill extrusion width = 0.40mm
; first layer extrusion width = 0.42mm

M73 P0 R291
M73 Q0 S300
M201 X1000 Y1000 Z200 E5000 ; sets maximum accelerations, mm/sec^2
M203 X200 Y200 Z12 E120 ; sets maximum feedrates, mm / sec
M204 S1250 T1250 ; sets acceleration (S) and retract acceleration (R), mm/sec^2
M205 X8.00 Y8.00 Z0.40 E4.50 ; sets the jerk limits, mm/sec
M205 S0 T0 ; sets the minimum extruding and travel feed rate, mm/sec

; printing object 0 id:0 copy 0
; stop printing object 0 id:0 copy 0

;TYPE:Custom
M862.3 P "MK3S" ; printer model check
M862.1 P0.4 ; nozzle diameter check
M115 U3.12.2 ; tell printer latest fw version
G90 ; use absolute coordinates
M83 ; extruder relative mode
M104 S215 ; set extruder temp
M140 S60 ; set bed temp
M190 S60 ; wait for bed temp
M109 S215 ; wait for extruder temp
G28 W ; home all without mesh bed level
G80 ; mesh bed leveling

G1 Z0.2 F720
G1 Y-3 F1000 ; go outside print area
G92 E0
G1 X60 E9 F1000 ; intro line
G1 X100 E12.5 F1000 ; intro line

G92 E0
M221 S95

; Don't change E values below. Excessive value can damage the printer.

M907 E538 ; set extruder motor current
G21 ; set units to millimeters
G90 ; use absolute coordinates
M83 ; use relative distances for extrusion
M900 K0.05 ; Filament gcode LA 1.5
M900 K30 ; Filament gcode LA 1.0
M107
;LAYER_CHANGE
;Z:0.2
;HEIGHT:0.2
G1 E-.8 F2100
G1 Z.6 F720
G1 X60.015 Y56.193 F10800
G1 Z.2 F720
G1 E.8 F2100
M204 S800
;TYPE:Skirt/Brim
;WIDTH:0.42
G1 F1200
G1 X61.225 Y55.253 E.04804
G1 X115.066 Y36.686 E1.78571
G1 X117.021 Y36.123 E.06379
G1 X118.86 Y35.712 E.05908
G1 X120.868 Y35.389 E.06377
G1 X123.042 Y35.183 E.06847
G1 X124.925 Y35.124 E.05907
G1 X126.911 Y35.182 E.0623
G1 X128.984 Y35.37 E.06526
G1 X130.993 Y35.684 E.06376
G1 X132.979 Y36.123 E.06377
G1 X135.046 Y36.721 E.06747
G1 X188.775 Y55.253 E1.78203
G1 X189.883 Y56.049 E.04278
G1 X190.377 Y57.5 E.04806
G1 X190.377 Y172.5 E3.60574
G1 X189.985 Y173.807 E.04278
G1 X188.94 Y174.683 E.04275
G1 X188 Y174.877 E.03009
G1 X62 Y174.877 E3.95064
G1 X60.693 Y174.485 E.04278
G1 X59.817 Y173.44 E.04275
G1 X59.623 Y172.5 E.03009
G1 X59.623 Y57.5 E3.60574
G1 X59.997 Y56.25 E.04091
M204 S1000
; printing object 0 id:0 copy 0
;WIPE_START
G1 F8640
G1 X60.015 Y56.193 E-.0138
G1 X61.225 Y55.253 E-.35379
G1 X62.995 Y54.642 E-.43241
;WIPE_END
G1 Z.6 F720
G1 X62.787 Y58.287 F10800
G1 Z.2 F720
G1 E.8 F2100
M204 S800
;TYPE:Perimeter
;WIDTH:0.419999
G1 F1200
G1 X96.887 Y58.287 E1.06918
G1 X97.011 Y58.273 E.00391
G1 X97.26 Y58.146 E.00876
G1 X97.419 Y57.913 E.00884
G1 X97.839 Y56.746 E.03889
G1 X98.568 Y55.062 E.05754
G1 X99.401 Y53.427 E.05753
G1 X100.335 Y51.847 E.05755
G1 X101.367 Y50.329 E.05755
G1 X102.491 Y48.879 E.05752
G1 X103.705 Y47.503 E.05753
G1 X105.003 Y46.205 E.05756
G1 X106.379 Y44.991 E.05753
G1 X107.829 Y43.867 E.05752
G1 X109.347 Y42.835 E.05755
G1 X110.927 Y41.901 E.05755
G1 X112.562 Y41.068 E.05753
G1 X114.246 Y40.339 E.05754
G1 X115.973 Y39.717 E.05755
G1 X117.735 Y39.205 E.05753
G1 X119.526 Y38.805 E.05754
G1 X121.339 Y38.518 E.05755
G1 X123.166 Y38.345 E.05754
G1 X125 Y38.287 E.05753
G1 X126.834 Y38.345 E.05753
G1 X128.661 Y38.518 E.05754
G1 X130.474 Y38.805 E.05755
G1 X132.265 Y39.205 E.05754
G1 X134.027 Y39.717 E.05753
G1 X135.754 Y40.339 E.05755
G1 X137.438 Y41.068 E.05754
G1 X139.073 Y41.901 E.05753
G1 X140.653 Y42.835 E.05755
G1 X142.171 Y43.867 E.05755
G1 X143.621 Y44.991 E.05752
G1 X144.997 Y46.205 E.05753
G1 X146.295 Y47.503 E.05756
G1 X147.509 Y48.879 E.05753
G1 X148.633 Y50.329 E.05752
G1 X149.665 Y51.847 E.05755
G1 X150.599 Y53.427 E.05755
G1 X151.432 Y55.062 E.05753
G1 X152.161 Y56.746 E.05754
G1 X152.631 Y58.016 E.04246
G1 X152.836 Y58.214 E.00894
G1 X153.113 Y58.287 E.00898
G1 X187.213 Y58.287 E1.06918
G1 X187.213 Y92.387 E1.06918
G1 X187.213 Y171.713 E2.48721
G1 X62.787 Y171.713 E3.90128
G1 X62.787 Y58.347 E3.55451
M73 P0 R290
M204 S1000
G1 X62.41 Y57.91 F10800
M73 Q0 S299
M204 S800
;TYPE:External perimeter
G1 F1200
G1 X96.949 Y57.899 E1.08294
G1 X97.064 Y57.785 E.00508
G1 X97.488 Y56.607 E.03925
G1 X98.226 Y54.901 E.05828
G1 X99.07 Y53.245 E.05828
G1 X100.017 Y51.645 E.0583
G1 X101.061 Y50.108 E.05826
G1 X102.201 Y48.639 E.0583
G1 X103.43 Y47.244 E.05829
G1 X104.744 Y45.93 E.05826
G1 X106.139 Y44.701 E.05829
G1 X107.608 Y43.561 E.0583
G1 X109.145 Y42.517 E.05826
G1 X110.745 Y41.57 E.0583
G1 X112.401 Y40.726 E.05828
G1 X114.107 Y39.988 E.05828
G1 X115.856 Y39.358 E.05829
G1 X117.641 Y38.84 E.05828
G1 X119.455 Y38.434 E.05828
G1 X121.291 Y38.144 E.05828
G1 X123.142 Y37.969 E.0583
G1 X125 Y37.91 E.05829
G1 X126.858 Y37.969 E.05829
G1 X128.709 Y38.144 E.0583
G1 X130.545 Y38.434 E.05828
G1 X132.359 Y38.84 E.05828
G1 X134.144 Y39.358 E.05828
G1 X135.893 Y39.988 E.05829
G1 X137.599 Y40.726 E.05828
G1 X139.255 Y41.57 E.05828
G1 X140.855 Y42.517 E.0583
G1 X142.392 Y43.561 E.05826
G1 X143.861 Y44.701 E.0583
G1 X145.256 Y45.93 E.05829
G1 X146.57 Y47.244 E.05826
G1 X147.799 Y48.639 E.05829
G1 X148.939 Y50.108 E.0583
G1 X149.983 Y51.645 E.05826
G1 X150.93 Y53.245 E.0583
G1 X151.774 Y54.901 E.05828
G1 X152.512 Y56.607 E.05828
G1 X152.967 Y57.84 E.04121
G1 X153.113 Y57.91 E.00508
G1 X187.59 Y57.91 E1.081
G1 X187.59 Y92.387 E1.081
G1 X187.59 Y172.09 E2.49903
G1 X62.41 Y172.09 E3.92492
G1 X62.41 Y57.97 E3.57815
M204 S1000
;WIPE_START
G1 F8640
G1 X62.41 Y57.91 E-.01385
G1 X65.815 Y57.909 E-.78615
;WIPE_END
G1 Z.6 F720
G1 X187.1 Y59.163 F10800
G1 Z.2 F720
G1 E.8 F2100
M204 S800
;TYPE:Solid infill
;WIDTH:0.420268
G1 F1200
G1 X186.507 Y58.57 E.02631
G1 X185.973 Y58.57 E.01676
G1 X186.93 Y59.527 E.04247
G1 X186.93 Y60.061 E.01676
G1 X185.439 Y58.57 E.06616
G1 X184.906 Y58.57 E.01672
G1 X186.93 Y60.594 E.08981
G1 X186.93 Y61.128 E.01676
G1 X184.372 Y58.57 E.11351
G1 X183.838 Y58.57 E.01676
G1 X186.93 Y61.662 E.1372
G1 X186.93 Y62.195 E.01672
G1 X183.305 Y58.57 E.16085
G1 X182.771 Y58.57 E.01676
G1 X186.93 Y62.729 E.18455
G1 X186.93 Y63.263 E.01676
G1 X182.237 Y58.57 E.20824
G1 X181.704 Y58.57 E.01672
G1 X186.93 Y63.796 E.23189
G1 X186.93 Y64.33 E.01676
G1 X181.17 Y58.57 E.25559
G1 X180.636 Y58.57 E.01676
G1 X186.93 Y64.864 E.27929
G1 X186.93 Y65.397 E.01672
G1 X180.103 Y58.57 E.30294
G1 X179.569 Y58.57 E.01676
G1 X186.93 Y65.931 E.32663
G1 X186.93 Y66.464 E.01672
G1 X179.036 Y58.57 E.35028
G1 X178.502 Y58.57 E.01676
G1 X186.93 Y66.998 E.37398
G1 X186.93 Y67.532 E.01676
G1 X177.968 Y58.57 E.39767
G1 X177.435 Y58.57 E.01672
G1 X186.93 Y68.065 E.42132
G1 X186.93 Y68.599 E.01676
G1 X176.901 Y58.57 E.44502
G1 X176.367 Y58.57 E.01676
G1 X186.93 Y69.133 E.46871
G1 X186.93 Y69.666 E.01672
G1 X175.834 Y58.57 E.49237
G1 X175.3 Y58.57 E.01676
G1 X186.93 Y70.2 E.51606
G1 X186.93 Y70.734 E.01676
G1 X174.766 Y58.57 E.53976
G1 X174.233 Y58.57 E.01672
G1 X186.93 Y71.267 E.56341
G1 X186.93 Y71.801 E.01676
G1 X173.699 Y58.57 E.5871
G1 X173.165 Y58.57 E.01676
G1 X186.93 Y72.335 E.6108
G1 X186.93 Y72.868 E.01672
G1 X172.632 Y58.57 E.63445
G1 X172.098 Y58.57 E.01676
G1 X186.93 Y73.402 E.65814
G1 X186.93 Y73.936 E.01676
G1 X171.564 Y58.57 E.68184
G1 X171.031 Y58.57 E.01672
G1 X186.93 Y74.469 E.70549
G1 X186.93 Y75.003 E.01676
G1 X170.497 Y58.57 E.72919
G1 X169.963 Y58.57 E.01676
G1 X186.93 Y75.537 E.75288
G1 X186.93 Y76.07 E.01672
G1 X169.43 Y58.57 E.77653
G1 X168.896 Y58.57 E.01676
G1 X186.93 Y76.604 E.80023
G1 X186.93 Y77.137 E.01672
G1 X168.363 Y58.57 E.82388
G1 X167.829 Y58.57 E.01676
G1 X186.93 Y77.671 E.84757
G1 X186.93 Y78.205 E.01676
M73 P0 R289
G1 X167.295 Y58.57 E.87127
G1 X166.762 Y58.57 E.01672
G1 X186.93 Y78.738 E.89492
G1 X186.93 Y79.272 E.01676
M73 Q0 S298
G1 X166.228 Y58.57 E.91861
G1 X165.694 Y58.57 E.01676
G1 X186.93 Y79.806 E.94231
G1 X186.93 Y80.339 E.01672
G1 X165.161 Y58.57 E.96596
G1 X164.627 Y58.57 E.01676
G1 X186.93 Y80.873 E.98966
G1 X186.93 Y81.407 E.01676
G1 X164.093 Y58.57 E1.01335
G1 X163.56 Y58.57 E.01672
G1 X186.93 Y81.94 E1.037
G1 X186.93 Y82.474 E.01676
G1 X163.026 Y58.57 E1.0607
G1 X162.492 Y58.57 E.01676
G1 X186.93 Y83.008 E1.08439
G1 X186.93 Y83.541 E.01672
G1 X161.959 Y58.57 E1.10804
G1 X161.425 Y58.57 E.01676
G1 X186.93 Y84.075 E1.13174
G1 X186.93 Y84.609 E.01676
G1 X160.891 Y58.57 E1.15543
G1 X160.358 Y58.57 E.01672
G1 X186.93 Y85.142 E1.17909
G1 X186.93 Y85.676 E.01676
G1 X159.824 Y58.57 E1.20278
G1 X159.29 Y58.57 E.01676
G1 X186.93 Y86.21 E1.22648
G1 X186.93 Y86.743 E.01672
G1 X158.757 Y58.57 E1.25013
G1 X158.223 Y58.57 E.01676
G1 X186.93 Y87.277 E1.27382
G1 X186.93 Y87.81 E.01672
G1 X157.69 Y58.57 E1.29747
G1 X157.156 Y58.57 E.01676
G1 X186.93 Y88.344 E1.32117
G1 X186.93 Y88.878 E.01676
G1 X156.622 Y58.57 E1.34486
G1 X156.089 Y58.57 E.01672
G1 X186.93 Y89.411 E1.36851
G1 X186.93 Y89.945 E.01676
G1 X155.555 Y58.57 E1.39221
G1 X155.021 Y58.57 E.01676
G1 X186.93 Y90.479 E1.41591
G1 X186.93 Y91.012 E.01672
G1 X154.488 Y58.57 E1.43956
G1 X153.954 Y58.57 E.01676
G1 X186.93 Y91.546 E1.46325
G1 X186.93 Y92.08 E.01676
G1 X153.251 Y58.4 E1.49447
M204 S1000
;WIPE_START
G1 F8640
G1 X155.701 Y60.85 E-.8
;WIPE_END
G1 Z.6 F720
G1 X148.741 Y50.688 F10800
G1 Z.2 F720
G1 E.8 F2100
M204 S800
G1 F1200
G1 X142.644 Y44.591 E.27054
G1 X142.004 Y44.095 E.02541
G1 X140.787 Y43.268 E.04617
G1 X149.232 Y51.713 E.37473
G1 X149.426 Y51.999 E.01084
G1 X150.066 Y53.081 E.03944
G1 X139.419 Y42.434 E.47244
G1 X138.937 Y42.149 E.01757
G1 X138.25 Y41.799 E.02419
G1 X150.701 Y54.25 E.55249
G1 X151.234 Y55.317 E.03742
G1 X137.183 Y41.266 E.62349
G1 X136.243 Y40.859 E.03214
G1 X151.641 Y56.257 E.68326
G1 X151.898 Y56.851 E.02031
G1 X152.011 Y57.161 E.01035
G1 X135.341 Y40.491 E.7397
G1 X134.508 Y40.191 E.02778
G1 X186.93 Y92.613 E2.32613
G1 X186.93 Y93.147 E.01676
M73 P0 R288
M73 Q0 S297
G1 X133.7 Y39.917 E2.36199
G1 X132.948 Y39.698 E.02458
M73 P1 R288
G1 X186.93 Y93.681 E2.39538
G1 X186.93 Y94.214 E.01672
G1 X132.195 Y39.48 E2.42875
G1 X131.508 Y39.326 E.02209
M73 Q1 S297
G1 X186.93 Y94.748 E2.45925
G1 X186.93 Y95.282 E.01676
G1 X130.821 Y39.172 E2.48976
G1 X130.156 Y39.041 E.02127
G1 X186.93 Y95.815 E2.51925
G1 X186.93 Y96.349 E.01676
G1 X129.522 Y38.94 E2.5474
G1 X128.888 Y38.84 E.02014
G1 X186.93 Y96.883 E2.57553
G1 X186.93 Y97.416 E.01672
G1 X128.28 Y38.766 E2.60249
G1 X127.69 Y38.71 E.0186
G1 X186.93 Y97.95 E2.62867
G1 X186.93 Y98.484 E.01676
G1 X127.101 Y38.654 E2.65483
G1 X126.532 Y38.619 E.01789
G1 X186.93 Y99.017 E2.68005
G1 X186.93 Y99.551 E.01676
G1 X125.981 Y38.601 E2.70453
G1 X125.43 Y38.584 E.0173
G1 X186.93 Y100.084 E2.72895
G1 X186.93 Y100.618 E.01676
M73 P1 R287
G1 X124.886 Y38.574 E2.75309
G1 X124.369 Y38.59 E.01623
M73 Q1 S296
G1 X186.93 Y101.152 E2.77606
G1 X186.93 Y101.685 E.01672
G1 X123.851 Y38.607 E2.799
G1 X123.334 Y38.623 E.01623
G1 X186.93 Y102.219 E2.82196
G1 X186.93 Y102.753 E.01676
G1 X122.838 Y38.66 E2.84399
G1 X122.35 Y38.706 E.01538
G1 X186.93 Y103.286 E2.86562
G1 X186.93 Y103.82 E.01676
G1 X121.863 Y38.752 E2.88726
G1 X121.375 Y38.799 E.01538
G1 X186.93 Y104.354 E2.90889
G1 X186.93 Y104.887 E.01672
G1 X120.914 Y38.871 E2.92934
G1 X120.454 Y38.944 E.01461
G1 X186.93 Y105.421 E2.94978
G1 X186.93 Y105.955 E.01676
G1 X119.993 Y39.017 E2.97023
G1 X119.535 Y39.093 E.01457
G1 X186.93 Y106.488 E2.99053
G1 X186.93 Y107.022 E.01676
G1 X119.098 Y39.19 E3.00993
G1 X118.662 Y39.288 E.01402
M73 P1 R286
G1 X186.93 Y107.556 E3.02927
G1 X186.93 Y108.089 E.01672
M73 Q1 S295
G1 X118.226 Y39.385 E3.04862
G1 X117.791 Y39.484 E.014
G1 X186.93 Y108.623 E3.06792
G1 X186.93 Y109.157 E.01676
G1 X117.377 Y39.604 E3.08629
G1 X116.964 Y39.724 E.01349
G1 X186.93 Y109.69 E3.10462
G1 X186.93 Y110.224 E.01676
G1 X116.55 Y39.844 E3.12299
G1 X116.137 Y39.964 E.01349
G1 X186.93 Y110.757 E3.14131
G1 X186.93 Y111.291 E.01676
G1 X115.74 Y40.101 E3.15893
G1 X115.348 Y40.243 E.01308
G1 X186.93 Y111.825 E3.17632
G1 X186.93 Y112.358 E.01672
G1 X114.956 Y40.384 E3.19372
G1 X114.563 Y40.525 E.0131
G1 X186.93 Y112.892 E3.21116
G1 X186.93 Y113.426 E.01676
G1 X114.18 Y40.676 E3.22815
G1 X113.808 Y40.837 E.01272
M73 P2 R285
G1 X186.93 Y113.959 E3.24466
G1 X186.93 Y114.493 E.01676
M73 Q1 S294
G1 X113.435 Y40.998 E3.26121
G1 X113.063 Y41.159 E.01272
M73 Q2 S294
G1 X186.93 Y115.027 E3.27774
G1 X186.93 Y115.56 E.01672
G1 X112.69 Y41.32 E3.29427
G1 X112.336 Y41.5 E.01246
G1 X186.93 Y116.094 E3.30998
G1 X186.93 Y116.628 E.01676
G1 X111.983 Y41.68 E3.32566
G1 X111.629 Y41.86 E.01246
G1 X186.93 Y117.161 E3.34135
G1 X186.93 Y117.695 E.01676
G1 X111.276 Y42.04 E3.35703
G1 X110.929 Y42.228 E.01238
G1 X186.93 Y118.229 E3.37241
G1 X186.93 Y118.762 E.01672
G1 X110.594 Y42.426 E3.38728
G1 X110.259 Y42.625 E.01223
G1 X186.93 Y119.296 E3.40214
G1 X186.93 Y119.83 E.01676
G1 X109.923 Y42.823 E3.41705
G1 X109.588 Y43.021 E.01221
M73 P2 R284
M73 Q2 S293
G1 X186.93 Y120.363 E3.43191
G1 X186.93 Y120.897 E.01676
G1 X109.266 Y43.232 E3.44623
G1 X108.948 Y43.448 E.01206
G1 X186.93 Y121.43 E3.46031
G1 X186.93 Y121.964 E.01676
G1 X108.63 Y43.664 E3.47442
G1 X108.312 Y43.88 E.01206
G1 X186.93 Y122.498 E3.48854
G1 X186.93 Y123.031 E.01672
G1 X107.995 Y44.096 E3.5026
G1 X107.694 Y44.329 E.01194
G1 X186.93 Y123.565 E3.51596
G1 X186.93 Y124.099 E.01676
G1 X107.394 Y44.562 E3.52929
G1 X107.093 Y44.795 E.01194
G1 X186.93 Y124.632 E3.54263
G1 X186.93 Y125.166 E.01676
G1 X106.793 Y45.029 E3.55594
G1 X106.496 Y45.266 E.01192
M73 P2 R283
G1 X186.93 Y125.7 E3.56912
G1 X186.93 Y126.233 E.01672
M73 Q2 S292
G1 X106.212 Y45.516 E3.5817
G1 X105.929 Y45.766 E.01185
G1 X186.93 Y126.767 E3.59428
G1 X186.93 Y127.301 E.01676
G1 X105.645 Y46.016 E3.60688
G1 X105.361 Y46.266 E.01187
G1 X186.93 Y127.834 E3.61946
G1 X186.93 Y128.368 E.01676
G1 X105.085 Y46.523 E3.63173
G1 X104.818 Y46.79 E.01185
G1 X186.93 Y128.902 E3.64358
G1 X186.93 Y129.435 E.01672
G1 X104.551 Y47.056 E3.65542
G1 X104.284 Y47.323 E.01185
G1 X186.93 Y129.969 E3.66727
G1 X186.93 Y130.503 E.01676
G1 X104.018 Y47.59 E3.6791
G1 X103.761 Y47.867 E.01186
M73 P3 R283
G1 X186.93 Y131.036 E3.69048
G1 X186.93 Y131.57 E.01676
M73 P3 R282
M73 Q2 S291
G1 X103.511 Y48.151 E3.70157
G1 X103.261 Y48.434 E.01185
G1 X186.93 Y132.103 E3.71266
G1 X186.93 Y132.637 E.01676
M73 Q3 S291
G1 X103.011 Y48.718 E3.72376
G1 X102.761 Y49.001 E.01185
G1 X186.93 Y133.171 E3.73487
G1 X186.93 Y133.704 E.01672
G1 X102.524 Y49.298 E3.74537
G1 X102.291 Y49.599 E.01194
G1 X186.93 Y134.238 E3.75571
G1 X186.93 Y134.772 E.01676
G1 X102.058 Y49.9 E3.76605
G1 X101.825 Y50.2 E.01192
G1 X186.93 Y135.305 E3.77638
G1 X186.93 Y135.839 E.01676
G1 X101.592 Y50.501 E3.78672
G1 X101.376 Y50.819 E.01206
G1 X186.93 Y136.373 E3.79631
G1 X186.93 Y136.906 E.01672
M73 P3 R281
M73 Q3 S290
G1 X101.16 Y51.136 E3.80589
G1 X100.944 Y51.454 E.01206
G1 X186.93 Y137.44 E3.81548
G1 X186.93 Y137.974 E.01676
G1 X100.728 Y51.772 E3.82506
G1 X100.517 Y52.095 E.01211
G1 X186.93 Y138.507 E3.8344
G1 X186.93 Y139.041 E.01676
G1 X100.319 Y52.43 E3.84321
G1 X100.121 Y52.765 E.01221
G1 X186.93 Y139.575 E3.85202
G1 X186.93 Y140.108 E.01672
G1 X99.922 Y53.101 E3.8608
G1 X99.724 Y53.436 E.01221
G1 X186.93 Y140.642 E3.86961
G1 X186.93 Y141.176 E.01676
G1 X99.537 Y53.782 E3.87793
G1 X99.357 Y54.136 E.01246
M73 P3 R280
G1 X186.93 Y141.709 E3.8859
G1 X186.93 Y142.243 E.01676
M73 Q3 S289
G1 X99.177 Y54.49 E3.89388
G1 X98.997 Y54.843 E.01243
G1 X186.93 Y142.777 E3.90189
G1 X186.93 Y143.31 E.01672
G1 X98.817 Y55.197 E3.90986
G1 X98.656 Y55.57 E.01275
G1 X186.93 Y143.844 E3.917
G1 X186.93 Y144.377 E.01672
G1 X98.495 Y55.942 E3.92415
G1 X98.334 Y56.315 E.01275
G1 X186.93 Y144.911 E3.93129
G1 X186.93 Y145.445 E.01676
G1 X98.173 Y56.687 E3.93846
G1 X98.022 Y57.07 E.01292
G1 X186.93 Y145.978 E3.94514
G1 X186.93 Y146.512 E.01676
M73 P4 R280
G1 X97.879 Y57.461 E3.95148
G1 X97.737 Y57.852 E.01305
M73 P4 R279
M73 Q3 S288
G1 X186.93 Y147.046 E3.9578
G1 X186.93 Y147.579 E.01672
G1 X97.571 Y58.22 E3.96515
G1 X97.439 Y58.366 E.00618
M73 Q4 S288
G1 X97.286 Y58.469 E.00579
G1 X186.93 Y148.113 E3.97779
G1 X186.93 Y148.647 E.01676
