; generated by PrusaSlicer 2.7.2+win64 on 2024-07-07 at 01:22:56 UTC


;
;
; 

; external perimeters extrusion width = 0.45mm
; perimeters extrusion width = 0.45mm
; infill extrusion width = 0.45mm
; solid infill extrusion width = 0.45mm
; top infill extrusion width = 0.40mm
; first layer extrusion width = 0.42mm

M73 P0 R231
M73 Q0 S237
M201 X1000 Y1000 Z200 E5000 ; sets maximum accelerations, mm/sec^2
M203 X200 Y200 Z12 E120 ; sets maximum feedrates, mm / sec
M204 S1250 T1250 ; sets acceleration (S) and retract acceleration (R), mm/sec^2
M205 X8.00 Y8.00 Z0.40 E4.50 ; sets the jerk limits, mm/sec
M205 S0 T0 ; sets the minimum extruding and travel feed rate, mm/sec

; printing object 0 id:0 copy 0
; stop printing object 0 id:0 copy 0

;TYPE:Custom
M862.3 P "MK3S" ; printer model check
M862.1 P0.4 ; nozzle diameter check
M115 U3.12.2 ; tell printer latest fw version
G90 ; use absolute coordinates
M83 ; extruder relative mode
M104 S215 ; set extruder temp
M140 S60 ; set bed temp
M190 S60 ; wait for bed temp
M109 S215 ; wait for extruder temp
G28 W ; home all without mesh bed level
G80 ; mesh bed leveling

G1 Z0.2 F720
G1 Y-3 F1000 ; go outside print area
G92 E0
G1 X60 E9 F1000 ; intro line
G1 X100 E12.5 F1000 ; intro line

G92 E0
M221 S95

; Don't change E values below. Excessive value can damage the printer.

M907 E538 ; set extruder motor current
G21 ; set units to millimeters
G90 ; use absolute coordinates
M83 ; use relative distances for extrusion
M900 K0.05 ; Filament gcode LA 1.5
M900 K30 ; Filament gcode LA 1.0
M107
;LAYER_CHANGE
;Z:0.2
;HEIGHT:0.2
G1 E-.8 F2100
M73 P0 R230
G1 Z.6 F720
G1 X85.391 Y52.814 F10800
G1 Z.2 F720
G1 E.8 F2100
M204 S800
;TYPE:Skirt/Brim
;WIDTH:0.42
G1 F1200
G1 X86.602 Y51.874 E.04807
G1 X140.443 Y33.307 E1.78571
G1 X142.398 Y32.744 E.06379
G1 X144.237 Y32.333 E.05908
G1 X146.245 Y32.01 E.06377
G1 X148.418 Y31.805 E.06844
G1 X150.302 Y31.746 E.0591
G1 X152.288 Y31.803 E.0623
G1 X154.36 Y31.992 E.06524
G1 X156.37 Y32.305 E.06378
G1 X158.356 Y32.744 E.06377
G1 X160.422 Y33.343 E.06745
G1 X214.152 Y51.874 E1.78205
G1 X215.26 Y52.671 E.04279
G1 X215.754 Y54.122 E.04806
G1 X215.754 Y169.122 E3.60574
G1 X215.362 Y170.429 E.04278
G1 X214.316 Y171.305 E.04278
G1 X213.377 Y171.499 E.03006
G1 X87.377 Y171.499 E3.95064
G1 X86.07 Y171.107 E.04278
G1 X85.193 Y170.061 E.0428
G1 X85 Y169.122 E.03006
G1 X85 Y54.122 E3.60574
G1 X85.374 Y52.872 E.04091
M204 S1000
; printing object 0 id:0 copy 0
;WIPE_START
G1 F8640
G1 X85.391 Y52.814 E-.01396
G1 X86.602 Y51.874 E-.35398
G1 X88.371 Y51.264 E-.43206
;WIPE_END
G1 Z.6 F720
G1 X88.164 Y54.909 F10800
G1 Z.2 F720
G1 E.8 F2100
M204 S800
;TYPE:Perimeter
;WIDTH:0.419999
G1 F1200
G1 X122.263 Y54.909 E1.06915
G1 X122.388 Y54.895 E.00394
G1 X122.637 Y54.768 E.00876
G1 X122.795 Y54.535 E.00883
G1 X123.216 Y53.368 E.0389
G1 X123.944 Y51.683 E.05755
G1 X124.778 Y50.048 E.05755
G1 X125.712 Y48.469 E.05752
G1 X126.743 Y46.951 E.05754
G1 X127.868 Y45.501 E.05754
G1 X129.082 Y44.124 E.05756
G1 X130.379 Y42.826 E.05753
G1 X131.756 Y41.613 E.05754
G1 X133.206 Y40.488 E.05754
G1 X134.724 Y39.457 E.05754
G1 X136.303 Y38.522 E.05754
G1 X137.939 Y37.689 E.05756
G1 X139.623 Y36.96 E.05754
G1 X141.35 Y36.339 E.05754
G1 X143.112 Y35.827 E.05753
G1 X144.903 Y35.426 E.05755
G1 X146.715 Y35.139 E.05752
G1 X148.542 Y34.967 E.05754
G1 X150.377 Y34.909 E.05756
G1 X152.211 Y34.967 E.05753
G1 X154.038 Y35.139 E.05754
G1 X155.851 Y35.426 E.05755
G1 X157.642 Y35.827 E.05755
G1 X159.404 Y36.339 E.05753
G1 X161.131 Y36.96 E.05754
G1 X162.815 Y37.689 E.05754
G1 X164.45 Y38.522 E.05753
G1 X166.03 Y39.457 E.05756
G1 X167.547 Y40.488 E.05751
G1 X168.997 Y41.613 E.05754
G1 X170.374 Y42.826 E.05754
G1 X171.672 Y44.124 E.05756
M73 Q0 S236
G1 X172.885 Y45.501 E.05754
G1 X174.01 Y46.951 E.05754
G1 X175.042 Y48.469 E.05755
G1 X175.976 Y50.048 E.05752
G1 X176.809 Y51.683 E.05753
G1 X177.538 Y53.368 E.05756
G1 X178.007 Y54.637 E.04242
G1 X178.213 Y54.836 E.00898
G1 X178.49 Y54.909 E.00898
G1 X212.59 Y54.909 E1.06918
G1 X212.59 Y89.008 E1.06915
G1 X212.59 Y168.334 E2.48721
G1 X88.164 Y168.334 E3.90128
G1 X88.164 Y54.969 E3.55447
M204 S1000
G1 X88.164 Y54.969 F10800
G1 X87.787 Y54.532
M204 S800
;TYPE:External perimeter
G1 F1200
G1 X122.326 Y54.521 E1.08294
G1 X122.441 Y54.407 E.00508
G1 X122.865 Y53.229 E.03925
G1 X123.603 Y51.523 E.05828
G1 X124.447 Y49.867 E.05828
G1 X125.393 Y48.267 E.05828
G1 X126.438 Y46.729 E.0583
G1 X127.577 Y45.26 E.05828
G1 X128.807 Y43.866 E.05829
G1 X130.121 Y42.551 E.05829
G1 X131.516 Y41.322 E.05829
G1 X132.984 Y40.183 E.05826
G1 X134.522 Y39.138 E.0583
G1 X136.122 Y38.192 E.05828
G1 X137.778 Y37.348 E.05828
G1 X139.484 Y36.61 E.05828
G1 X141.233 Y35.98 E.05829
G1 X143.018 Y35.461 E.05829
G1 X144.832 Y35.056 E.05828
G1 X146.668 Y34.765 E.05828
G1 X148.519 Y34.59 E.0583
G1 X150.377 Y34.532 E.05828
G1 X152.235 Y34.59 E.05828
G1 X154.085 Y34.765 E.05826
G1 X155.921 Y35.056 E.05828
G1 X157.735 Y35.461 E.05828
G1 X159.52 Y35.98 E.05829
G1 X161.269 Y36.61 E.05829
G1 X162.975 Y37.348 E.05828
G1 X164.632 Y38.192 E.05831
G1 X166.232 Y39.138 E.05828
G1 X167.769 Y40.183 E.05828
G1 X169.238 Y41.322 E.05828
G1 X170.632 Y42.551 E.05827
G1 X171.947 Y43.866 E.05831
G1 X173.176 Y45.26 E.05827
G1 X174.315 Y46.729 E.05828
G1 X175.36 Y48.267 E.0583
G1 X176.306 Y49.867 E.05828
G1 X177.15 Y51.523 E.05828
G1 X177.889 Y53.229 E.05829
G1 X178.343 Y54.461 E.04117
G1 X178.49 Y54.532 E.00512
G1 X212.967 Y54.532 E1.081
G1 X212.967 Y89.008 E1.08097
G1 X212.967 Y168.712 E2.49906
M73 P0 R229
G1 X87.787 Y168.712 E3.92492
G1 X87.787 Y54.592 E3.57815
M204 S1000
;WIPE_START
G1 F8640
G1 X87.787 Y54.532 E-.01385
G1 X91.192 Y54.531 E-.78615
;WIPE_END
G1 Z.6 F720
G1 X212.477 Y55.785 F10800
G1 Z.2 F720
G1 E.8 F2100
M204 S800
;TYPE:Solid infill
;WIDTH:0.420268
G1 F1200
G1 X211.883 Y55.191 E.02636
G1 X211.35 Y55.191 E.01672
G1 X212.307 Y56.149 E.04249
G1 X212.307 Y56.682 E.01672
G1 X210.816 Y55.191 E.06616
G1 X210.282 Y55.191 E.01676
G1 X212.307 Y57.216 E.08986
G1 X212.307 Y57.749 E.01672
G1 X209.749 Y55.191 E.11351
G1 X209.215 Y55.191 E.01676
G1 X212.307 Y58.283 E.1372
G1 X212.307 Y58.817 E.01676
G1 X208.681 Y55.191 E.1609
G1 X208.148 Y55.191 E.01672
G1 X212.307 Y59.35 E.18455
G1 X212.307 Y59.884 E.01676
G1 X207.614 Y55.191 E.20824
G1 X207.081 Y55.191 E.01672
G1 X212.307 Y60.418 E.23192
G1 X212.307 Y60.951 E.01672
G1 X206.547 Y55.191 E.25559
G1 X206.013 Y55.191 E.01676
G1 X212.307 Y61.485 E.27929
G1 X212.307 Y62.019 E.01676
G1 X205.48 Y55.191 E.30296
G1 X204.946 Y55.191 E.01676
G1 X212.307 Y62.552 E.32663
G1 X212.307 Y63.086 E.01676
G1 X204.412 Y55.191 E.35033
G1 X203.879 Y55.191 E.01672
G1 X212.307 Y63.62 E.374
G1 X212.307 Y64.153 E.01672
G1 X203.345 Y55.191 E.39767
G1 X202.811 Y55.191 E.01676
G1 X212.307 Y64.687 E.42137
G1 X212.307 Y65.221 E.01676
G1 X202.278 Y55.191 E.44504
G1 X201.744 Y55.191 E.01676
G1 X212.307 Y65.754 E.46871
G1 X212.307 Y66.288 E.01676
G1 X201.21 Y55.191 E.49241
G1 X200.677 Y55.191 E.01672
G1 X212.307 Y66.822 E.51608
G1 X212.307 Y67.355 E.01672
G1 X200.143 Y55.191 E.53976
G1 X199.609 Y55.191 E.01676
G1 X212.307 Y67.889 E.56345
G1 X212.307 Y68.422 E.01672
G1 X199.076 Y55.191 E.5871
G1 X198.542 Y55.191 E.01676
G1 X212.307 Y68.956 E.6108
G1 X212.307 Y69.49 E.01676
M73 Q0 S235
G1 X198.008 Y55.191 E.63449
G1 X197.475 Y55.191 E.01672
G1 X212.307 Y70.023 E.65814
G1 X212.307 Y70.557 E.01676
G1 X196.941 Y55.191 E.68184
G1 X196.407 Y55.191 E.01676
G1 X212.307 Y71.091 E.70553
G1 X212.307 Y71.624 E.01672
G1 X195.874 Y55.191 E.72919
G1 X195.34 Y55.191 E.01676
G1 X212.307 Y72.158 E.75288
G1 X212.307 Y72.692 E.01676
G1 X194.807 Y55.191 E.77655
G1 X194.273 Y55.191 E.01676
G1 X212.307 Y73.225 E.80023
G1 X212.307 Y73.759 E.01676
G1 X193.739 Y55.191 E.82392
G1 X193.206 Y55.191 E.01672
G1 X212.307 Y74.293 E.8476
G1 X212.307 Y74.826 E.01672
G1 X192.672 Y55.191 E.87127
G1 X192.138 Y55.191 E.01676
G1 X212.307 Y75.36 E.89496
G1 X212.307 Y75.894 E.01676
G1 X191.605 Y55.191 E.91864
G1 X191.071 Y55.191 E.01676
G1 X212.307 Y76.427 E.94231
G1 X212.307 Y76.961 E.01676
G1 X190.537 Y55.191 E.96601
G1 X190.004 Y55.191 E.01672
G1 X212.307 Y77.495 E.98968
G1 X212.307 Y78.028 E.01672
G1 X189.47 Y55.191 E1.01335
G1 X188.936 Y55.191 E.01676
G1 X212.307 Y78.562 E1.03705
G1 X212.307 Y79.096 E.01676
G1 X188.403 Y55.191 E1.06072
G1 X187.869 Y55.191 E.01676
G1 X212.307 Y79.629 E1.08439
G1 X212.307 Y80.163 E.01676
M73 P0 R228
G1 X187.335 Y55.191 E1.10809
G1 X186.802 Y55.191 E.01672
G1 X212.307 Y80.696 E1.13174
G1 X212.307 Y81.23 E.01676
G1 X186.268 Y55.191 E1.15543
G1 X185.734 Y55.191 E.01676
G1 X212.307 Y81.764 E1.17913
G1 X212.307 Y82.297 E.01672
G1 X185.201 Y55.191 E1.20278
G1 X184.667 Y55.191 E.01676
G1 X212.307 Y82.831 E1.22648
G1 X212.307 Y83.365 E.01676
G1 X184.134 Y55.191 E1.25015
G1 X183.6 Y55.191 E.01676
M73 P1 R228
G1 X212.307 Y83.898 E1.27382
G1 X212.307 Y84.432 E.01676
G1 X183.066 Y55.191 E1.29752
G1 X182.533 Y55.191 E.01672
M73 Q1 S235
G1 X212.307 Y84.966 E1.32119
G1 X212.307 Y85.499 E.01672
G1 X181.999 Y55.191 E1.34486
G1 X181.465 Y55.191 E.01676
G1 X212.307 Y86.033 E1.36856
G1 X212.307 Y86.567 E.01676
G1 X180.932 Y55.191 E1.39223
G1 X180.398 Y55.191 E.01676
G1 X212.307 Y87.1 E1.41591
G1 X212.307 Y87.634 E.01676
G1 X179.864 Y55.191 E1.4396
G1 X179.331 Y55.191 E.01672
G1 X212.307 Y88.168 E1.46327
G1 X212.307 Y88.701 E.01672
M73 Q1 S234
G1 X178.627 Y55.022 E1.49447
M204 S1000
;WIPE_START
G1 F8640
G1 X181.077 Y57.472 E-.8
;WIPE_END
G1 Z.6 F720
G1 X174.117 Y47.31 F10800
G1 Z.2 F720
G1 E.8 F2100
M204 S800
G1 F1200
G1 X168.02 Y41.213 E.27054
G1 X167.381 Y40.717 E.02538
G1 X166.163 Y39.889 E.04621
G1 X174.609 Y48.335 E.37478
G1 X174.803 Y48.62 E.01082
G1 X175.443 Y49.703 E.03947
G1 X164.796 Y39.055 E.47246
G1 X164.314 Y38.77 E.01757
G1 X163.627 Y38.421 E.02418
G1 X176.078 Y50.871 E.55247
G1 X176.611 Y51.938 E.03742
G1 X162.56 Y37.887 E.62349
G1 X161.619 Y37.48 E.03217
G1 X177.018 Y52.879 E.6833
G1 X177.275 Y53.472 E.02028
G1 X177.388 Y53.782 E.01035
G1 X160.718 Y37.112 E.7397
G1 X159.884 Y36.812 E.02781
G1 X212.307 Y89.235 E2.32618
G1 X212.307 Y89.769 E.01676
G1 X159.076 Y36.538 E2.36203
G1 X158.324 Y36.32 E.02457
G1 X212.307 Y90.302 E2.39538
G1 X212.307 Y90.836 E.01676
G1 X157.572 Y36.101 E2.42877
G1 X156.885 Y35.947 E.02209
G1 X212.307 Y91.369 E2.45925
G1 X212.307 Y91.903 E.01676
M73 P1 R227
G1 X156.197 Y35.794 E2.48976
G1 X155.532 Y35.662 E.02127
G1 X212.307 Y92.437 E2.51929
G1 X212.307 Y92.97 E.01672
G1 X154.898 Y35.562 E2.5474
G1 X154.264 Y35.462 E.02014
G1 X212.307 Y93.504 E2.57553
G1 X212.307 Y94.038 E.01676
G1 X153.656 Y35.387 E2.60253
G1 X153.067 Y35.332 E.01856
G1 X212.307 Y94.571 E2.62865
G1 X212.307 Y95.105 E.01676
G1 X152.478 Y35.276 E2.65481
G1 X151.908 Y35.24 E.01792
G1 X212.307 Y95.639 E2.6801
G1 X212.307 Y96.172 E.01672
M73 Q1 S233
G1 X151.357 Y35.223 E2.70453
G1 X150.806 Y35.205 E.0173
G1 X212.307 Y96.706 E2.729
G1 X212.307 Y97.24 E.01676
G1 X150.263 Y35.196 E2.75309
G1 X149.745 Y35.212 E.01626
G1 X212.307 Y97.773 E2.77606
G1 X212.307 Y98.307 E.01676
G1 X149.228 Y35.228 E2.79902
G1 X148.711 Y35.244 E.01623
G1 X212.307 Y98.841 E2.82198
G1 X212.307 Y99.374 E.01672
M73 P1 R226
G1 X148.214 Y35.282 E2.84399
G1 X147.727 Y35.328 E.01535
G1 X212.307 Y99.908 E2.86562
G1 X212.307 Y100.442 E.01676
G1 X147.239 Y35.374 E2.88728
G1 X146.752 Y35.42 E.01535
G1 X212.307 Y100.975 E2.90889
G1 X212.307 Y101.509 E.01676
G1 X146.291 Y35.493 E2.92934
G1 X145.83 Y35.566 E.01464
G1 X212.307 Y102.042 E2.94978
G1 X212.307 Y102.576 E.01676
G1 X145.37 Y35.639 E2.97021
G1 X144.911 Y35.714 E.01459
M73 P2 R226
M73 Q1 S232
G1 X212.307 Y103.11 E2.99058
G1 X212.307 Y103.643 E.01672
M73 Q2 S232
G1 X144.475 Y35.812 E3.0099
G1 X144.039 Y35.909 E.01401
G1 X212.307 Y104.177 E3.02927
G1 X212.307 Y104.711 E.01676
G1 X143.603 Y36.007 E3.04862
G1 X143.168 Y36.105 E.01399
G1 X212.307 Y105.244 E3.06792
G1 X212.307 Y105.778 E.01676
G1 X142.754 Y36.225 E3.08629
G1 X142.34 Y36.345 E.01352
M73 P2 R225
G1 X212.307 Y106.312 E3.10466
G1 X212.307 Y106.845 E.01672
G1 X141.927 Y36.465 E3.12299
G1 X141.513 Y36.586 E.01353
G1 X212.307 Y107.379 E3.14134
G1 X212.307 Y107.913 E.01676
G1 X141.117 Y36.723 E3.15893
G1 X140.725 Y36.864 E.01307
G1 X212.307 Y108.446 E3.17632
G1 X212.307 Y108.98 E.01676
G1 X140.332 Y37.006 E3.19374
G1 X139.94 Y37.147 E.01307
M73 Q2 S231
G1 X212.307 Y109.514 E3.21116
G1 X212.307 Y110.047 E.01672
G1 X139.557 Y37.297 E3.22815
G1 X139.184 Y37.458 E.01275
G1 X212.307 Y110.581 E3.2447
G1 X212.307 Y111.115 E.01676
G1 X138.812 Y37.62 E3.26121
G1 X138.439 Y37.781 E.01275
G1 X212.307 Y111.648 E3.27774
G1 X212.307 Y112.182 E.01676
M73 P2 R224
G1 X138.067 Y37.942 E3.29427
G1 X137.713 Y38.122 E.01246
G1 X212.307 Y112.715 E3.30995
G1 X212.307 Y113.249 E.01676
G1 X137.359 Y38.302 E3.32566
G1 X137.006 Y38.482 E.01243
G1 X212.307 Y113.783 E3.34135
G1 X212.307 Y114.316 E.01672
G1 X136.652 Y38.662 E3.35703
G1 X136.306 Y38.849 E.01234
G1 X212.307 Y114.85 E3.37241
G1 X212.307 Y115.384 E.01676
M73 Q2 S230
G1 X135.971 Y39.048 E3.38728
G1 X135.635 Y39.246 E.01224
G1 X212.307 Y115.917 E3.40216
G1 X212.307 Y116.451 E.01676
G1 X135.3 Y39.444 E3.41705
G1 X134.965 Y39.643 E.01223
G1 X212.307 Y116.985 E3.43191
G1 X212.307 Y117.518 E.01672
M73 P3 R224
G1 X134.642 Y39.854 E3.44623
G1 X134.325 Y40.07 E.01204
M73 P3 R223
G1 X212.307 Y118.052 E3.46031
G1 X212.307 Y118.586 E.01676
M73 Q3 S230
G1 X134.007 Y40.286 E3.47442
G1 X133.689 Y40.502 E.01206
G1 X212.307 Y119.119 E3.48851
G1 X212.307 Y119.653 E.01676
G1 X133.372 Y40.718 E3.5026
G1 X133.071 Y40.951 E.01194
G1 X212.307 Y120.187 E3.51596
G1 X212.307 Y120.72 E.01672
G1 X132.77 Y41.184 E3.52929
G1 X132.47 Y41.417 E.01192
M73 Q3 S229
G1 X212.307 Y121.254 E3.54263
G1 X212.307 Y121.788 E.01676
G1 X132.169 Y41.65 E3.55598
G1 X131.873 Y41.887 E.0119
G1 X212.307 Y122.321 E3.56912
G1 X212.307 Y122.855 E.01676
G1 X131.589 Y42.137 E3.58172
G1 X131.305 Y42.387 E.01187
G1 X212.307 Y123.389 E3.59432
G1 X212.307 Y123.922 E.01672
M73 P3 R222
G1 X131.022 Y42.637 E3.60688
G1 X130.738 Y42.887 E.01187
G1 X212.307 Y124.456 E3.61948
G1 X212.307 Y124.989 E.01672
G1 X130.462 Y43.144 E3.63173
G1 X130.195 Y43.411 E.01185
G1 X212.307 Y125.523 E3.64358
G1 X212.307 Y126.057 E.01676
G1 X129.928 Y43.678 E3.65542
G1 X129.661 Y43.945 E.01185
M73 Q3 S228
G1 X212.307 Y126.59 E3.66725
G1 X212.307 Y127.124 E.01676
G1 X129.394 Y44.212 E3.6791
G1 X129.138 Y44.488 E.01181
G1 X212.307 Y127.658 E3.6905
G1 X212.307 Y128.191 E.01672
G1 X128.888 Y44.772 E3.70157
G1 X128.637 Y45.056 E.01189
G1 X212.307 Y128.725 E3.71269
G1 X212.307 Y129.259 E.01676
M73 P3 R221
G1 X128.387 Y45.339 E3.7238
G1 X128.137 Y45.623 E.01187
G1 X212.307 Y129.792 E3.73487
G1 X212.307 Y130.326 E.01676
M73 P4 R221
G1 X127.901 Y45.92 E3.74537
G1 X127.668 Y46.22 E.01192
G1 X212.307 Y130.86 E3.75573
G1 X212.307 Y131.393 E.01672
M73 Q4 S228
G1 X127.435 Y46.521 E3.76605
G1 X127.201 Y46.822 E.01196
G1 X212.307 Y131.927 E3.77641
G1 X212.307 Y132.461 E.01676
M73 Q4 S227
G1 X126.969 Y47.122 E3.78675
G1 X126.753 Y47.44 E.01206
G1 X212.307 Y132.994 E3.79631
G1 X212.307 Y133.528 E.01676
G1 X126.537 Y47.758 E3.80589
G1 X126.321 Y48.076 E.01206
G1 X212.307 Y134.062 E3.81548
G1 X212.307 Y134.595 E.01672
M73 P4 R220
G1 X126.105 Y48.393 E3.82506
G1 X125.894 Y48.716 E.01211
G1 X212.307 Y135.129 E3.83442
G1 X212.307 Y135.662 E.01672
G1 X125.696 Y49.051 E3.84321
G1 X125.497 Y49.387 E.01225
G1 X212.307 Y136.196 E3.85202
G1 X212.307 Y136.73 E.01676
G1 X125.299 Y49.722 E3.86083
G1 X125.101 Y50.057 E.01221
M73 Q4 S226
G1 X212.307 Y137.263 E3.86961
G1 X212.307 Y137.797 E.01676
G1 X124.914 Y50.404 E3.87791
G1 X124.734 Y50.758 E.01246
G1 X212.307 Y138.331 E3.8859
G1 X212.307 Y138.864 E.01672
G1 X124.553 Y51.111 E3.89391
G1 X124.373 Y51.465 E.01246
G1 X212.307 Y139.398 E3.90189
G1 X212.307 Y139.932 E.01676
M73 P4 R219
G1 X124.194 Y51.819 E3.90986
G1 X124.033 Y52.191 E.01272
G1 X212.307 Y140.465 E3.917
G1 X212.307 Y140.999 E.01676
G1 X123.872 Y52.564 E3.92415
G1 X123.71 Y52.936 E.01273
G1 X212.307 Y141.533 E3.93134
G1 X212.307 Y142.066 E.01672
M73 P5 R219
G1 X123.549 Y53.309 E3.93846
