; generated by PrusaSlicer 2.3.1+win64 on 2021-07-10 at 22:03:58 UTC

; 

; external perimeters extrusion width = 0.45mm
; perimeters extrusion width = 0.45mm
; infill extrusion width = 0.45mm
; solid infill extrusion width = 0.45mm
; top infill extrusion width = 0.40mm
; first layer extrusion width = 0.42mm

M73 P0 R77
M73 Q0 S79
M201 X1000 Y1000 Z200 E5000 ; sets maximum accelerations, mm/sec^2
M203 X200 Y200 Z12 E120 ; sets maximum feedrates, mm/sec
M204 P1250 R1250 T1250 ; sets acceleration (P, T) and retract acceleration (R), mm/sec^2
M205 X8.00 Y8.00 Z0.40 E4.50 ; sets the jerk limits, mm/sec
M205 S0 T0 ; sets the minimum extruding and travel feed rate, mm/sec
M107
;TYPE:Custom
M862.3 P "MK3S" ; printer model check
M862.1 P0.4 ; nozzle diameter check
M115 U3.9.3 ; tell printer latest fw version
G90 ; use absolute coordinates
M83 ; extruder relative mode
M104 S215 ; set extruder temp
M140 S60 ; set bed temp
M190 S60 ; wait for bed temp
M109 S215 ; wait for extruder temp
G28 W ; home all without mesh bed level
G80 ; mesh bed leveling
G1 Y-3.0 F1000.0 ; go outside print area
G92 E0.0
G1 X60.0 E9.0 F1000.0 ; intro line
G1 X100.0 E12.5 F1000.0 ; intro line
G92 E0.0
M221 S95

; Don't change E values below. Excessive value can damage the printer.

M907 E538 ; set extruder motor current
G21 ; set units to millimeters
G90 ; use absolute coordinates
M83 ; use relative distances for extrusion
M900 K0.05 ; Filament gcode LA 1.5
M900 K30 ; Filament gcode LA 1.0
;LAYER_CHANGE
;Z:0.2
;HEIGHT:0.2
;BEFORE_LAYER_CHANGE
G92 E0.0
;0.2


G1 E-0.80000 F2100.000
G1 Z0.400 F10800.000
;AFTER_LAYER_CHANGE
;0.2
G1 X161.975 Y31.916
G1 Z0.200
G1 E0.80000 F2100.000
M204 S1000
;TYPE:Skirt
;WIDTH:0.42
G1 F1200.000
G1 X162.738 Y32.415 E0.02860
G1 X163.256 Y33.162 E0.02849
G1 X163.455 Y34.048 E0.02849
G1 X165.223 Y123.816 E2.81516
G1 X165.222 Y172.920 E1.53962
G1 X165.081 Y173.658 E0.02355
G1 X164.715 Y174.317 E0.02367
G1 X164.160 Y174.829 E0.02367
G1 X163.472 Y175.141 E0.02367
G1 X162.878 Y175.224 E0.01882
G1 X156.774 Y175.224 E0.19138
G1 X102.345 Y162.265 E1.75428
M73 Q0 S78
G1 X100.486 Y161.515 E0.06288
G1 X99.000 Y160.692 E0.05325
G1 X97.526 Y159.621 E0.05712
G1 X96.089 Y158.253 E0.06223
G1 X95.009 Y156.940 E0.05330
G1 X94.046 Y155.425 E0.05628
G1 X93.248 Y153.736 E0.05855
G1 X92.681 Y151.993 E0.05748
G1 X92.336 Y150.189 E0.05759
G1 X92.221 Y148.436 E0.05509
G1 X90.453 Y58.546 E2.81897
G1 X90.590 Y56.642 E0.05986
G1 X90.912 Y54.981 E0.05306
G1 X91.430 Y53.370 E0.05305
G1 X92.254 Y51.585 E0.06164
G1 X93.243 Y50.024 E0.05795
G1 X94.427 Y48.594 E0.05819
G1 X95.866 Y47.261 E0.06152
G1 X97.241 Y46.268 E0.05318
G1 X98.718 Y45.450 E0.05294
G1 X100.451 Y44.745 E0.05865
G1 X154.580 Y31.794 E1.74509
G1 X161.083 Y31.741 E0.20391
G1 X161.916 Y31.904 E0.02661
;WIPE_START
G1 F8640.000
G1 X162.738 Y32.415 E-0.22355
G1 X163.256 Y33.162 E-0.20978
G1 X163.455 Y34.048 E-0.20978
G1 X163.465 Y34.554 E-0.11689
;WIPE_END
G1 E-0.04000 F2100.000
G1 Z0.600 F10800.000
G1 X90.434 Y67.135
G1 Z0.200
G1 E0.80000 F2100.000
G1 F1200.000
G1 X90.214 Y66.788 E0.01289
G1 X89.336 Y64.933 E0.06434
G1 X88.693 Y63.004 E0.06376
G1 X88.249 Y60.735 E0.07250
G1 X88.117 Y58.447 E0.07186
G1 X88.269 Y56.346 E0.06604
G1 X88.678 Y54.286 E0.06584
G1 X89.322 Y52.337 E0.06437
G1 X90.208 Y50.458 E0.06513
G1 X91.317 Y48.701 E0.06513
G1 X92.616 Y47.110 E0.06441
G1 X94.154 Y45.641 E0.06667
G1 X95.847 Y44.387 E0.06607
G1 X97.849 Y43.273 E0.07183
G1 X100.004 Y42.432 E0.07253
G1 X102.043 Y41.928 E0.06588
G1 X104.099 Y41.683 E0.06489
G1 X106.149 Y41.688 E0.06428
G1 X108.173 Y41.939 E0.06396
G1 X109.707 Y42.336 E0.04967
G1 X110.483 Y42.538 F10800.000
G1 F1200.000
G1 X112.312 Y43.274 E0.06181
G1 X114.031 Y44.208 E0.06135
G1 X116.017 Y45.651 E0.07697
G1 X117.437 Y46.997 E0.06136
G1 X118.706 Y48.514 E0.06201
G1 X119.936 Y50.431 E0.07138
G1 X120.166 Y50.904 E0.01650
G1 X150.366 Y50.904 E0.94691
G1 X150.366 Y33.662 E0.54062
G1 X150.538 Y32.954 E0.02283
G1 X150.639 Y32.543 F10800.000
G1 F1200.000
G1 X150.705 Y32.272 E0.00874
G1 X151.282 Y31.280 E0.03600
G1 X152.082 Y30.454 E0.03604
G1 X153.033 Y29.833 E0.03561
G1 X154.078 Y29.478 E0.03459
G1 X161.899 Y29.446 E0.24525
G1 X162.683 Y29.648 E0.02538
G1 X163.443 Y29.994 E0.02619
G1 X164.643 Y31.007 E0.04922
G1 X165.432 Y32.223 E0.04546
G1 X165.793 Y33.606 E0.04481
G1 X165.793 Y83.627 E1.56838
G1 X165.495 Y84.850 E0.03947
G1 X165.086 Y85.667 E0.02863
G1 X164.670 Y86.134 E0.01961
G1 X164.301 Y86.549 F10800.000
G1 F1200.000
G1 X164.157 Y86.711 E0.00680
G1 X163.272 Y87.332 E0.03388
G1 X161.596 Y87.831 E0.05486
G1 X154.335 Y87.799 E0.22765
G1 X153.016 Y87.393 E0.04329
G1 X152.051 Y86.756 E0.03623
G1 X151.223 Y85.875 E0.03791
G1 X150.644 Y84.809 E0.03805
G1 X150.366 Y83.573 E0.03972
G1 X150.366 Y66.331 E0.54062
G1 X120.166 Y66.331 E0.94690
G1 X119.942 Y66.793 E0.01609
G1 X118.887 Y68.472 E0.06218
G1 X117.488 Y70.184 E0.06932
G1 X115.892 Y71.688 E0.06878
G1 X114.144 Y72.954 E0.06764
G1 X112.288 Y73.973 E0.06639
G1 X110.312 Y74.753 E0.06662
G1 X108.168 Y75.297 E0.06936
G1 X105.979 Y75.557 E0.06912
G1 X104.025 Y75.548 E0.06126
G1 X102.066 Y75.311 E0.06188
G1 X100.005 Y74.804 E0.06655
G1 X97.968 Y74.018 E0.06846
G1 X96.066 Y72.988 E0.06783
G1 X94.289 Y71.706 E0.06869
G1 X92.697 Y70.210 E0.06848
G1 X91.348 Y68.577 E0.06643
G1 X90.823 Y67.749 E0.03072
G1 X90.809 Y67.025 F10800.000
G1 F1200.000
G1 X91.660 Y68.365 E0.04977
G1 X92.965 Y69.944 E0.06422
G1 X94.519 Y71.408 E0.06696
G1 X96.256 Y72.662 E0.06717
G1 X98.115 Y73.671 E0.06631
G1 X100.107 Y74.441 E0.06695
G1 X102.123 Y74.938 E0.06511
G1 X104.038 Y75.171 E0.06049
G1 X105.969 Y75.180 E0.06055
G1 X108.111 Y74.924 E0.06764
G1 X110.208 Y74.391 E0.06783
G1 X112.117 Y73.636 E0.06439
G1 X113.933 Y72.641 E0.06492
G1 X115.642 Y71.405 E0.06612
G1 X117.204 Y69.935 E0.06725
G1 X118.574 Y68.261 E0.06783
G1 X119.617 Y66.602 E0.06147
G1 X119.928 Y65.954 E0.02253
G1 X150.743 Y65.954 E0.96617
G1 X150.743 Y83.552 E0.55176
G1 X151.005 Y84.699 E0.03689
G1 X151.541 Y85.672 E0.03483
G1 X152.309 Y86.480 E0.03497
G1 X153.200 Y87.063 E0.03337
G1 X154.365 Y87.422 E0.03823
G1 X161.570 Y87.454 E0.22591
G1 X163.082 Y87.005 E0.04948
M73 P1 R77
G1 X163.891 Y86.442 E0.03090
G1 X164.290 Y85.998 E0.01871
G1 X164.659 Y85.587 F10800.000
G1 F1200.000
G1 X164.761 Y85.473 E0.00479
G1 X165.134 Y84.738 E0.02586
G1 X165.416 Y83.604 E0.03664
G1 X165.416 Y33.631 E1.56686
M73 Q1 S78
G1 X165.075 Y32.350 E0.04157
G1 X164.377 Y31.276 E0.04015
G1 X163.262 Y30.325 E0.04596
G1 X162.573 Y30.009 E0.02378
G1 X161.829 Y29.817 E0.02408
G1 X154.170 Y29.845 E0.24014
G1 X153.178 Y30.182 E0.03286
G1 X152.307 Y30.756 E0.03269
G1 X151.571 Y31.524 E0.03336
G1 X151.043 Y32.446 E0.03332
G1 X150.943 Y32.858 F10800.000
G1 F1200.000
G1 X150.743 Y33.684 E0.02666
G1 X150.743 Y51.281 E0.55174
G1 X119.928 Y51.281 E0.96618
M73 P1 R76
G1 X119.612 Y50.624 E0.02287
G1 X118.409 Y48.747 E0.06990
G1 X117.170 Y47.263 E0.06061
G1 X115.767 Y45.933 E0.06062
G1 X113.840 Y44.534 E0.07466
G1 X112.142 Y43.610 E0.06062
G1 X110.349 Y42.891 E0.06058
G1 X109.706 Y42.724 E0.02081
G1 X108.928 Y42.522 F10800.000
G1 F1200.000
G1 X108.115 Y42.312 E0.02636
G1 X106.114 Y42.064 E0.06321
G1 X104.109 Y42.060 E0.06285
G1 X102.100 Y42.301 E0.06345
G1 X100.106 Y42.795 E0.06441
G1 X98.021 Y43.609 E0.07019
G1 X96.061 Y44.697 E0.07028
G1 X94.406 Y45.922 E0.06458
G1 X92.901 Y47.358 E0.06521
G1 X91.629 Y48.912 E0.06297
G1 X90.544 Y50.629 E0.06369
G1 X89.676 Y52.466 E0.06368
G1 X89.040 Y54.393 E0.06364
G1 X88.641 Y56.408 E0.06438
G1 X88.494 Y58.461 E0.06456
G1 X88.625 Y60.700 E0.07031
G1 X89.055 Y62.896 E0.07018
G1 X89.690 Y64.803 E0.06303
G1 X90.418 Y66.339 E0.05330
G1 X90.793 Y66.251 F10800.000
G1 F1200.000
G1 X90.885 Y66.444 E0.00671
G1 X91.958 Y68.134 E0.06275
G1 X93.232 Y69.677 E0.06275
G1 X94.750 Y71.109 E0.06544
G1 X96.447 Y72.337 E0.06565
G1 X98.263 Y73.323 E0.06480
G1 X100.209 Y74.078 E0.06545
G1 X102.180 Y74.565 E0.06365
G1 X104.072 Y74.795 E0.05978
G1 X105.959 Y74.803 E0.05914
G1 X108.054 Y74.551 E0.06616
G1 X110.103 Y74.029 E0.06630
G1 X111.968 Y73.290 E0.06289
G1 X113.722 Y72.329 E0.06273
G1 X115.393 Y71.122 E0.06462
G1 X116.920 Y69.687 E0.06572
G1 X118.261 Y68.050 E0.06633
G1 X119.292 Y66.410 E0.06075
G1 X119.690 Y65.577 E0.02896
G1 X151.120 Y65.577 E0.98546
G1 X151.120 Y83.530 E0.56290
G1 X151.366 Y84.586 E0.03401
G1 X151.858 Y85.466 E0.03159
G1 X152.565 Y86.203 E0.03204
G1 X153.382 Y86.732 E0.03053
G1 X154.394 Y87.045 E0.03321
G1 X161.544 Y87.077 E0.22416
G1 X162.893 Y86.677 E0.04414
G1 X163.627 Y86.172 E0.02793
G1 X164.279 Y85.453 E0.03044
G1 X164.645 Y84.875 F10800.000
G1 F1200.000
G1 X164.774 Y84.623 E0.00885
G1 X165.039 Y83.580 E0.03376
G1 X165.039 Y33.655 E1.56536
G1 X164.742 Y32.528 E0.03655
G1 X164.110 Y31.544 E0.03667
G1 X163.080 Y30.657 E0.04262
G1 X162.431 Y30.359 E0.02238
G1 X161.760 Y30.189 E0.02172
G1 X154.260 Y30.212 E0.23514
G1 X153.363 Y30.512 E0.02966
G1 X152.563 Y31.034 E0.02997
G1 X151.885 Y31.733 E0.03050
G1 X151.544 Y32.326 E0.02148
G1 X151.347 Y32.761 F10800.000
G1 F1200.000
G1 X151.120 Y33.706 E0.03048
G1 X151.120 Y51.658 E0.56288
G1 X119.690 Y51.658 E0.98546
G1 X119.288 Y50.817 E0.02923
G1 X118.112 Y48.979 E0.06842
G1 X116.903 Y47.530 E0.05920
G1 X115.516 Y46.215 E0.05989
G1 X113.649 Y44.859 E0.07236
G1 X111.991 Y43.956 E0.05920
G1 X110.219 Y43.245 E0.05985
G1 X108.928 Y42.910 E0.04183
G1 X108.150 Y42.709 F10800.000
G1 F1200.000
G1 X106.079 Y42.439 E0.06549
G1 X104.121 Y42.437 E0.06141
G1 X102.157 Y42.674 E0.06201
G1 X100.209 Y43.158 E0.06294
G1 X98.192 Y43.945 E0.06787
G1 X96.275 Y45.008 E0.06873
G1 X94.657 Y46.204 E0.06309
G1 X93.185 Y47.606 E0.06374
G1 X91.928 Y49.142 E0.06223
G1 X90.869 Y50.821 E0.06224
G1 X90.022 Y52.616 E0.06223
G1 X89.402 Y54.500 E0.06219
G1 X89.013 Y56.469 E0.06292
G1 X88.871 Y58.476 E0.06308
G1 X89.000 Y60.665 E0.06876
G1 X89.416 Y62.789 E0.06786
G1 X90.036 Y64.652 E0.06157
G1 X90.400 Y65.421 E0.02667
G1 X90.775 Y65.334 F10800.000
G1 F1200.000
G1 X91.221 Y66.272 E0.03254
G1 X92.256 Y67.903 E0.06058
G1 X93.499 Y69.411 E0.06129
G1 X94.982 Y70.811 E0.06392
G1 X96.638 Y72.011 E0.06413
G1 X98.411 Y72.976 E0.06328
G1 X100.312 Y73.715 E0.06394
G1 X102.237 Y74.192 E0.06220
G1 X104.085 Y74.418 E0.05838
G1 X105.948 Y74.426 E0.05842
G1 X107.996 Y74.178 E0.06467
G1 X109.997 Y73.666 E0.06477
G1 X111.797 Y72.954 E0.06068
G1 X113.511 Y72.016 E0.06126
G1 X115.144 Y70.839 E0.06311
G1 X116.637 Y69.438 E0.06418
G1 X117.948 Y67.840 E0.06483
G1 X118.967 Y66.219 E0.06002
G1 X119.452 Y65.200 E0.03539
G1 X151.497 Y65.200 E1.00475
G1 X151.497 Y83.507 E0.57401
G1 X151.727 Y84.472 E0.03109
G1 X152.173 Y85.258 E0.02834
G1 X152.820 Y85.924 E0.02912
G1 X153.564 Y86.401 E0.02771
G1 X154.424 Y86.668 E0.02824
G1 X161.518 Y86.700 E0.22242
G1 X162.706 Y86.349 E0.03885
G1 X163.365 Y85.900 E0.02498
G1 X164.115 Y85.081 E0.03484
G1 X164.266 Y84.792 E0.01023
;WIPE_START
G1 F8640.000
G1 X164.115 Y85.081 E-0.07535
G1 X163.365 Y85.900 E-0.25658
G1 X162.706 Y86.349 E-0.18397
G1 X161.692 Y86.648 E-0.24410
;WIPE_END
G1 E-0.04000 F2100.000
G1 Z0.600 F10800.000
G1 X164.622 Y83.708
G1 Z0.200
G1 E0.80000 F2100.000
G1 F1200.000
G1 X164.662 Y83.555 E0.00494
G1 X164.662 Y33.680 E1.56380
M73 Q1 S77
G1 X164.386 Y32.654 E0.03331
G1 X163.842 Y31.810 E0.03149
G1 X162.896 Y30.987 E0.03932
G1 X162.321 Y30.720 E0.01987
G1 X161.690 Y30.560 E0.02041
G1 X154.351 Y30.579 E0.23011
G1 X153.506 Y30.862 E0.02795
G1 X152.819 Y31.312 E0.02575
G1 X152.173 Y31.978 E0.02909
G1 X152.043 Y32.207 E0.00826
G1 X151.788 Y32.655 F10800.000
G1 F1200.000
G1 X151.727 Y32.763 E0.00389
G1 X151.497 Y33.728 E0.03109
G1 X151.497 Y52.035 E0.57401
G1 X119.452 Y52.035 E1.00476
G1 X118.964 Y51.010 E0.03560
G1 X117.815 Y49.212 E0.06692
G1 X116.620 Y47.780 E0.05847
G1 X115.266 Y46.498 E0.05847
G1 X113.458 Y45.184 E0.07006
G1 X111.820 Y44.293 E0.05847
G1 X110.090 Y43.599 E0.05843
G1 X108.150 Y43.096 E0.06286
;WIPE_START
G1 F8640.000
G1 X110.090 Y43.599 E-0.46290
G1 X111.285 Y44.078 E-0.29709
;WIPE_END
G1 E-0.04000 F2100.000
G1 Z0.600 F10800.000
G1 X107.139 Y42.951
G1 Z0.200
G1 E0.80000 F2100.000
G1 F1200.000
G1 X106.044 Y42.815 E0.03458
G1 X104.132 Y42.814 E0.05996
G1 X102.214 Y43.047 E0.06057
G1 X100.312 Y43.521 E0.06147
G1 X98.364 Y44.281 E0.06555
G1 X96.489 Y45.319 E0.06719
G1 X94.908 Y46.485 E0.06160
G1 X93.469 Y47.854 E0.06227
G1 X92.241 Y49.353 E0.06077
G1 X91.194 Y51.012 E0.06151
G1 X90.368 Y52.766 E0.06078
G1 X89.764 Y54.607 E0.06074
G1 X89.386 Y56.530 E0.06147
G1 X89.248 Y58.490 E0.06159
G1 X89.376 Y60.630 E0.06721
G1 X89.778 Y62.681 E0.06555
G1 X90.382 Y64.499 E0.06004
G1 X90.757 Y64.418 F10800.000
G1 F1200.000
G1 X91.556 Y66.100 E0.05839
G1 X92.568 Y67.691 E0.05913
G1 X93.767 Y69.146 E0.05910
G1 X95.213 Y70.513 E0.06241
G1 X96.829 Y71.686 E0.06261
G1 X98.559 Y72.629 E0.06177
G1 X100.415 Y73.352 E0.06244
G1 X102.294 Y73.820 E0.06074
G1 X104.098 Y74.041 E0.05697
G1 X105.938 Y74.049 E0.05770
G1 X107.938 Y73.806 E0.06318
G1 X109.892 Y73.304 E0.06324
G1 X111.647 Y72.608 E0.05920
G1 X113.300 Y71.703 E0.05909
G1 X114.895 Y70.555 E0.06160
G1 X116.353 Y69.189 E0.06265
G1 X117.635 Y67.629 E0.06332
G1 X118.642 Y66.028 E0.05929
G1 X119.213 Y64.823 E0.04182
G1 X151.874 Y64.823 E1.02406
G1 X151.874 Y83.486 E0.58516
G1 X152.068 Y84.309 E0.02653
G1 X152.489 Y85.049 E0.02669
G1 X153.073 Y85.644 E0.02613
G1 X153.743 Y86.068 E0.02488
G1 X154.507 Y86.300 E0.02501
G1 X161.492 Y86.323 E0.21901
G1 X162.520 Y86.020 E0.03362
G1 X163.104 Y85.627 E0.02204
G1 X163.794 Y84.882 E0.03187
G1 X164.056 Y84.388 E0.01752
G1 X164.244 Y83.681 E0.02293
;WIPE_START
G1 F8640.000
G1 X164.056 Y84.388 E-0.16886
G1 X163.794 Y84.882 E-0.12902
G1 X163.104 Y85.627 E-0.23471
G1 X162.520 Y86.020 E-0.16231
G1 X162.250 Y86.099 E-0.06510
;WIPE_END
G1 E-0.04000 F2100.000
G1 Z0.600 F10800.000
G1 X164.285 Y66.572
G1 Z0.200
G1 E0.80000 F2100.000
G1 F1200.000
G1 X164.285 Y33.705 E1.03051
G1 X164.052 Y32.831 E0.02835
G1 X163.572 Y32.075 E0.02809
G1 X162.712 Y31.317 E0.03593
G1 X162.179 Y31.069 E0.01842
G1 X161.622 Y30.932 E0.01798
G1 X154.439 Y30.947 E0.22522
G1 X153.689 Y31.192 E0.02474
G1 X153.073 Y31.592 E0.02304
G1 X152.599 Y32.074 E0.02120
G1 X152.290 Y32.535 F10800.000
G1 F1200.000
G1 X152.068 Y32.926 E0.01409
G1 X151.874 Y33.750 E0.02653
G1 X151.874 Y52.412 E0.58516
G1 X119.213 Y52.412 E1.02406
M73 P2 R76
G1 X118.639 Y51.203 E0.04198
G1 X117.517 Y49.444 E0.06543
G1 X116.353 Y48.046 E0.05705
G1 X115.016 Y46.780 E0.05773
M73 Q2 S77
G1 X113.267 Y45.510 E0.06776
G1 X111.650 Y44.629 E0.05773
G1 X109.962 Y43.954 E0.05701
G1 X107.939 Y43.430 E0.06552
G1 X107.160 Y43.333 E0.02460
;WIPE_START
G1 F8640.000
G1 X107.939 Y43.430 E-0.18120
G1 X109.962 Y43.954 E-0.48249
G1 X110.349 Y44.109 E-0.09631
;WIPE_END
G1 E-0.04000 F2100.000
G1 Z0.600 F10800.000
G1 X106.092 Y43.201
G1 Z0.200
G1 E0.80000 F2100.000
G1 F1200.000
G1 X104.144 Y43.191 E0.06110
G1 X102.272 Y43.420 E0.05913
G1 X100.415 Y43.884 E0.06001
G1 X98.535 Y44.617 E0.06325
G1 X96.703 Y45.629 E0.06564
G1 X95.159 Y46.767 E0.06011
G1 X93.753 Y48.102 E0.06080
G1 X92.553 Y49.565 E0.05932
G1 X91.530 Y51.184 E0.06005
G1 X90.723 Y52.895 E0.05932
G1 X90.126 Y54.713 E0.06001
G1 X89.758 Y56.591 E0.06000
G1 X89.625 Y58.504 E0.06011
G1 X89.752 Y60.594 E0.06567
G1 X90.140 Y62.574 E0.06326
G1 X90.357 Y63.230 E0.02165
G1 X90.733 Y63.165 F10800.000
G1 F1200.000
G1 X91.090 Y64.241 E0.03555
G1 X91.892 Y65.927 E0.05854
G1 X92.880 Y67.479 E0.05768
G1 X94.035 Y68.880 E0.05694
G1 X95.445 Y70.216 E0.06090
G1 X97.021 Y71.361 E0.06109
G1 X98.707 Y72.283 E0.06025
G1 X100.518 Y72.989 E0.06093
G1 X102.352 Y73.447 E0.05928
G1 X104.133 Y73.666 E0.05625
G1 X105.927 Y73.672 E0.05627
G1 X107.880 Y73.433 E0.06168
G1 X109.786 Y72.942 E0.06172
G1 X111.476 Y72.271 E0.05701
G1 X113.090 Y71.390 E0.05764
G1 X114.646 Y70.271 E0.06010
G1 X116.070 Y68.940 E0.06112
G1 X117.323 Y67.418 E0.06181
G1 X118.317 Y65.837 E0.05855
G1 X118.974 Y64.446 E0.04825
G1 X152.251 Y64.446 E1.04338
G1 X152.251 Y83.464 E0.59632
G1 X152.410 Y84.149 E0.02205
G1 X152.776 Y84.804 E0.02349
G1 X153.326 Y85.363 E0.02460
G1 X153.920 Y85.734 E0.02197
G1 X154.586 Y85.930 E0.02179
