; generated by PrusaSlicer 2.4.1+win64 on 2023-06-19 at 13:04:55 UTC

; 

; external perimeters extrusion width = 0.45mm
; perimeters extrusion width = 0.45mm
; infill extrusion width = 0.45mm
; solid infill extrusion width = 0.45mm
; top infill extrusion width = 0.40mm
; first layer extrusion width = 0.42mm

M73 P0 R165
M73 Q0 S166
M107
;TYPE:Custom
M862.3 P "MK3S" ; printer model check
M862.1 P0.4 ; nozzle diameter check
M115 U3.10.0 ; tell printer latest fw version
G90 ; use absolute coordinates
M83 ; extruder relative mode
M104 S215 ; set extruder temp
M140 S60 ; set bed temp
M190 S60 ; wait for bed temp
M109 S215 ; wait for extruder temp
G28 W ; home all without mesh bed level
G80 ; mesh bed leveling
G1 Y-3.0 F1000.0 ; go outside print area
G92 E0.0
G1 X60.0 E9.0 F1000.0 ; intro line
G1 X100.0 E12.5 F1000.0 ; intro line
G92 E0.0
M221 S95

; Don't change E values below. Excessive value can damage the printer.

M907 E538 ; set extruder motor current
G21 ; set units to millimeters
G90 ; use absolute coordinates
M83 ; use relative distances for extrusion
M900 K0.05 ; Filament gcode LA 1.5
M900 K30 ; Filament gcode LA 1.0
M107
;LAYER_CHANGE
;Z:0.2
;HEIGHT:0.2
;BEFORE_LAYER_CHANGE
G92 E0.0
;0.2


G1 E-.8 F2100
G1 Z.4 F10800
;AFTER_LAYER_CHANGE
;0.2
G1 X16.557 Y16.603
G1 Z.2
G1 E.8 F2100
M204 S1000
;TYPE:Skirt/Brim
;WIDTH:0.42
G1 F1200
G1 X17.55 Y15.666 E.04278
G1 X18.57 Y15.415 E.03293
G1 X107.366 Y13.686 E2.78468
G1 X139.412 Y13.686 E1.00479
G1 X139.901 Y13.736 E.01541
G1 X219.44 Y30.449 E2.54833
G1 X220.139 Y30.717 E.02349
G1 X232.139 Y37.645 E.43446
G1 X233.075 Y38.638 E.04278
G1 X233.32 Y39.516 E.02859
G1 X236.675 Y81.939 E1.33429
G1 X237.116 Y119.95 E1.1919
G1 X237.403 Y166.181 E1.44955
G1 X237.085 Y167.384 E.03903
M73 Q0 S165
G1 X225.085 Y188.169 E.7525
G1 X224.215 Y189.039 E.03858
G1 X212.215 Y195.967 E.43446
G1 X211.439 Y196.249 E.0259
G1 X162.578 Y204.853 E1.55556
G1 X161.971 Y204.882 E.01905
G1 X83.517 Y198.439 E2.46816
G1 X82.721 Y198.231 E.0258
G1 X43.052 Y180.047 E1.36822
G1 X30.854 Y173.017 E.44144
G1 X29.984 Y172.147 E.03858
G1 X17.984 Y151.362 E.7525
G1 X17.679 Y150.428 E.03081
G1 X8.286 Y63.064 E2.75503
G1 X8.285 Y62.564 E.01568
M73 P0 R164
G1 X12.252 Y24.473 E1.20075
G1 X12.557 Y23.531 E.03106
G1 X16.527 Y16.655 E.24895
; printing object hat_shape.amf id:0 copy 0
;WIPE_START
G1 F8640
G1 X17.55 Y15.666 E-.32835
G1 X18.57 Y15.415 E-.24253
G1 X19.388 Y15.399 E-.18912
;WIPE_END
G1 E-.04 F2100
G1 Z.6 F10800
G1 X24.497 Y144.032
G1 Z.2
G1 E.8 F2100
;TYPE:Perimeter
G1 F1200
G1 X39.589 Y144.032 E.47317
G1 X43.755 Y151.249 E.26126
G1 X56.043 Y144.154 E.44489
G1 X66.968 Y150.462 E.39553
G1 X63.589 Y156.315 E.21191
G1 X55.256 Y156.315 E.26126
G1 X55.256 Y170.504 E.44489
G1 X44.331 Y176.811 E.39553
G1 X40.497 Y170.171 E.2404
G1 X32.83 Y170.171 E.2404
G1 X32.83 Y156.647 E.42403
G1 X21.118 Y149.885 E.42403
G1 X24.467 Y144.084 E.21003
G1 X24.28 Y143.655 F10800
;TYPE:External perimeter
G1 F1200
G1 X39.806 Y143.655 E.48682
G1 X43.893 Y150.734 E.25627
G1 X56.043 Y143.719 E.43989
G1 X67.483 Y150.324 E.41418
G1 X63.806 Y156.692 E.23056
G1 X55.633 Y156.692 E.25627
G1 X55.633 Y170.721 E.43989
G1 X44.193 Y177.326 E.41418
G1 X40.28 Y170.548 E.2454
G1 X32.453 Y170.548 E.2454
G1 X32.453 Y156.865 E.42902
G1 X20.603 Y150.024 E.42902
G1 X24.25 Y143.707 E.22868
G1 X24.657 Y143.788 F10800
;WIPE_START
G1 F8640
G1 X27.541 Y143.696 E-.76
;WIPE_END
G1 E-.04 F2100
G1 Z.6 F10800
G1 X66.531 Y150.991
G1 Z.2
G1 E.8 F2100
;TYPE:Solid infill
;WIDTH:0.421189
G1 F1200
G1 X65.455 Y149.915 E.04787
G1 X64.19 Y149.184 E.04597
G1 X66.211 Y151.206 E.08993
G1 X66.016 Y151.545 E.01232
G1 X62.924 Y148.454 E.13752
G1 X61.658 Y147.723 E.04597
G1 X65.82 Y151.884 E.18511
G1 X65.624 Y152.223 E.01232
G1 X60.393 Y146.992 E.2327
G1 X59.127 Y146.261 E.04597
G1 X65.428 Y152.563 E.2803
G1 X65.232 Y152.902 E.01232
G1 X57.861 Y145.53 E.32789
G1 X56.595 Y144.8 E.04597
G1 X65.037 Y153.241 E.37548
G1 X64.841 Y153.58 E.01232
G1 X55.852 Y144.591 E.39984
G1 X55.513 Y144.787 E.01232
G1 X64.645 Y153.919 E.40622
G1 X64.449 Y154.258 E.01232
G1 X55.174 Y144.983 E.4126
G1 X54.834 Y145.179 E.01232
G1 X64.253 Y154.598 E.41897
G1 X64.058 Y154.937 E.01232
G1 X54.495 Y145.374 E.42535
G1 X54.156 Y145.57 E.01232
G1 X63.862 Y155.276 E.43172
G1 X63.666 Y155.615 E.01232
G1 X53.817 Y145.766 E.4381
G1 X53.478 Y145.962 E.01232
G1 X63.47 Y155.954 E.44448
G1 X63.425 Y156.032 E.00283
G1 X63.013 Y156.032 E.01297
G1 X53.139 Y146.158 E.43923
G1 X52.8 Y146.353 E.01232
G1 X62.478 Y156.032 E.43052
G1 X61.943 Y156.032 E.01683
G1 X52.46 Y146.549 E.42181
G1 X52.121 Y146.745 E.01232
G1 X61.408 Y156.032 E.4131
G1 X60.873 Y156.032 E.01683
G1 X51.782 Y146.941 E.40439
G1 X51.443 Y147.137 E.01232
G1 X60.338 Y156.032 E.39568
G1 X59.803 Y156.032 E.01683
G1 X51.104 Y147.332 E.38697
G1 X50.765 Y147.528 E.01232
G1 X59.268 Y156.032 E.37826
G1 X58.733 Y156.032 E.01683
G1 X50.425 Y147.724 E.36955
G1 X50.086 Y147.92 E.01232
G1 X58.198 Y156.032 E.36084
G1 X57.663 Y156.032 E.01683
G1 X49.747 Y148.116 E.35213
G1 X49.408 Y148.311 E.01232
G1 X57.129 Y156.032 E.34342
G1 X56.594 Y156.032 E.01683
G1 X49.069 Y148.507 E.33471
G1 X48.73 Y148.703 E.01232
G1 X56.059 Y156.032 E.326
G1 X55.524 Y156.032 E.01683
G1 X48.391 Y148.899 E.31729
G1 X48.051 Y149.095 E.01232
G1 X54.989 Y156.032 E.30858
G1 X54.973 Y156.032 E.00049
G1 X54.973 Y156.551 E.01633
G1 X47.712 Y149.29 E.32297
G1 X47.373 Y149.486 E.01232
G1 X54.973 Y157.086 E.33806
G1 X54.973 Y157.621 E.01683
G1 X47.034 Y149.682 E.35314
G1 X46.695 Y149.878 E.01232
G1 X54.973 Y158.156 E.36823
G1 X54.973 Y158.691 E.01683
G1 X46.356 Y150.074 E.38331
G1 X46.017 Y150.269 E.01232
G1 X54.973 Y159.226 E.3984
G1 X54.973 Y159.761 E.01683
G1 X45.677 Y150.465 E.41348
G1 X45.338 Y150.661 E.01232
G1 X54.973 Y160.296 E.42857
G1 X54.973 Y160.831 E.01683
M73 Q0 S164
G1 X44.999 Y150.857 E.44366
G1 X44.66 Y151.053 E.01232
G1 X54.973 Y161.366 E.45874
G1 X54.973 Y161.901 E.01683
G1 X44.197 Y151.124 E.47935
;WIPE_START
G1 F8640
G1 X46.524 Y153.452 E-.76
;WIPE_END
G1 E-.04 F2100
G1 Z.6 F10800
G1 X38.823 Y144.146
G1 Z.2
G1 E.8 F2100
G1 F1200
G1 X40.016 Y145.339 E.0531
G1 X40.747 Y146.605 E.04597
G1 X38.457 Y144.315 E.10185
G1 X37.923 Y144.315 E.01683
G1 X41.478 Y147.871 E.15815
G1 X42.209 Y149.136 E.04597
G1 X37.388 Y144.315 E.21445
G1 X36.853 Y144.315 E.01683
G1 X42.94 Y150.402 E.27076
G1 X43.651 Y151.635 E.04478
G1 X43.982 Y151.444 E.012
G1 X54.973 Y162.436 E.48891
G1 X54.973 Y162.971 E.01683
G1 X36.318 Y144.315 E.82982
G1 X35.783 Y144.315 E.01683
G1 X54.973 Y163.506 E.85362
G1 X54.973 Y164.041 E.01683
G1 X35.248 Y144.315 E.87741
G1 X34.713 Y144.315 E.01683
G1 X54.973 Y164.576 E.90121
G1 X54.973 Y165.11 E.01683
G1 X34.178 Y144.315 E.925
G1 X33.643 Y144.315 E.01683
G1 X54.973 Y165.645 E.9488
G1 X54.973 Y166.18 E.01683
G1 X33.108 Y144.315 E.97259
G1 X32.573 Y144.315 E.01683
M73 P1 R164
M73 Q1 S164
G1 X54.973 Y166.715 E.99639
G1 X54.973 Y167.25 E.01683
M73 P1 R163
G1 X32.038 Y144.315 E1.02019
G1 X31.503 Y144.315 E.01683
G1 X54.973 Y167.785 E1.04398
G1 X54.973 Y168.32 E.01683
G1 X30.968 Y144.315 E1.06778
G1 X30.433 Y144.315 E.01683
G1 X54.973 Y168.855 E1.09157
G1 X54.973 Y169.39 E.01683
G1 X29.898 Y144.315 E1.11537
G1 X29.363 Y144.315 E.01683
G1 X54.973 Y169.925 E1.13916
G1 X54.973 Y170.34 E.01307
G1 X54.897 Y170.384 E.00275
G1 X28.828 Y144.315 E1.15959
G1 X28.293 Y144.315 E.01683
G1 X54.558 Y170.58 E1.1683
G1 X54.219 Y170.776 E.01232
G1 X27.758 Y144.315 E1.17701
G1 X27.223 Y144.315 E.01683
G1 X53.88 Y170.972 E1.18572
G1 X53.541 Y171.167 E.01232
G1 X26.689 Y144.315 E1.19443
G1 X26.154 Y144.315 E.01683
G1 X53.202 Y171.363 E1.20314
G1 X52.862 Y171.559 E.01232
G1 X25.619 Y144.315 E1.21185
G1 X25.084 Y144.315 E.01683
G1 X52.523 Y171.755 E1.22056
G1 X52.184 Y171.951 E.01232
G1 X24.62 Y144.386 E1.22611
G1 X24.424 Y144.725 E.01232
G1 X51.845 Y172.146 E1.21973
G1 X51.506 Y172.342 E.01232
G1 X24.228 Y145.065 E1.21336
G1 X24.032 Y145.404 E.01232
G1 X51.167 Y172.538 E1.20698
G1 X50.828 Y172.734 E.01232
G1 X23.836 Y145.743 E1.20061
G1 X23.641 Y146.082 E.01232
G1 X50.488 Y172.93 E1.19423
G1 X50.149 Y173.126 E.01232
G1 X23.445 Y146.421 E1.18785
G1 X23.249 Y146.76 E.01232
G1 X49.81 Y173.321 E1.18148
G1 X49.471 Y173.517 E.01232
G1 X33.113 Y157.159 E.72763
G1 X33.113 Y157.694 E.01683
M73 Q1 S163
G1 X49.132 Y173.713 E.71255
G1 X48.793 Y173.909 E.01232
G1 X33.113 Y158.229 E.69746
G1 X33.113 Y158.764 E.01683
G1 X48.454 Y174.105 E.68238
G1 X48.114 Y174.3 E.01232
G1 X33.113 Y159.299 E.66729
G1 X33.113 Y159.834 E.01683
G1 X47.775 Y174.496 E.65221
G1 X47.436 Y174.692 E.01232
G1 X33.113 Y160.369 E.63712
G1 X33.113 Y160.904 E.01683
G1 X47.097 Y174.888 E.62203
G1 X46.758 Y175.084 E.01232
G1 X33.113 Y161.439 E.60695
G1 X33.113 Y161.974 E.01683
G1 X46.419 Y175.279 E.59186
G1 X46.079 Y175.475 E.01232
G1 X33.113 Y162.509 E.57678
G1 X33.113 Y163.043 E.01683
G1 X39.958 Y169.888 E.30447
G1 X39.423 Y169.888 E.01683
G1 X33.113 Y163.578 E.28067
G1 X33.113 Y164.113 E.01683
G1 X38.888 Y169.888 E.25688
G1 X38.353 Y169.888 E.01683
G1 X33.113 Y164.648 E.23308
G1 X33.113 Y165.183 E.01683
G1 X37.818 Y169.888 E.20929
G1 X37.283 Y169.888 E.01683
G1 X33.113 Y165.718 E.18549
G1 X33.113 Y166.253 E.01683
G1 X36.748 Y169.888 E.16169
G1 X36.213 Y169.888 E.01683
G1 X33.113 Y166.788 E.1379
G1 X33.113 Y167.323 E.01683
G1 X35.678 Y169.888 E.1141
G1 X35.143 Y169.888 E.01683
G1 X33.113 Y167.858 E.09031
G1 X33.113 Y168.393 E.01683
G1 X34.608 Y169.888 E.06651
G1 X34.073 Y169.888 E.01683
G1 X33.113 Y168.928 E.04272
G1 X33.113 Y169.463 E.01683
G1 X33.708 Y170.058 E.02647
;WIPE_START
G1 F8640
G1 X33.113 Y169.463 E-.19432
G1 X33.113 Y168.928 E-.12352
G1 X34.073 Y169.888 E-.31359
G1 X34.608 Y169.888 E-.12352
G1 X34.593 Y169.873 E-.00505
;WIPE_END
G1 E-.04 F2100
G1 Z.6 F10800
G1 X41.157 Y171.088
G1 Z.2
G1 E.8 F2100
G1 F1200
G1 X45.74 Y175.671 E.20386
G1 X45.401 Y175.867 E.01232
G1 X42.352 Y172.817 E.13565
G1 X43.082 Y174.083 E.04597
G1 X45.062 Y176.063 E.08805
G1 X44.723 Y176.258 E.01232
G1 X43.35 Y174.885 E.06108
;WIPE_START
G1 F8640
G1 X44.723 Y176.258 E-.44843
G1 X45.062 Y176.063 E-.09042
G1 X44.385 Y175.385 E-.22115
;WIPE_END
G1 E-.04 F2100
G1 Z.6 F10800
G1 X31.98 Y156.026
G1 Z.2
G1 E.8 F2100
G1 F1200
G1 X23.053 Y147.099 E.39706
G1 X22.857 Y147.439 E.01232
M73 P1 R162
G1 X30.25 Y154.831 E.32884
G1 X28.985 Y154.101 E.04597
G1 X22.662 Y147.778 E.28125
G1 X22.466 Y148.117 E.01232
G1 X27.719 Y153.37 E.23366
G1 X26.453 Y152.639 E.04597
G1 X22.27 Y148.456 E.18607
G1 X22.074 Y148.795 E.01232
G1 X25.187 Y151.908 E.13848
G1 X23.922 Y151.178 E.04597
G1 X21.878 Y149.134 E.09089
G1 X21.683 Y149.473 E.01232
G1 X23.12 Y150.91 E.06392
; stop printing object hat_shape.amf id:0 copy 0
; printing object hat_shape.amf id:0 copy 18
;WIPE_START
G1 F8640
G1 X21.683 Y149.473 E-.46924
G1 X21.878 Y149.134 E-.09042
G1 X22.492 Y149.748 E-.20034
;WIPE_END
G1 E-.04 F2100
G1 Z.6 F10800
G1 X38.904 Y51.357
G1 Z.2
G1 E.8 F2100
;TYPE:Perimeter
;WIDTH:0.42
G1 F1200
G1 X35.07 Y44.717 E.2404
G1 X27.403 Y44.717 E.2404
G1 X27.403 Y31.193 E.42403
G1 X15.691 Y24.431 E.42403
G1 X19.07 Y18.578 E.21191
G1 X34.161 Y18.578 E.47317
G1 X38.328 Y25.795 E.26126
G1 X50.616 Y18.7 E.44489
G1 X61.541 Y25.007 E.39553
G1 X58.161 Y30.86 E.21191
G1 X49.829 Y30.86 E.26126
G1 X49.829 Y45.05 E.44489
G1 X38.956 Y51.327 E.39365
G1 X38.766 Y51.872 F10800
;TYPE:External perimeter
G1 F1200
G1 X34.853 Y45.094 E.2454
G1 X27.026 Y45.094 E.2454
G1 X27.026 Y31.411 E.42902
G1 X15.176 Y24.569 E.42902
G1 X18.853 Y18.201 E.23056
G1 X34.379 Y18.201 E.48682
G1 X38.466 Y25.279 E.25627
G1 X50.616 Y18.265 E.43989
G1 X62.056 Y24.869 E.41418
G1 X58.379 Y31.238 E.23056
G1 X50.206 Y31.238 E.25627
G1 X50.206 Y45.267 E.43989
G1 X38.818 Y51.842 E.4123
G1 X38.694 Y51.479 F10800
;WIPE_START
G1 F8640
G1 X37.15 Y49.004 E-.76
;WIPE_END
G1 E-.04 F2100
G1 Z.6 F10800
G1 X61.104 Y25.537
G1 Z.2
G1 E.8 F2100
;TYPE:Solid infill
;WIDTH:0.421189
G1 F1200
G1 X60.028 Y24.461 E.04787
G1 X58.763 Y23.73 E.04597
G1 X60.784 Y25.752 E.08993
G1 X60.589 Y26.091 E.01232
G1 X57.497 Y22.999 E.13752
G1 X56.231 Y22.269 E.04597
G1 X60.393 Y26.43 E.18511
G1 X60.197 Y26.769 E.01232
G1 X54.965 Y21.538 E.2327
G1 X53.7 Y20.807 E.04597
G1 X60.001 Y27.108 E.2803
G1 X59.805 Y27.448 E.01232
G1 X52.434 Y20.076 E.32789
G1 X51.168 Y19.346 E.04597
G1 X59.61 Y27.787 E.37548
G1 X59.414 Y28.126 E.01232
G1 X50.425 Y19.137 E.39984
G1 X50.086 Y19.333 E.01232
G1 X59.218 Y28.465 E.40622
G1 X59.022 Y28.804 E.01232
G1 X49.746 Y19.528 E.4126
G1 X49.407 Y19.724 E.01232
G1 X58.826 Y29.143 E.41897
G1 X58.63 Y29.482 E.01232
G1 X49.068 Y19.92 E.42535
G1 X48.729 Y20.116 E.01232
G1 X58.435 Y29.822 E.43172
G1 X58.239 Y30.161 E.01232
G1 X48.39 Y20.312 E.4381
G1 X48.051 Y20.508 E.01232
G1 X58.043 Y30.5 E.44448
G1 X57.998 Y30.578 E.00283
G1 X57.586 Y30.578 E.01297
G1 X47.712 Y20.703 E.43923
G1 X47.372 Y20.899 E.01232
G1 X57.051 Y30.578 E.43052
G1 X56.516 Y30.578 E.01683
G1 X47.033 Y21.095 E.42181
G1 X46.694 Y21.291 E.01232
G1 X55.981 Y30.578 E.4131
G1 X55.446 Y30.578 E.01683
G1 X46.355 Y21.487 E.40439
G1 X46.016 Y21.682 E.01232
G1 X54.911 Y30.578 E.39568
G1 X54.376 Y30.578 E.01683
G1 X45.677 Y21.878 E.38697
G1 X45.338 Y22.074 E.01232
G1 X53.841 Y30.578 E.37826
G1 X53.306 Y30.578 E.01683
G1 X44.998 Y22.27 E.36955
G1 X44.659 Y22.466 E.01232
G1 X52.771 Y30.578 E.36084
G1 X52.236 Y30.578 E.01683
G1 X44.32 Y22.661 E.35213
G1 X43.981 Y22.857 E.01232
G1 X51.701 Y30.578 E.34342
G1 X51.166 Y30.578 E.01683
G1 X43.642 Y23.053 E.33471
G1 X43.303 Y23.249 E.01232
G1 X50.632 Y30.578 E.326
G1 X50.097 Y30.578 E.01683
G1 X42.963 Y23.445 E.31729
G1 X42.624 Y23.64 E.01232
G1 X49.562 Y30.578 E.30858
G1 X49.546 Y30.578 E.00049
G1 X49.546 Y31.097 E.01633
G1 X42.285 Y23.836 E.32297
G1 X41.946 Y24.032 E.01232
M73 P2 R162
M73 Q2 S163
G1 X49.546 Y31.632 E.33806
G1 X49.546 Y32.167 E.01683
G1 X41.607 Y24.228 E.35314
G1 X41.268 Y24.424 E.01232
G1 X49.546 Y32.702 E.36823
G1 X49.546 Y33.237 E.01683
G1 X40.929 Y24.619 E.38331
G1 X40.589 Y24.815 E.01232
G1 X49.546 Y33.772 E.3984
G1 X49.546 Y34.307 E.01683
G1 X40.25 Y25.011 E.41348
G1 X39.911 Y25.207 E.01232
G1 X49.546 Y34.842 E.42857
G1 X49.546 Y35.377 E.01683
M73 Q2 S162
G1 X39.572 Y25.403 E.44366
G1 X39.233 Y25.598 E.01232
G1 X49.546 Y35.912 E.45874
G1 X49.546 Y36.447 E.01683
G1 X38.77 Y25.67 E.47935
;WIPE_START
G1 F8640
G1 X41.097 Y27.997 E-.76
;WIPE_END
G1 E-.04 F2100
G1 Z.6 F10800
G1 X33.396 Y18.691
G1 Z.2
G1 E.8 F2100
G1 F1200
G1 X34.589 Y19.885 E.0531
G1 X35.32 Y21.151 E.04597
G1 X33.03 Y18.861 E.10185
G1 X32.495 Y18.861 E.01683
G1 X36.051 Y22.417 E.15815
G1 X36.782 Y23.682 E.04597
G1 X31.96 Y18.861 E.21445
G1 X31.426 Y18.861 E.01683
G1 X37.512 Y24.948 E.27076
G1 X38.224 Y26.181 E.04478
G1 X38.555 Y25.99 E.012
G1 X49.546 Y36.981 E.48891
G1 X49.546 Y37.516 E.01683
G1 X30.891 Y18.861 E.82982
G1 X30.356 Y18.861 E.01683
G1 X49.546 Y38.051 E.85362
G1 X49.546 Y38.586 E.01683
G1 X29.821 Y18.861 E.87741
G1 X29.286 Y18.861 E.01683
G1 X49.546 Y39.121 E.90121
G1 X49.546 Y39.656 E.01683
G1 X28.751 Y18.861 E.925
G1 X28.216 Y18.861 E.01683
G1 X49.546 Y40.191 E.9488
G1 X49.546 Y40.726 E.01683
G1 X27.681 Y18.861 E.97259
G1 X27.146 Y18.861 E.01683
G1 X49.546 Y41.261 E.99639
G1 X49.546 Y41.796 E.01683
M73 P2 R161
G1 X26.611 Y18.861 E1.02019
G1 X26.076 Y18.861 E.01683
G1 X49.546 Y42.331 E1.04398
G1 X49.546 Y42.866 E.01683
G1 X25.541 Y18.861 E1.06778
G1 X25.006 Y18.861 E.01683
G1 X49.546 Y43.401 E1.09157
G1 X49.546 Y43.936 E.01683
G1 X24.471 Y18.861 E1.11537
G1 X23.936 Y18.861 E.01683
G1 X49.546 Y44.471 E1.13916
G1 X49.546 Y44.886 E.01307
G1 X49.47 Y44.93 E.00275
G1 X23.401 Y18.861 E1.15959
G1 X22.866 Y18.861 E.01683
G1 X49.131 Y45.126 E1.1683
G1 X48.792 Y45.322 E.01232
G1 X22.331 Y18.861 E1.17701
G1 X21.796 Y18.861 E.01683
G1 X48.453 Y45.517 E1.18572
G1 X48.114 Y45.713 E.01232
G1 X21.261 Y18.861 E1.19443
G1 X20.726 Y18.861 E.01683
G1 X47.774 Y45.909 E1.20314
G1 X47.435 Y46.105 E.01232
G1 X20.191 Y18.861 E1.21185
G1 X19.657 Y18.861 E.01683
G1 X47.096 Y46.301 E1.22056
G1 X46.757 Y46.496 E.01232
G1 X19.193 Y18.932 E1.22611
G1 X18.997 Y19.271 E.01232
G1 X46.418 Y46.692 E1.21973
