; generated by PrusaSlicer 2.3.3+win64 on 2021-11-25 at 13:12:02 UTC

; 

; external perimeters extrusion width = 0.45mm
; perimeters extrusion width = 0.45mm
; infill extrusion width = 0.45mm
; solid infill extrusion width = 0.45mm
; top infill extrusion width = 0.40mm
; first layer extrusion width = 0.42mm

M73 P0 R28
M73 Q0 S28
M201 X1000 Y1000 Z200 E5000 ; sets maximum accelerations, mm/sec^2
M203 X200 Y200 Z12 E120 ; sets maximum feedrates, mm/sec
M204 P1250 R1250 T1250 ; sets acceleration (P, T) and retract acceleration (R), mm/sec^2
M205 X8.00 Y8.00 Z0.40 E4.50 ; sets the jerk limits, mm/sec
M205 S0 T0 ; sets the minimum extruding and travel feed rate, mm/sec
M107
;TYPE:Custom
M862.3 P "MK3S" ; printer model check
M862.1 P0.4 ; nozzle diameter check
M115 U3.10.0 ; tell printer latest fw version
G90 ; use absolute coordinates
M83 ; extruder relative mode
M104 S215 ; set extruder temp
M140 S60 ; set bed temp
M190 S60 ; wait for bed temp
M109 S215 ; wait for extruder temp
G28 W ; home all without mesh bed level
G80 ; mesh bed leveling
G1 Y-3.0 F1000.0 ; go outside print area
G92 E0.0
G1 X60.0 E9.0 F1000.0 ; intro line
G1 X100.0 E12.5 F1000.0 ; intro line
G92 E0.0
M221 S95

; Don't change E values below. Excessive value can damage the printer.
M907 E430 ; set extruder motor current
G21 ; set units to millimeters
G90 ; use absolute coordinates
M83 ; use relative distances for extrusion
M900 K0.05 ; Filament gcode LA 1.5
M900 K30 ; Filament gcode LA 1.0
;LAYER_CHANGE
;Z:0.2
;HEIGHT:0.2
;BEFORE_LAYER_CHANGE
G92 E0.0
;0.2


G1 E-0.80000 F2100.000
G1 Z0.400 F10800.000
;AFTER_LAYER_CHANGE
;0.2
G1 X111.397 Y93.731
G1 Z0.200
G1 E0.80000 F2100.000
M204 S1000
;TYPE:Skirt
;WIDTH:0.42
G1 F1200.000
G1 X111.983 Y93.344 E0.02201
G1 X112.465 Y93.180 E0.01597
G1 X112.971 Y93.123 E0.01597
G1 X147.989 Y93.123 E1.09794
G1 X148.745 Y93.248 E0.02402
G1 X149.421 Y93.606 E0.02402
G1 X149.949 Y94.161 E0.02402
G1 X150.273 Y94.856 E0.02402
G1 X150.362 Y95.487 E0.02000
G1 X150.310 Y101.373 E0.18453
G1 X150.000 Y102.781 E0.04521
G1 X147.224 Y110.878 E0.26837
G1 X146.742 Y111.634 E0.02813
G1 X146.016 Y112.156 E0.02802
G1 X129.187 Y116.871 E0.54800
G1 X101.905 Y116.875 E0.85541
G1 X101.270 Y116.757 E0.02024
G1 X100.690 Y116.474 E0.02024
G1 X100.208 Y116.044 E0.02024
G1 X99.859 Y115.501 E0.02024
G1 X99.686 Y114.974 E0.01740
G1 X99.639 Y114.421 E0.01740
G1 X99.722 Y113.873 E0.01740
G1 X99.930 Y113.358 E0.01740
G1 X110.949 Y94.272 E0.69100
G1 X111.359 Y93.777 E0.02013
; printing object MailboxFlag.amf id:0 copy 0
;WIPE_START
G1 F8640.000
G1 X111.983 Y93.344 E-0.17541
G1 X112.465 Y93.180 E-0.11763
G1 X112.971 Y93.123 E-0.11763
G1 X114.484 Y93.123 E-0.34933
;WIPE_END
G1 E-0.04000 F2100.000
G1 Z0.600 F10800.000
G1 X113.439 Y96.287
G1 Z0.200
G1 E0.80000 F2100.000
;TYPE:Perimeter
G1 F1200.000
G1 X147.020 Y96.287 E1.05291
G1 X146.605 Y98.315 E0.06490
G1 X146.904 Y98.957 E0.02222
G1 X147.062 Y99.443 E0.01604
G1 X147.163 Y99.972 E0.01687
G1 X147.197 Y100.500 E0.01658
G1 X147.163 Y101.037 E0.01687
G1 X147.124 Y101.280 E0.00772
G1 X146.988 Y101.810 E0.01717
G1 X146.905 Y102.042 E0.00772
G1 X146.672 Y102.537 E0.01716
G1 X146.546 Y102.749 E0.00772
G1 X146.225 Y103.192 E0.01716
G1 X146.062 Y103.376 E0.00769
G1 X145.452 Y103.946 E0.02618
G1 X144.373 Y109.213 E0.16858
G1 X128.228 Y109.213 E0.50621
M73 P1 R28
M73 Q1 S28
G1 X128.228 Y113.713 E0.14109
G1 X103.378 Y113.713 E0.77914
G1 X113.409 Y96.339 E0.62902
;WIPE_START
G1 F8640.000
G1 X116.701 Y96.334 E-0.76000
;WIPE_END
G1 E-0.04000 F2100.000
G1 Z0.600 F10800.000
G1 X128.605 Y109.590
G1 Z0.200
G1 E0.80000 F2100.000
;TYPE:External perimeter
G1 F1200.000
G1 X128.605 Y114.090 E0.14109
G1 X102.725 Y114.090 E0.81144
G1 X113.222 Y95.910 E0.65820
G1 X147.482 Y95.910 E1.07422
G1 X146.999 Y98.268 E0.07548
G1 X147.253 Y98.813 E0.01885
G1 X147.350 Y99.082 E0.00895
G1 X147.430 Y99.355 E0.00894
G1 X147.538 Y99.925 E0.01818
G1 X147.574 Y100.500 E0.01807
G1 X147.538 Y101.079 E0.01817
G1 X147.494 Y101.357 E0.00883
G1 X147.349 Y101.921 E0.01828
G1 X147.253 Y102.186 E0.00883
G1 X147.005 Y102.714 E0.01828
G1 X146.862 Y102.957 E0.00883
G1 X146.519 Y103.428 E0.01828
G1 X146.333 Y103.639 E0.00882
G1 X145.797 Y104.139 E0.02299
G1 X144.681 Y109.590 E0.17445
G1 X128.665 Y109.590 E0.50215
G1 X128.207 Y109.631 F10800.000
;WIPE_START
G1 F8640.000
G1 X128.621 Y112.881 E-0.76000
;WIPE_END
G1 E-0.04000 F2100.000
G1 Z0.600 F10800.000
G1 X146.119 Y96.400
G1 Z0.200
G1 E0.80000 F2100.000
;TYPE:Solid infill
;WIDTH:0.422131
G1 F1200.000
G1 X146.608 Y96.889 E0.02181
G1 X146.517 Y97.334 E0.01433
G1 X145.752 Y96.570 E0.03409
G1 X145.216 Y96.570 E0.01691
G1 X146.426 Y97.780 E0.05394
G1 X146.335 Y98.225 E0.01433
G1 X144.680 Y96.570 E0.07379
G1 X144.144 Y96.570 E0.01691
G1 X146.645 Y99.071 E0.11154
G1 X146.787 Y99.510 E0.01453
G1 X146.844 Y99.806 E0.00953
G1 X143.607 Y96.570 E0.14432
G1 X143.071 Y96.570 E0.01691
G1 X146.907 Y100.406 E0.17107
G1 X146.887 Y100.922 E0.01627
G1 X142.535 Y96.570 E0.19406
G1 X141.998 Y96.570 E0.01691
G1 X146.807 Y101.378 E0.21442
G1 X146.692 Y101.799 E0.01376
G1 X141.462 Y96.570 E0.23319
G1 X140.926 Y96.570 E0.01691
G1 X146.530 Y102.174 E0.24990
G1 X146.348 Y102.529 E0.01256
G1 X140.390 Y96.570 E0.26571
G1 X139.853 Y96.570 E0.01691
G1 X146.128 Y102.844 E0.27979
G1 X145.891 Y103.143 E0.01204
G1 X139.317 Y96.570 E0.29313
G1 X138.781 Y96.570 E0.01691
G1 X145.616 Y103.405 E0.30481
G1 X145.339 Y103.664 E0.01196
G1 X138.244 Y96.570 E0.31635
G1 X137.708 Y96.570 E0.01691
G1 X145.150 Y104.011 E0.33183
G1 X145.058 Y104.456 E0.01433
G1 X137.172 Y96.570 E0.35168
G1 X136.636 Y96.570 E0.01691
G1 X144.967 Y104.902 E0.37153
M73 Q2 S28
G1 X144.876 Y105.347 E0.01433
G1 X136.099 Y96.570 E0.39138
M73 P2 R28
G1 X135.563 Y96.570 E0.01691
G1 X144.785 Y105.792 E0.41123
G1 X144.694 Y106.237 E0.01433
G1 X135.027 Y96.570 E0.43107
G1 X134.490 Y96.570 E0.01691
G1 X144.603 Y106.682 E0.45092
G1 X144.511 Y107.127 E0.01433
G1 X133.954 Y96.570 E0.47077
G1 X133.418 Y96.570 E0.01691
G1 X144.420 Y107.572 E0.49062
G1 X144.329 Y108.017 E0.01433
G1 X132.882 Y96.570 E0.51047
G1 X132.345 Y96.570 E0.01691
G1 X144.238 Y108.463 E0.53032
G1 X144.147 Y108.908 E0.01433
G1 X131.809 Y96.570 E0.55017
G1 X131.273 Y96.570 E0.01691
G1 X143.633 Y108.930 E0.55117
G1 X143.097 Y108.930 E0.01691
G1 X130.736 Y96.570 E0.55117
G1 X130.200 Y96.570 E0.01691
G1 X142.560 Y108.930 E0.55117
G1 X142.024 Y108.930 E0.01691
G1 X129.664 Y96.570 E0.55117
G1 X129.128 Y96.570 E0.01691
G1 X141.488 Y108.930 E0.55117
G1 X140.952 Y108.930 E0.01691
G1 X128.591 Y96.570 E0.55117
M73 P2 R27
G1 X128.055 Y96.570 E0.01691
G1 X140.415 Y108.930 E0.55117
G1 X139.879 Y108.930 E0.01691
G1 X127.519 Y96.570 E0.55117
G1 X126.982 Y96.570 E0.01691
G1 X139.343 Y108.930 E0.55117
G1 X138.806 Y108.930 E0.01691
G1 X126.446 Y96.570 E0.55117
G1 X125.910 Y96.570 E0.01691
G1 X138.270 Y108.930 E0.55117
M73 Q3 S28
G1 X137.734 Y108.930 E0.01691
M73 P3 R27
G1 X125.374 Y96.570 E0.55117
M73 Q3 S27
G1 X124.837 Y96.570 E0.01691
G1 X137.198 Y108.930 E0.55117
G1 X136.661 Y108.930 E0.01691
G1 X124.301 Y96.570 E0.55117
G1 X123.765 Y96.570 E0.01691
G1 X136.125 Y108.930 E0.55117
G1 X135.589 Y108.930 E0.01691
G1 X123.228 Y96.570 E0.55117
G1 X122.692 Y96.570 E0.01691
G1 X135.052 Y108.930 E0.55117
G1 X134.516 Y108.930 E0.01691
G1 X122.156 Y96.570 E0.55117
G1 X121.620 Y96.570 E0.01691
G1 X133.980 Y108.930 E0.55117
G1 X133.444 Y108.930 E0.01691
G1 X121.083 Y96.570 E0.55117
G1 X120.547 Y96.570 E0.01691
G1 X132.907 Y108.930 E0.55117
G1 X132.371 Y108.930 E0.01691
G1 X120.011 Y96.570 E0.55117
G1 X119.474 Y96.570 E0.01691
G1 X131.835 Y108.930 E0.55117
G1 X131.298 Y108.930 E0.01691
G1 X118.938 Y96.570 E0.55117
G1 X118.402 Y96.570 E0.01691
G1 X130.762 Y108.930 E0.55117
G1 X130.226 Y108.930 E0.01691
G1 X117.866 Y96.570 E0.55117
G1 X117.329 Y96.570 E0.01691
G1 X129.690 Y108.930 E0.55117
G1 X129.153 Y108.930 E0.01691
G1 X116.793 Y96.570 E0.55117
G1 X116.257 Y96.570 E0.01691
G1 X128.617 Y108.930 E0.55117
G1 X128.081 Y108.930 E0.01691
G1 X115.720 Y96.570 E0.55117
M73 P4 R27
M73 Q4 S27
G1 X115.184 Y96.570 E0.01691
G1 X127.945 Y109.331 E0.56905
G1 X127.945 Y109.867 E0.01691
G1 X114.648 Y96.570 E0.59296
G1 X114.112 Y96.570 E0.01691
G1 X127.945 Y110.404 E0.61687
G1 X127.945 Y110.940 E0.01691
G1 X113.593 Y96.587 E0.64002
G1 X113.396 Y96.927 E0.01238
G1 X127.945 Y111.476 E0.64877
G1 X127.945 Y112.012 E0.01691
G1 X113.200 Y97.267 E0.65753
G1 X113.004 Y97.607 E0.01238
G1 X127.945 Y112.549 E0.66628
G1 X127.945 Y113.085 E0.01691
G1 X112.807 Y97.947 E0.67503
G1 X112.611 Y98.287 E0.01238
G1 X127.754 Y113.430 E0.67526
G1 X127.218 Y113.430 E0.01691
G1 X112.415 Y98.627 E0.66010
G1 X112.219 Y98.967 E0.01238
G1 X126.682 Y113.430 E0.64494
G1 X126.145 Y113.430 E0.01691
G1 X112.022 Y99.307 E0.62978
G1 X111.826 Y99.647 E0.01238
G1 X125.609 Y113.430 E0.61462
G1 X125.073 Y113.430 E0.01691
G1 X111.630 Y99.987 E0.59946
G1 X111.433 Y100.327 E0.01238
G1 X124.536 Y113.430 E0.58430
G1 X124.000 Y113.430 E0.01691
G1 X111.237 Y100.667 E0.56914
G1 X111.041 Y101.007 E0.01238
G1 X123.464 Y113.430 E0.55398
M73 P5 R27
M73 Q5 S27
G1 X122.928 Y113.430 E0.01691
G1 X110.844 Y101.347 E0.53881
G1 X110.648 Y101.687 E0.01238
G1 X122.391 Y113.430 E0.52365
G1 X121.855 Y113.430 E0.01691
G1 X110.452 Y102.027 E0.50849
G1 X110.256 Y102.367 E0.01238
G1 X121.319 Y113.430 E0.49333
G1 X120.782 Y113.430 E0.01691
G1 X110.059 Y102.707 E0.47817
G1 X109.863 Y103.047 E0.01238
G1 X120.246 Y113.430 E0.46301
G1 X119.710 Y113.430 E0.01691
G1 X109.667 Y103.387 E0.44785
G1 X109.470 Y103.727 E0.01238
G1 X119.174 Y113.430 E0.43269
G1 X118.637 Y113.430 E0.01691
G1 X109.274 Y104.067 E0.41753
G1 X109.078 Y104.407 E0.01238
G1 X118.101 Y113.430 E0.40237
G1 X117.565 Y113.430 E0.01691
G1 X108.882 Y104.747 E0.38720
G1 X108.685 Y105.087 E0.01238
G1 X117.028 Y113.430 E0.37204
G1 X116.492 Y113.430 E0.01691
G1 X108.489 Y105.427 E0.35688
G1 X108.293 Y105.767 E0.01238
G1 X115.956 Y113.430 E0.34172
G1 X115.420 Y113.430 E0.01691
G1 X108.096 Y106.107 E0.32656
G1 X107.900 Y106.447 E0.01238
G1 X114.883 Y113.430 E0.31140
G1 X114.347 Y113.430 E0.01691
G1 X107.704 Y106.787 E0.29624
G1 X107.507 Y107.127 E0.01238
G1 X113.811 Y113.430 E0.28108
G1 X113.274 Y113.430 E0.01691
G1 X107.311 Y107.467 E0.26592
G1 X107.115 Y107.807 E0.01238
G1 X112.738 Y113.430 E0.25076
G1 X112.202 Y113.430 E0.01691
G1 X106.919 Y108.147 E0.23559
G1 X106.722 Y108.487 E0.01238
G1 X111.666 Y113.430 E0.22043
G1 X111.129 Y113.430 E0.01691
G1 X106.526 Y108.827 E0.20527
G1 X106.330 Y109.167 E0.01238
G1 X110.593 Y113.430 E0.19011
G1 X110.057 Y113.430 E0.01691
G1 X106.133 Y109.507 E0.17495
G1 X105.937 Y109.847 E0.01238
G1 X109.520 Y113.430 E0.15979
G1 X108.984 Y113.430 E0.01691
G1 X105.741 Y110.187 E0.14463
G1 X105.545 Y110.527 E0.01238
G1 X108.448 Y113.430 E0.12947
G1 X107.912 Y113.430 E0.01691
G1 X105.348 Y110.867 E0.11431
G1 X105.152 Y111.207 E0.01238
G1 X107.375 Y113.430 E0.09915
M73 P6 R27
M73 Q6 S27
G1 X106.839 Y113.430 E0.01691
G1 X104.956 Y111.547 E0.08398
G1 X104.759 Y111.887 E0.01238
G1 X106.303 Y113.430 E0.06882
G1 X105.766 Y113.430 E0.01691
G1 X104.563 Y112.227 E0.05366
G1 X104.367 Y112.567 E0.01238
G1 X105.230 Y113.430 E0.03850
G1 X104.694 Y113.430 E0.01691
G1 X104.170 Y112.907 E0.02334
G1 X103.974 Y113.247 E0.01238
G1 X104.327 Y113.600 E0.01575
; stop printing object MailboxFlag.amf id:0 copy 0
M106 S84.15
;LAYER_CHANGE
;Z:0.4
;HEIGHT:0.2
;BEFORE_LAYER_CHANGE
G92 E0.0
;0.4


;WIPE_START
G1 F8640.000
G1 X103.974 Y113.247 E-0.11531
G1 X104.170 Y112.907 E-0.09065
G1 X104.694 Y113.430 E-0.17092
G1 X105.230 Y113.430 E-0.12383
G1 X104.436 Y112.636 E-0.25928
;WIPE_END
G1 E-0.04000 F2100.000
G1 Z0.600 F10800.000
;AFTER_LAYER_CHANGE
;0.4
M104 S210 ; set temperature
G1 X146.742 Y111.634
G1 Z0.400
G1 E0.80000 F2100.000
;TYPE:Skirt
;WIDTH:0.42
G1 F3000.000
G1 X146.016 Y112.156 E0.02802
G1 X129.187 Y116.871 E0.54800
G1 X101.905 Y116.875 E0.85541
G1 X101.270 Y116.757 E0.02024
G1 X100.690 Y116.474 E0.02024
G1 X100.208 Y116.044 E0.02024
G1 X99.859 Y115.501 E0.02024
G1 X99.686 Y114.974 E0.01740
G1 X99.639 Y114.421 E0.01740
G1 X99.722 Y113.873 E0.01740
G1 X99.930 Y113.358 E0.01740
G1 X110.949 Y94.272 E0.69100
G1 X111.397 Y93.731 E0.02201
G1 X111.983 Y93.344 E0.02201
G1 X112.465 Y93.180 E0.01597
G1 X112.971 Y93.123 E0.01597
G1 X147.989 Y93.123 E1.09794
G1 X148.745 Y93.248 E0.02402
G1 X149.421 Y93.606 E0.02402
G1 X149.949 Y94.161 E0.02402
G1 X150.273 Y94.856 E0.02402
M73 P6 R26
G1 X150.362 Y95.487 E0.02000
G1 X150.310 Y101.373 E0.18453
G1 X150.000 Y102.781 E0.04521
G1 X147.224 Y110.878 E0.26837
G1 X146.774 Y111.583 E0.02625
; printing object MailboxFlag.amf id:0 copy 0
;WIPE_START
G1 F8640.000
G1 X146.016 Y112.156 E-0.21926
G1 X143.761 Y112.788 E-0.54074
;WIPE_END
G1 E-0.04000 F2100.000
G1 Z0.800 F10800.000
G1 X144.499 Y109.368
G1 Z0.400
G1 E0.80000 F2100.000
M204 S800
;TYPE:Perimeter
;WIDTH:0.45
G1 F2700.000
G1 X128.383 Y109.368 E0.54552
G1 X128.383 Y113.868 E0.15232
G1 X103.110 Y113.868 E0.85547
G1 X113.350 Y96.132 E0.69321
G1 X147.210 Y96.132 E1.14613
G1 X146.768 Y98.290 E0.07456
G1 X147.048 Y98.899 E0.02268
G1 X147.139 Y99.150 E0.00904
G1 X147.212 Y99.404 E0.00895
G1 X147.317 Y99.953 E0.01890
G1 X147.352 Y100.500 E0.01856
G1 X147.316 Y101.057 E0.01890
G1 X147.277 Y101.309 E0.00861
G1 X147.135 Y101.859 E0.01924
G1 X147.049 Y102.098 E0.00859
G1 X146.806 Y102.613 E0.01929
G1 X146.512 Y103.075 E0.01852
G1 X146.356 Y103.276 E0.00862
G1 X145.967 Y103.690 E0.01924
G1 X145.595 Y104.019 E0.01680
G1 X144.511 Y109.309 E0.18280
M204 S1000
;WIPE_START
G1 F8640.000
G1 X141.220 Y109.321 E-0.76000
;WIPE_END
G1 E-0.04000 F2100.000
G1 Z0.800 F10800.000
G1 X145.966 Y104.234
G1 Z0.400
G1 E0.80000 F2100.000
M204 S800
;TYPE:External perimeter
G1 F1500.000
G1 X144.832 Y109.775 E0.19146
G1 X128.790 Y109.775 E0.54298
G1 X128.790 Y114.275 E0.15232
G1 X102.405 Y114.275 E0.89311
M73 Q6 S26
G1 X113.115 Y95.725 E0.72503
G1 X147.709 Y95.725 E1.17098
G1 X147.194 Y98.241 E0.08694
G1 X147.425 Y98.745 E0.01876
G1 X147.526 Y99.024 E0.01007
G1 X147.609 Y99.309 E0.01003
G1 X147.722 Y99.902 E0.02042
G1 X147.759 Y100.500 E0.02030
G1 X147.722 Y101.102 E0.02042
G1 X147.676 Y101.391 E0.00991
G1 X147.525 Y101.979 E0.02054
G1 X147.426 Y102.254 E0.00991
G1 X147.163 Y102.810 E0.02081
G1 X146.846 Y103.309 E0.02002
G1 X146.666 Y103.541 E0.00992
G1 X146.251 Y103.983 E0.02054
G1 X146.011 Y104.194 E0.01080
M204 S1000
G1 X145.570 Y104.284 F10800.000
;WIPE_START
G1 F8640.000
G1 X145.331 Y107.414 E-0.76000
;WIPE_END
G1 E-0.04000 F2100.000
G1 Z0.800 F10800.000
G1 X144.614 Y108.199
G1 Z0.400
G1 E0.80000 F2100.000
;TYPE:Solid infill
;WIDTH:0.45267
G1 F4800.000
G1 X143.751 Y109.063 E0.04161
G1 X143.171 Y109.063 E0.01974
G1 X144.528 Y107.706 E0.06539
G1 X144.677 Y106.977 E0.02534
G1 X142.592 Y109.063 E0.10050
G1 X142.012 Y109.063 E0.01974
G1 X144.827 Y106.248 E0.13561
G1 X144.976 Y105.519 E0.02534
G1 X141.433 Y109.063 E0.17073
G1 X140.853 Y109.063 E0.01974
G1 X145.125 Y104.791 E0.20584
G1 X145.274 Y104.062 E0.02534
G1 X140.274 Y109.063 E0.24095
G1 X139.694 Y109.063 E0.01974
G1 X146.759 Y101.998 E0.34039
G1 X146.843 Y101.769 E0.00831
G1 X146.986 Y101.191 E0.02028
G1 X139.115 Y109.063 E0.37926
G1 X138.535 Y109.063 E0.01974
G1 X147.042 Y100.556 E0.40988
G1 X147.014 Y100.004 E0.01882
G1 X137.956 Y109.063 E0.43647
G1 X137.376 Y109.063 E0.01974
G1 X146.923 Y99.516 E0.45999
G1 X146.786 Y99.073 E0.01579
G1 X136.797 Y109.063 E0.48133
G1 X136.217 Y109.063 E0.01974
G1 X146.608 Y98.672 E0.50065
G1 X146.449 Y98.327 E0.01295
G1 X146.468 Y98.232 E0.00329
G1 X135.638 Y109.063 E0.52185
G1 X135.059 Y109.063 E0.01974
G1 X146.618 Y97.503 E0.55696
G1 X146.767 Y96.775 E0.02534
G1 X134.479 Y109.063 E0.59207
G1 X133.900 Y109.063 E0.01974
G1 X146.525 Y96.437 E0.60833
M73 Q7 S26
G1 X145.945 Y96.437 E0.01974
G1 X133.320 Y109.063 E0.60833
M73 P7 R26
G1 X132.741 Y109.063 E0.01974
G1 X145.366 Y96.437 E0.60833
G1 X144.786 Y96.437 E0.01974
G1 X132.161 Y109.063 E0.60833
G1 X131.582 Y109.063 E0.01974
G1 X144.207 Y96.437 E0.60833
G1 X143.627 Y96.437 E0.01974
G1 X131.002 Y109.063 E0.60833
G1 X130.423 Y109.063 E0.01974
G1 X143.048 Y96.437 E0.60833
