; generated by PrusaSlicer 2.3.3+win64 on 2021-12-05 at 15:45:07 UTC

; 

; external perimeters extrusion width = 0.45mm
; perimeters extrusion width = 0.45mm
; infill extrusion width = 0.45mm
; solid infill extrusion width = 0.45mm
; top infill extrusion width = 0.40mm
; first layer extrusion width = 0.42mm

M73 P0 R28
M73 Q0 S28
M201 X1000 Y1000 Z200 E5000 ; sets maximum accelerations, mm/sec^2
M203 X200 Y200 Z12 E120 ; sets maximum feedrates, mm/sec
M204 P1250 R1250 T1250 ; sets acceleration (P, T) and retract acceleration (R), mm/sec^2
M205 X8.00 Y8.00 Z0.40 E4.50 ; sets the jerk limits, mm/sec
M205 S0 T0 ; sets the minimum extruding and travel feed rate, mm/sec
M107
;TYPE:Custom
M862.3 P "MK3S" ; printer model check
M862.1 P0.4 ; nozzle diameter check
M115 U3.10.0 ; tell printer latest fw version
G90 ; use absolute coordinates
M83 ; extruder relative mode
M104 S215 ; set extruder temp
M140 S60 ; set bed temp
M190 S60 ; wait for bed temp
M109 S215 ; wait for extruder temp
G28 W ; home all without mesh bed level
G80 ; mesh bed leveling
G1 Y-3.0 F1000.0 ; go outside print area
G92 E0.0
G1 X60.0 E9.0 F1000.0 ; intro line
G1 X100.0 E12.5 F1000.0 ; intro line
G92 E0.0
M221 S95

; Don't change E values below. Excessive value can damage the printer.
M907 E430 ; set extruder motor current
G21 ; set units to millimeters
G90 ; use absolute coordinates
M83 ; use relative distances for extrusion
M900 K0.05 ; Filament gcode LA 1.5
M900 K30 ; Filament gcode LA 1.0
;LAYER_CHANGE
;Z:0.2
;HEIGHT:0.2
;BEFORE_LAYER_CHANGE
G92 E0.0
;0.2


G1 E-0.80000 F2100.000
G1 Z0.400 F10800.000
;AFTER_LAYER_CHANGE
;0.2
G1 X111.397 Y93.731
G1 Z0.200
G1 E0.80000 F2100.000
M204 S1000
;TYPE:Skirt
;WIDTH:0.42
G1 F1200.000
G1 X111.983 Y93.344 E0.02201
G1 X112.465 Y93.180 E0.01597
G1 X112.971 Y93.123 E0.01597
G1 X147.989 Y93.123 E1.09794
G1 X148.745 Y93.248 E0.02402
G1 X149.421 Y93.606 E0.02402
G1 X149.949 Y94.161 E0.02402
G1 X150.273 Y94.856 E0.02402
G1 X150.362 Y95.487 E0.02000
G1 X150.310 Y101.373 E0.18453
G1 X150.000 Y102.781 E0.04521
G1 X147.224 Y110.878 E0.26837
G1 X146.742 Y111.634 E0.02813
G1 X146.016 Y112.156 E0.02802
G1 X129.187 Y116.871 E0.54800
G1 X101.905 Y116.875 E0.85541
G1 X101.270 Y116.757 E0.02024
G1 X100.690 Y116.474 E0.02024
G1 X100.208 Y116.044 E0.02024
G1 X99.859 Y115.501 E0.02024
G1 X99.686 Y114.974 E0.01740
G1 X99.639 Y114.421 E0.01740
G1 X99.722 Y113.873 E0.01740
G1 X99.930 Y113.358 E0.01740
G1 X110.949 Y94.272 E0.69100
G1 X111.359 Y93.777 E0.02013
;WIPE_START
G1 F8640.000
G1 X111.983 Y93.344 E-0.17541
G1 X112.465 Y93.180 E-0.11763
G1 X112.971 Y93.123 E-0.11763
G1 X114.484 Y93.123 E-0.34933
;WIPE_END
G1 E-0.04000 F2100.000
G1 Z0.600 F10800.000
G1 X148.517 Y90.791
G1 Z0.200
G1 E0.80000 F2100.000
G1 F1200.000
G1 X149.386 Y90.953 E0.02770
G1 X150.252 Y91.311 E0.02939
G1 X151.096 Y91.916 E0.03254
G1 X152.048 Y93.054 E0.04655
G1 X152.503 Y94.004 E0.03301
G1 X152.703 Y94.876 E0.02806
G1 X152.719 Y95.771 E0.02806
G1 X152.316 Y97.839 E0.06606
G1 X152.415 Y98.173 E0.01094
G1 X152.634 Y99.388 E0.03871
G1 X152.698 Y100.512 E0.03529
G1 X152.633 Y101.619 E0.03475
G1 X152.503 Y102.437 E0.02599
G1 X152.269 Y103.353 E0.02962
G1 X151.973 Y104.181 E0.02759
G1 X151.484 Y105.202 E0.03547
G1 X150.892 Y106.142 E0.03484
G1 X150.515 Y106.618 E0.01903
G1 X149.351 Y111.914 E0.17003
G1 X148.858 Y112.755 E0.03056
G1 X148.494 Y113.219 E0.01849
G1 X147.106 Y114.253 E0.05428
G1 X145.471 Y114.713 E0.05325
G1 X137.586 Y114.713 E0.24721
;WIPE_START
G1 F8640.000
G1 X140.878 Y114.713 E-0.76000
;WIPE_END
G1 E-0.04000 F2100.000
G1 Z0.600 F10800.000
G1 X136.189 Y114.713
M73 Q1 S28
G1 Z0.200
G1 E0.80000 F2100.000
G1 F1200.000
G1 X133.693 Y114.713 E0.07825
G1 X133.661 Y115.422 E0.02223
M73 P1 R28
G1 X133.538 Y115.848 F10800.000
G1 F1200.000
G1 X133.344 Y116.450 E0.01983
G1 X132.779 Y117.376 E0.03401
G1 X131.713 Y118.399 E0.04633
G1 X130.774 Y118.908 E0.03348
G1 X129.525 Y119.213 E0.04032
G1 X101.431 Y119.213 E0.88087
G1 X100.221 Y118.930 E0.03895
G1 X99.116 Y118.302 E0.03985
G1 X98.288 Y117.442 E0.03743
G1 X97.648 Y116.363 E0.03934
G1 X97.305 Y115.301 E0.03500
G1 X97.239 Y114.200 E0.03458
G1 X97.637 Y112.656 E0.04998
G1 X109.090 Y92.819 E0.71821
G1 X109.891 Y91.927 E0.03756
G1 X110.892 Y91.260 E0.03773
G1 X112.585 Y90.786 E0.05512
G1 X148.517 Y90.791 E1.12663
;WIPE_START
G1 F8640.000
G1 X145.226 Y90.791 E-0.76000
;WIPE_END
G1 E-0.04000 F2100.000
G1 Z0.600 F10800.000
G1 X138.932 Y114.336
G1 Z0.200
G1 E0.80000 F2100.000
G1 F1200.000
G1 X145.445 Y114.336 E0.20422
G1 X146.910 Y113.929 E0.04766
G1 X148.214 Y112.965 E0.05085
G1 X148.540 Y112.553 E0.01647
G1 X149.010 Y111.749 E0.02921
G1 X150.165 Y106.452 E0.17001
G1 X150.578 Y105.932 E0.02083
G1 X151.149 Y105.029 E0.03348
G1 X151.628 Y104.027 E0.03482
G1 X151.906 Y103.251 E0.02585
G1 X152.135 Y102.353 E0.02907
G1 X152.259 Y101.569 E0.02488
G1 X152.321 Y100.501 E0.03353
G1 X152.261 Y99.444 E0.03320
G1 X152.046 Y98.251 E0.03800
G1 X151.928 Y97.858 E0.01288
G1 X152.342 Y95.756 E0.06719
G1 X152.331 Y94.939 E0.02563
G1 X152.153 Y94.145 E0.02550
G1 X151.743 Y93.276 E0.03013
G1 X150.855 Y92.207 E0.04358
M73 P1 R27
G1 X150.086 Y91.650 E0.02976
G1 X149.295 Y91.319 E0.02686
G1 X148.499 Y91.168 E0.02541
G1 X112.610 Y91.164 E1.12527
G1 X111.074 Y91.591 E0.04999
G1 X110.154 Y92.199 E0.03458
G1 X109.407 Y93.025 E0.03493
G1 X97.976 Y112.823 E0.71678
G1 X97.617 Y114.207 E0.04484
G1 X97.680 Y115.254 E0.03289
G1 X97.984 Y116.190 E0.03084
G1 X98.577 Y117.199 E0.03670
G1 X99.329 Y117.990 E0.03421
G1 X100.336 Y118.570 E0.03645
G1 X101.454 Y118.836 E0.03601
G1 X129.502 Y118.836 E0.87943
G1 X130.658 Y118.548 E0.03738
G1 X131.508 Y118.081 E0.03041
G1 X132.499 Y117.122 E0.04324
G1 X132.992 Y116.313 E0.02970
G1 X133.103 Y115.970 E0.01131
G1 X133.241 Y115.539 F10800.000
G1 F1200.000
G1 X133.291 Y115.384 E0.00513
G1 X133.326 Y114.336 E0.03285
G1 X137.534 Y114.336 E0.13195
;WIPE_START
G1 F8640.000
G1 X134.243 Y114.336 E-0.76000
;WIPE_END
G1 E-0.04000 F2100.000
G1 Z0.600 F10800.000
G1 X138.880 Y113.959
G1 Z0.200
G1 E0.80000 F2100.000
G1 F1200.000
G1 X132.956 Y113.959 E0.18574
G1 X132.924 Y115.295 E0.04188
G1 X132.806 Y115.661 E0.01208
G1 X132.667 Y116.092 F10800.000
G1 F1200.000
G1 X132.640 Y116.176 E0.00279
G1 X132.219 Y116.869 E0.02542
G1 X131.302 Y117.765 E0.04017
M73 Q1 S27
G1 X130.541 Y118.189 E0.02733
G1 X129.478 Y118.459 E0.03439
G1 X101.477 Y118.459 E0.87795
G1 X100.453 Y118.210 E0.03302
G1 X99.543 Y117.679 E0.03303
G1 X98.867 Y116.957 E0.03100
G1 X98.320 Y116.019 E0.03407
G1 X98.047 Y115.164 E0.02815
G1 X97.995 Y114.217 E0.02973
G1 X98.315 Y112.990 E0.03976
G1 X109.723 Y93.230 E0.71538
M73 P2 R27
M73 Q2 S27
G1 X110.382 Y92.500 E0.03083
G1 X111.257 Y91.922 E0.03290
G1 X112.636 Y91.541 E0.04485
G1 X148.481 Y91.545 E1.12389
G1 X149.203 Y91.686 E0.02308
G1 X149.917 Y91.989 E0.02432
G1 X150.613 Y92.497 E0.02699
G1 X151.436 Y93.497 E0.04061
G1 X151.802 Y94.284 E0.02723
G1 X151.958 Y94.999 E0.02295
G1 X151.965 Y95.739 E0.02321
G1 X151.539 Y97.878 E0.06836
G1 X151.677 Y98.330 E0.01483
G1 X151.885 Y99.477 E0.03655
G1 X151.944 Y100.511 E0.03249
G1 X151.883 Y101.537 E0.03222
G1 X151.767 Y102.268 E0.02319
G1 X151.543 Y103.149 E0.02852
G1 X151.284 Y103.874 E0.02412
G1 X150.824 Y104.837 E0.03347
G1 X150.265 Y105.721 E0.03280
G1 X149.815 Y106.286 E0.02264
G1 X148.670 Y111.585 E0.16999
G1 X148.221 Y112.351 E0.02783
G1 X147.935 Y112.711 E0.01441
G1 X146.716 Y113.605 E0.04741
G1 X145.421 Y113.959 E0.04210
G1 X140.278 Y113.959 E0.16123
G1 X140.226 Y113.582 F10800.000
G1 F1200.000
G1 X132.585 Y113.582 E0.23960
G1 X132.556 Y115.206 E0.05092
G1 X132.370 Y115.783 E0.01901
G1 X132.172 Y116.230 F10800.000
G1 F1200.000
G1 X131.937 Y116.618 E0.01421
G1 X131.094 Y117.449 E0.03713
G1 X130.421 Y117.831 E0.02425
G1 X129.453 Y118.082 E0.03135
G1 X101.500 Y118.082 E0.87645
G1 X100.572 Y117.851 E0.02998
G1 X99.760 Y117.369 E0.02959
G1 X99.159 Y116.718 E0.02779
G1 X98.657 Y115.849 E0.03147
G1 X98.414 Y115.075 E0.02545
G1 X98.373 Y114.228 E0.02657
G1 X98.654 Y113.156 E0.03474
G1 X110.040 Y93.437 E0.71395
G1 X110.644 Y92.772 E0.02816
G1 X111.438 Y92.254 E0.02973
G1 X112.661 Y91.918 E0.03977
G1 X148.462 Y91.922 E1.12251
G1 X149.110 Y92.051 E0.02071
G1 X149.748 Y92.326 E0.02178
G1 X150.369 Y92.785 E0.02422
G1 X151.128 Y93.715 E0.03765
G1 X151.450 Y94.421 E0.02432
G1 X151.585 Y95.057 E0.02040
G1 X151.588 Y95.721 E0.02081
G1 X151.150 Y97.897 E0.06960
G1 X151.308 Y98.409 E0.01679
G1 X151.510 Y99.511 E0.03511
G1 X151.567 Y100.500 E0.03109
G1 X151.507 Y101.506 E0.03158
G1 X151.400 Y102.183 E0.02150
G1 X151.179 Y103.048 E0.02798
G1 X150.939 Y103.720 E0.02240
G1 X150.499 Y104.645 E0.03211
G1 X149.952 Y105.511 E0.03211
G1 X149.465 Y106.120 E0.02445
G1 X148.329 Y111.420 E0.16998
G1 X147.903 Y112.148 E0.02644
G1 X147.657 Y112.455 E0.01231
G1 X146.523 Y113.279 E0.04397
G1 X145.396 Y113.582 E0.03658
G1 X141.624 Y113.582 E0.11827
G1 X141.572 Y113.205 F10800.000
G1 F1200.000
G1 X132.211 Y113.205 E0.29352
G1 X132.188 Y115.118 E0.05998
G1 X131.934 Y115.906 E0.02595
G1 X131.641 Y116.379 F10800.000
G1 F1200.000
G1 X130.884 Y117.135 E0.03356
G1 X130.299 Y117.473 E0.02119
G1 X129.428 Y117.705 E0.02825
G1 X101.523 Y117.705 E0.87495
G1 X100.740 Y117.513 E0.02525
G1 X99.977 Y117.060 E0.02783
G1 X99.476 Y116.512 E0.02328
G1 X98.995 Y115.679 E0.03016
G1 X98.782 Y114.988 E0.02268
G1 X98.751 Y114.242 E0.02342
G1 X98.993 Y113.323 E0.02978
G1 X110.356 Y93.644 E0.71250
G1 X110.904 Y93.046 E0.02545
G1 X111.617 Y92.587 E0.02657
G1 X112.686 Y92.295 E0.03474
G1 X148.442 Y92.299 E1.12111
M73 Q3 S27
G1 X149.013 Y92.416 E0.01829
G1 X149.576 Y92.662 E0.01923
G1 X150.123 Y93.072 E0.02145
G1 X150.819 Y93.933 E0.03472
G1 X151.086 Y94.521 E0.02025
G1 X151.208 Y95.080 E0.01792
G1 X151.211 Y95.703 E0.01956
G1 X150.762 Y97.917 E0.07083
M73 P3 R27
G1 X150.940 Y98.489 E0.01877
G1 X151.134 Y99.544 E0.03364
G1 X151.190 Y100.511 E0.03036
G1 X151.132 Y101.474 E0.03025
G1 X151.032 Y102.098 E0.01983
G1 X150.816 Y102.946 E0.02743
G1 X150.594 Y103.568 E0.02069
G1 X150.174 Y104.454 E0.03075
G1 X149.647 Y105.289 E0.03098
G1 X149.319 Y105.715 E0.01685
G1 X149.119 Y105.934 E0.00930
G1 X147.988 Y111.256 E0.17060
G1 X147.585 Y111.945 E0.02503
G1 X147.381 Y112.197 E0.01017
G1 X146.331 Y112.952 E0.04054
G1 X145.372 Y113.205 E0.03110
G1 X142.970 Y113.205 E0.07532
G1 X142.918 Y112.828 F10800.000
G1 F1200.000
G1 X131.836 Y112.828 E0.34749
G1 X131.820 Y115.030 E0.06905
G1 X131.585 Y115.763 E0.02413
G1 X131.400 Y116.055 E0.01083
G1 X130.915 Y116.583 F10800.000
G1 F1200.000
G1 X130.672 Y116.823 E0.01072
G1 X130.173 Y117.117 E0.01813
G1 X129.402 Y117.328 E0.02508
G1 X101.547 Y117.328 E0.87339
G1 X100.862 Y117.155 E0.02216
G1 X100.197 Y116.752 E0.02437
G1 X99.792 Y116.306 E0.01887
G1 X99.333 Y115.510 E0.02884
G1 X99.150 Y114.904 E0.01985
G1 X99.129 Y114.258 E0.02027
G1 X99.332 Y113.490 E0.02489
G1 X110.671 Y93.851 E0.71104
G1 X111.163 Y93.321 E0.02268
G1 X111.794 Y92.921 E0.02342
G1 X112.711 Y92.672 E0.02978
G1 X148.422 Y92.677 E1.11969
G1 X148.915 Y92.781 E0.01580
G1 X149.401 Y92.997 E0.01669
G1 X149.876 Y93.358 E0.01868
G1 X150.510 Y94.150 E0.03181
G1 X150.723 Y94.623 E0.01628
G1 X150.831 Y95.102 E0.01540
G1 X150.834 Y95.685 E0.01828
G1 X150.536 Y97.140 E0.04655
;WIPE_START
G1 F8640.000
G1 X150.834 Y95.685 E-0.34281
G1 X150.831 Y95.102 E-0.13459
G1 X150.723 Y94.623 E-0.11345
G1 X150.510 Y94.150 E-0.11991
G1 X150.376 Y93.983 E-0.04924
;WIPE_END
G1 E-0.04000 F2100.000
G1 Z0.600 F10800.000
G1 X150.524 Y98.421
G1 Z0.200
G1 E0.80000 F2100.000
G1 F1200.000
G1 X150.571 Y98.569 E0.00487
G1 X150.758 Y99.578 E0.03216
G1 X150.813 Y100.521 E0.02963
G1 X150.756 Y101.441 E0.02891
G1 X150.665 Y102.013 E0.01816
G1 X150.453 Y102.844 E0.02688
G1 X150.249 Y103.415 E0.01900
G1 X149.849 Y104.263 E0.02939
G1 X149.504 Y104.810 E0.02030
;WIPE_START
G1 F8640.000
G1 X149.849 Y104.263 E-0.14953
G1 X150.249 Y103.415 E-0.21643
G1 X150.453 Y102.844 E-0.13991
G1 X150.665 Y102.013 E-0.19798
G1 X150.703 Y101.773 E-0.05615
;WIPE_END
G1 E-0.04000 F2100.000
G1 Z0.600 F10800.000
G1 X148.788 Y105.737
G1 Z0.200
G1 E0.80000 F2100.000
G1 F1200.000
G1 X148.755 Y105.833 E0.00320
;WIPE_START
G1 F8640.000
G1 X148.788 Y105.737 E-0.02359
;WIPE_END
G1 E-0.77641 F2100.000
G1 Z0.600 F10800.000
G1 X148.120 Y108.846
G1 Z0.200
G1 E0.80000 F2100.000
G1 F1200.000
G1 X147.647 Y111.092 E0.07198
G1 X147.267 Y111.741 E0.02358
G1 X147.106 Y111.938 E0.00798
G1 X146.142 Y112.624 E0.03711
G1 X145.349 Y112.828 E0.02566
G1 X144.316 Y112.828 E0.03239
G1 X144.264 Y112.451 F10800.000
G1 F1200.000
G1 X131.461 Y112.451 E0.40143
G1 X131.444 Y114.998 E0.07986
G1 X131.252 Y115.584 E0.01934
G1 X131.038 Y115.930 E0.01274
G1 X130.724 Y116.244 E0.01393
;WIPE_START
G1 F8640.000
G1 X131.038 Y115.930 E-0.10256
G1 X131.252 Y115.584 E-0.09384
G1 X131.444 Y114.998 E-0.14242
G1 X131.456 Y113.174 E-0.42118
;WIPE_END
G1 E-0.04000 F2100.000
G1 Z0.600 F10800.000
G1 X147.771 Y108.703
G1 Z0.200
G1 E0.80000 F2100.000
G1 F1200.000
G1 X148.423 Y105.575 E0.10018
G1 X148.732 Y105.242 E0.01425
G1 X149.038 Y104.844 E0.01574
G1 X149.161 Y104.649 E0.00721
;WIPE_START
G1 F8640.000
G1 X149.038 Y104.844 E-0.05308
G1 X148.732 Y105.242 E-0.11591
G1 X148.423 Y105.575 E-0.10492
G1 X147.993 Y107.636 E-0.48609
;WIPE_END
G1 E-0.04000 F2100.000
G1 Z0.600 F10800.000
G1 X150.147 Y98.474
G1 Z0.200
G1 E0.80000 F2100.000
G1 F1200.000
G1 X149.983 Y97.958 E0.01699
G1 X150.159 Y97.100 E0.02746
;WIPE_START
G1 F8640.000
G1 X149.983 Y97.958 E-0.20224
G1 X150.147 Y98.474 E-0.12512
;WIPE_END
G1 E-0.47264 F2100.000
G1 Z0.600 F10800.000
G1 X149.590 Y97.998
G1 Z0.200
G1 E0.80000 F2100.000
G1 F1200.000
G1 X149.705 Y98.293 E0.00993
G1 X149.833 Y98.728 E0.01422
G1 X150.007 Y99.647 E0.02932
G1 X150.058 Y100.521 E0.02745
G1 X150.008 Y101.342 E0.02581
G1 X149.930 Y101.845 E0.01594
G1 X149.727 Y102.641 E0.02577
G1 X149.559 Y103.111 E0.01565
G1 X149.198 Y103.881 E0.02666
G1 X148.724 Y104.635 E0.02794
G1 X148.439 Y105.004 E0.01461
G1 X148.075 Y105.395 E0.01675
G1 X146.965 Y110.764 E0.17190
G1 X146.634 Y111.330 E0.02056
G1 X146.563 Y111.413 E0.00344
G1 X145.826 Y111.939 E0.02840
G1 X145.302 Y112.074 E0.01694
G1 X131.087 Y112.074 E0.44573
G1 X131.067 Y114.965 E0.09064
G1 X130.918 Y115.408 E0.01465
G1 X130.753 Y115.682 E0.01004
G1 X130.237 Y116.206 E0.02306
G1 X129.912 Y116.408 E0.01199
G1 X129.347 Y116.574 E0.01845
G1 X101.598 Y116.574 E0.87006
G1 X101.114 Y116.442 E0.01571
G1 X100.645 Y116.144 E0.01743
G1 X100.427 Y115.897 E0.01033
G1 X100.010 Y115.174 E0.02617
G1 X99.889 Y114.747 E0.01393
G1 X99.883 Y114.299 E0.01404
G1 X100.010 Y113.825 E0.01539
G1 X111.302 Y94.268 E0.70807
G1 X111.675 Y93.877 E0.01693
G1 X112.141 Y93.592 E0.01714
G1 X112.760 Y93.426 E0.02009
G1 X148.378 Y93.431 E1.11677
M73 P4 R27
M73 Q4 S27
G1 X148.708 Y93.507 E0.01061
G1 X149.044 Y93.663 E0.01164
G1 X149.374 Y93.922 E0.01316
G1 X149.886 Y94.577 E0.02606
G1 X149.998 Y94.833 E0.00876
G1 X150.078 Y95.159 E0.01052
G1 X150.086 Y95.576 E0.01307
G1 X149.602 Y97.939 E0.07564
G1 X149.198 Y98.032 F10800.000
G1 F1200.000
G1 X149.346 Y98.407 E0.01265
G1 X149.469 Y98.825 E0.01366
G1 X149.631 Y99.681 E0.02730
G1 X149.681 Y100.531 E0.02671
G1 X149.634 Y101.293 E0.02394
G1 X149.562 Y101.761 E0.01482
G1 X149.368 Y102.524 E0.02468
G1 X149.214 Y102.960 E0.01451
G1 X148.862 Y103.710 E0.02600
G1 X148.420 Y104.412 E0.02600
G1 X148.146 Y104.767 E0.01405
G1 X147.727 Y105.216 E0.01925
G1 X146.624 Y110.601 E0.17235
G1 X146.298 Y111.145 E0.01989
G1 X145.693 Y111.585 E0.02347
G1 X145.277 Y111.697 E0.01350
G1 X130.712 Y111.697 E0.45666
G1 X130.690 Y114.928 E0.10132
G1 X130.570 Y115.262 E0.01113
G1 X130.467 Y115.436 E0.00633
G1 X130.013 Y115.902 E0.02040
G1 X129.773 Y116.056 E0.00894
G1 X129.318 Y116.197 E0.01495
G1 X101.622 Y116.197 E0.86836
G1 X101.288 Y116.107 E0.01085
G1 X100.905 Y115.870 E0.01412
G1 X100.743 Y115.690 E0.00759
G1 X100.349 Y115.008 E0.02470
G1 X100.260 Y114.675 E0.01080
G1 X100.260 Y114.325 E0.01099
G1 X100.349 Y113.992 E0.01080
G1 X111.616 Y94.477 E0.70652
G1 X111.926 Y94.159 E0.01393
G1 X112.311 Y93.930 E0.01404
G1 X112.785 Y93.803 E0.01539
G1 X148.354 Y93.808 E1.11524
