; generated by PrusaSlicer 2.3.1+win64 on 2021-07-08 at 18:41:10 UTC

; 

; external perimeters extrusion width = 0.60mm
; perimeters extrusion width = 0.50mm
; infill extrusion width = 0.50mm
; solid infill extrusion width = 0.50mm
; top infill extrusion width = 0.45mm
; first layer extrusion width = 0.42mm

M73 P0 R130
M73 Q0 S130
M201 X1000 Y1000 Z200 E5000 ; sets maximum accelerations, mm/sec^2
M203 X200 Y200 Z12 E120 ; sets maximum feedrates, mm/sec
M204 P1250 R1250 T1250 ; sets acceleration (P, T) and retract acceleration (R), mm/sec^2
M205 X8.00 Y8.00 Z0.40 E4.50 ; sets the jerk limits, mm/sec
M205 S0 T0 ; sets the minimum extruding and travel feed rate, mm/sec
M107
;TYPE:Custom
M862.3 P "MK3S" ; printer model check
M862.1 P0.4 ; nozzle diameter check
M115 U3.9.3 ; tell printer latest fw version
G90 ; use absolute coordinates
M83 ; extruder relative mode
M104 S215 ; set extruder temp
M140 S60 ; set bed temp
M190 S60 ; wait for bed temp
M109 S215 ; wait for extruder temp
G28 W ; home all without mesh bed level
G80 ; mesh bed leveling
G1 Y-3.0 F1000.0 ; go outside print area
G92 E0.0
G1 X60.0 E9.0 F1000.0 ; intro line
G1 X100.0 E12.5 F1000.0 ; intro line
G92 E0.0
M221 S95

; Don't change E values below. Excessive value can damage the printer.

M907 E538 ; set extruder motor current
G21 ; set units to millimeters
G90 ; use absolute coordinates
M83 ; use relative distances for extrusion
M900 K0.05 ; Filament gcode LA 1.5
M900 K30 ; Filament gcode LA 1.0
;LAYER_CHANGE
;Z:0.2
;HEIGHT:0.2
;BEFORE_LAYER_CHANGE
G92 E0.0
;0.2


G1 E-0.80000 F2100.000
G1 Z0.400 F10800.000
;AFTER_LAYER_CHANGE
;0.2
G1 X48.130 Y28.750
G1 Z0.200
G1 E0.80000 F2100.000
M204 S1000
;TYPE:Skirt
;WIDTH:0.42
G1 F1200.000
G1 X48.649 Y27.991 E0.02884
G1 X49.417 Y27.485 E0.02884
G1 X50.320 Y27.309 E0.02884
G1 X200.335 Y27.938 E4.70366
M73 P0 R129
G1 X201.246 Y28.128 E0.02919
G1 X202.014 Y28.654 E0.02919
G1 X202.515 Y29.417 E0.02860
G1 X202.691 Y30.312 E0.02860
G1 X202.062 Y180.323 E4.70354
G1 X201.875 Y181.239 E0.02931
G1 X201.346 Y182.014 E0.02942
G1 X200.583 Y182.515 E0.02860
G1 X199.688 Y182.691 E0.02860
G1 X49.677 Y182.062 E4.70354
G1 X48.761 Y181.875 E0.02931
G1 X47.986 Y181.346 E0.02942
G1 X47.485 Y180.583 E0.02860
G1 X47.309 Y179.688 E0.02860
G1 X47.938 Y29.650 E4.70437
M73 Q0 S129
G1 X48.117 Y28.809 E0.02696
; printing object Pelotonia_Arrow.amf id:0 copy 0
;WIPE_START
G1 F8640.000
G1 X48.649 Y27.991 E-0.22525
G1 X49.417 Y27.485 E-0.21237
G1 X50.320 Y27.309 E-0.21237
G1 X50.796 Y27.311 E-0.11000
;WIPE_END
G1 E-0.04000 F2100.000
G1 Z0.600 F10800.000
G1 X56.253 Y35.674
G1 Z0.200
G1 E0.80000 F2100.000
;TYPE:Perimeter
G1 F1200.000
G1 X90.306 Y35.818 E1.06773
G1 X90.835 Y35.831 E0.01659
G1 X91.409 Y35.897 E0.01812
G1 X91.606 Y35.956 E0.00644
G1 X92.010 Y35.504 E0.01902
G1 X93.647 Y37.118 E0.07208
G1 X144.265 Y88.162 E2.25394
G1 X144.976 Y88.918 E0.03254
G1 X145.079 Y89.054 E0.00537
G1 X145.059 Y88.900 E0.00488
G1 X145.035 Y87.869 E0.03233
G1 X145.252 Y36.047 E1.62486
G1 X194.326 Y36.253 E1.53869
G1 X193.747 Y174.326 E4.32922
G1 X55.674 Y173.747 E4.32922
G1 X55.880 Y124.674 E1.53867
G1 X107.702 Y124.891 E1.62487
G1 X108.732 Y124.924 E0.03233
G1 X108.887 Y124.945 E0.00488
G1 X108.751 Y124.841 E0.00537
G1 X108.001 Y124.123 E0.03254
G1 X57.383 Y73.080 E2.25394
G1 X55.784 Y71.433 E0.07196
G1 X56.213 Y71.051 E0.01799
G1 X56.182 Y70.970 E0.00273
G1 X56.120 Y70.486 E0.01529
G1 X56.110 Y70.061 E0.01332
G1 X56.252 Y35.734 E1.07630
G1 X56.628 Y36.053 F10800.000
;TYPE:External perimeter
G1 F1200.000
G1 X90.301 Y36.195 E1.05579
M73 P0 R128
G1 X90.809 Y36.207 E0.01594
G1 X91.333 Y36.268 E0.01654
G1 X91.728 Y36.386 E0.01292
G1 X92.028 Y36.051 E0.01412
G1 X93.381 Y37.385 E0.05959
G1 X143.994 Y88.424 E2.25372
M73 P1 R128
M73 Q1 S129
G1 X144.687 Y89.162 E0.03175
G1 X145.003 Y89.578 E0.01640
G1 X145.271 Y89.996 E0.01556
G1 X145.601 Y90.328 E0.01467
G1 X145.604 Y89.867 E0.01444
G1 X145.503 Y89.386 E0.01543
G1 X145.436 Y88.871 E0.01628
G1 X145.412 Y87.866 E0.03152
G1 X145.627 Y36.426 E1.61288
G1 X193.947 Y36.628 E1.51504
G1 X193.372 Y173.947 E4.30557
G1 X56.053 Y173.372 E4.30557
M73 Q1 S128
G1 X56.255 Y125.053 E1.51503
G1 X107.695 Y125.268 E1.61288
G1 X108.700 Y125.300 E0.03152
G1 X109.214 Y125.372 E0.01628
G1 X109.695 Y125.476 E0.01543
G1 X110.156 Y125.478 E0.01444
G1 X109.827 Y125.145 E0.01467
G1 X109.411 Y124.873 E0.01556
G1 X108.997 Y124.554 E0.01640
G1 X108.265 Y123.854 E0.03175
G1 X57.652 Y72.816 E2.25372
G1 X56.329 Y71.453 E0.05957
G1 X56.656 Y71.161 E0.01375
G1 X56.551 Y70.879 E0.00945
G1 X56.497 Y70.457 E0.01331
G1 X56.487 Y70.057 E0.01254
G1 X56.628 Y36.113 E1.06431
G1 X56.630 Y35.653 F10800.000
;WIPE_START
G1 F8640.000
G1 X59.919 Y36.121 E-0.76000
;WIPE_END
G1 E-0.04000 F2100.000
G1 Z0.600 F10800.000
G1 X51.099 Y30.477
G1 Z0.200
G1 E0.80000 F2100.000
;TYPE:Perimeter
G1 F1200.000
G1 X199.523 Y31.099 E4.65379
G1 X198.901 Y179.523 E4.65379
G1 X50.477 Y178.901 E4.65379
G1 X51.098 Y30.537 E4.65191
M73 P1 R127
G1 X50.723 Y30.098 F10800.000
;TYPE:External perimeter
G1 F1200.000
G1 X199.902 Y30.723 E4.67743
G1 X199.277 Y179.902 E4.67743
G1 X50.098 Y179.277 E4.67743
M73 P2 R127
M73 Q2 S127
G1 X50.723 Y30.158 E4.67555
G1 X51.109 Y30.203 F10800.000
;WIPE_START
G1 F8640.000
G1 X54.014 Y30.171 E-0.76000
;WIPE_END
G1 E-0.04000 F2100.000
G1 Z0.600 F10800.000
G1 X109.059 Y125.022
G1 Z0.200
G1 E0.80000 F2100.000
;TYPE:Gap fill
;WIDTH:0.132737
G1 F1200.000
G1 X109.588 Y125.239 E0.00427
;WIPE_START
G1 F8640.000
G1 X109.059 Y125.022 E-0.13210
;WIPE_END
G1 E-0.66790 F2100.000
G1 Z0.600 F10800.000
G1 X145.367 Y89.758
G1 Z0.200
G1 E0.80000 F2100.000
;WIDTH:0.132736
G1 F1200.000
G1 X145.155 Y89.227 E0.00427
;WIPE_START
G1 F8640.000
G1 X145.367 Y89.758 E-0.13210
;WIPE_END
G1 E-0.66790 F2100.000
G1 Z0.600 F10800.000
G1 X198.643 Y31.208
G1 Z0.200
G1 E0.80000 F2100.000
;TYPE:Solid infill
;WIDTH:0.420645
G1 F1200.000
G1 X199.237 Y31.803 E0.02641
G1 X199.235 Y32.335 E0.01671
G1 X198.277 Y31.376 E0.04257
G1 X197.740 Y31.374 E0.01685
G1 X199.233 Y32.867 E0.06630
G1 X199.231 Y33.399 E0.01671
G1 X197.204 Y31.372 E0.09003
G1 X196.667 Y31.369 E0.01685
G1 X199.228 Y33.930 E0.11376
G1 X199.226 Y34.462 E0.01671
G1 X196.131 Y31.367 E0.13749
G1 X195.594 Y31.365 E0.01685
G1 X199.224 Y34.994 E0.16121
G1 X199.222 Y35.526 E0.01671
G1 X195.058 Y31.363 E0.18494
G1 X194.522 Y31.360 E0.01685
G1 X199.220 Y36.058 E0.20867
G1 X199.217 Y36.590 E0.01671
G1 X193.985 Y31.358 E0.23240
G1 X193.449 Y31.356 E0.01685
G1 X199.215 Y37.122 E0.25613
G1 X199.213 Y37.654 E0.01671
G1 X192.912 Y31.354 E0.27985
G1 X192.376 Y31.351 E0.01685
G1 X199.211 Y38.186 E0.30358
G1 X199.208 Y38.718 E0.01671
G1 X191.839 Y31.349 E0.32731
G1 X191.303 Y31.347 E0.01685
G1 X199.206 Y39.250 E0.35104
G1 X199.204 Y39.782 E0.01671
G1 X190.767 Y31.345 E0.37477
G1 X190.230 Y31.342 E0.01685
G1 X199.202 Y40.314 E0.39849
G1 X199.199 Y40.846 E0.01671
G1 X189.694 Y31.340 E0.42222
G1 X189.157 Y31.338 E0.01685
G1 X193.787 Y35.968 E0.20564
G1 X193.251 Y35.965 E0.01685
G1 X188.621 Y31.336 E0.20564
G1 X188.084 Y31.333 E0.01685
G1 X192.714 Y35.963 E0.20564
G1 X192.178 Y35.961 E0.01685
G1 X187.548 Y31.331 E0.20564
G1 X187.012 Y31.329 E0.01685
G1 X191.641 Y35.959 E0.20564
G1 X191.105 Y35.956 E0.01685
G1 X186.475 Y31.327 E0.20564
G1 X185.939 Y31.324 E0.01685
G1 X190.568 Y35.954 E0.20564
G1 X190.032 Y35.952 E0.01685
G1 X185.402 Y31.322 E0.20564
G1 X184.866 Y31.320 E0.01685
G1 X189.496 Y35.950 E0.20564
G1 X188.959 Y35.947 E0.01685
G1 X184.329 Y31.318 E0.20564
G1 X183.793 Y31.315 E0.01685
G1 X188.423 Y35.945 E0.20564
G1 X187.886 Y35.943 E0.01685
G1 X183.257 Y31.313 E0.20564
G1 X182.720 Y31.311 E0.01685
G1 X187.350 Y35.941 E0.20564
G1 X186.813 Y35.938 E0.01685
G1 X182.184 Y31.309 E0.20564
G1 X181.647 Y31.306 E0.01685
G1 X186.277 Y35.936 E0.20564
G1 X185.741 Y35.934 E0.01685
G1 X181.111 Y31.304 E0.20564
G1 X180.574 Y31.302 E0.01685
G1 X185.204 Y35.932 E0.20564
G1 X184.668 Y35.929 E0.01685
G1 X180.038 Y31.300 E0.20564
G1 X179.502 Y31.297 E0.01685
G1 X184.131 Y35.927 E0.20564
G1 X183.595 Y35.925 E0.01685
G1 X178.965 Y31.295 E0.20564
G1 X178.429 Y31.293 E0.01685
G1 X183.058 Y35.923 E0.20564
G1 X182.522 Y35.920 E0.01685
G1 X177.892 Y31.291 E0.20564
G1 X177.356 Y31.289 E0.01685
G1 X181.986 Y35.918 E0.20564
G1 X181.449 Y35.916 E0.01685
G1 X176.819 Y31.286 E0.20564
G1 X176.283 Y31.284 E0.01685
G1 X180.913 Y35.914 E0.20564
G1 X180.376 Y35.911 E0.01685
G1 X175.747 Y31.282 E0.20564
G1 X175.210 Y31.280 E0.01685
G1 X179.840 Y35.909 E0.20564
G1 X179.303 Y35.907 E0.01685
G1 X174.674 Y31.277 E0.20564
G1 X174.137 Y31.275 E0.01685
G1 X178.767 Y35.905 E0.20564
G1 X178.231 Y35.902 E0.01685
G1 X173.601 Y31.273 E0.20564
G1 X173.064 Y31.271 E0.01685
G1 X177.694 Y35.900 E0.20564
G1 X177.158 Y35.898 E0.01685
G1 X172.528 Y31.268 E0.20564
G1 X171.992 Y31.266 E0.01685
G1 X176.621 Y35.896 E0.20564
G1 X176.085 Y35.893 E0.01685
G1 X171.455 Y31.264 E0.20564
G1 X170.919 Y31.262 E0.01685
G1 X175.548 Y35.891 E0.20564
G1 X175.012 Y35.889 E0.01685
G1 X170.382 Y31.259 E0.20564
G1 X169.846 Y31.257 E0.01685
G1 X174.475 Y35.887 E0.20564
G1 X173.939 Y35.884 E0.01685
G1 X169.309 Y31.255 E0.20564
G1 X168.773 Y31.253 E0.01685
G1 X173.403 Y35.882 E0.20564
G1 X172.866 Y35.880 E0.01685
G1 X168.237 Y31.250 E0.20564
G1 X167.700 Y31.248 E0.01685
G1 X172.330 Y35.878 E0.20564
G1 X171.793 Y35.876 E0.01685
G1 X167.164 Y31.246 E0.20564
M73 P2 R126
G1 X166.627 Y31.244 E0.01685
G1 X171.257 Y35.873 E0.20564
G1 X170.720 Y35.871 E0.01685
G1 X166.091 Y31.241 E0.20564
G1 X165.554 Y31.239 E0.01685
G1 X170.184 Y35.869 E0.20564
G1 X169.648 Y35.867 E0.01685
G1 X165.018 Y31.237 E0.20564
G1 X164.482 Y31.235 E0.01685
G1 X169.111 Y35.864 E0.20564
G1 X168.575 Y35.862 E0.01685
G1 X163.945 Y31.232 E0.20564
G1 X163.409 Y31.230 E0.01685
G1 X168.038 Y35.860 E0.20564
G1 X167.502 Y35.858 E0.01685
G1 X162.872 Y31.228 E0.20564
G1 X162.336 Y31.226 E0.01685
G1 X166.965 Y35.855 E0.20564
G1 X166.429 Y35.853 E0.01685
G1 X161.799 Y31.223 E0.20564
G1 X161.263 Y31.221 E0.01685
G1 X165.893 Y35.851 E0.20564
G1 X165.356 Y35.849 E0.01685
G1 X160.726 Y31.219 E0.20564
G1 X160.190 Y31.217 E0.01685
G1 X164.820 Y35.846 E0.20564
G1 X164.283 Y35.844 E0.01685
G1 X159.654 Y31.214 E0.20564
G1 X159.117 Y31.212 E0.01685
G1 X163.747 Y35.842 E0.20564
G1 X163.210 Y35.840 E0.01685
G1 X158.581 Y31.210 E0.20564
G1 X158.044 Y31.208 E0.01685
G1 X162.674 Y35.837 E0.20564
G1 X162.138 Y35.835 E0.01685
G1 X157.508 Y31.205 E0.20564
G1 X156.971 Y31.203 E0.01685
G1 X161.601 Y35.833 E0.20564
G1 X161.065 Y35.831 E0.01685
G1 X156.435 Y31.201 E0.20564
G1 X155.899 Y31.199 E0.01685
G1 X160.528 Y35.828 E0.20564
G1 X159.992 Y35.826 E0.01685
G1 X155.362 Y31.196 E0.20564
G1 X154.826 Y31.194 E0.01685
G1 X159.455 Y35.824 E0.20564
G1 X158.919 Y35.822 E0.01685
G1 X154.289 Y31.192 E0.20564
G1 X153.753 Y31.190 E0.01685
G1 X158.383 Y35.819 E0.20564
G1 X157.846 Y35.817 E0.01685
G1 X153.216 Y31.187 E0.20564
G1 X152.680 Y31.185 E0.01685
G1 X157.310 Y35.815 E0.20564
G1 X156.773 Y35.813 E0.01685
G1 X152.144 Y31.183 E0.20564
G1 X151.607 Y31.181 E0.01685
G1 X156.237 Y35.810 E0.20564
G1 X155.700 Y35.808 E0.01685
G1 X151.071 Y31.178 E0.20564
G1 X150.534 Y31.176 E0.01685
G1 X155.164 Y35.806 E0.20564
G1 X154.628 Y35.804 E0.01685
G1 X149.998 Y31.174 E0.20564
G1 X149.461 Y31.172 E0.01685
G1 X154.091 Y35.801 E0.20564
G1 X153.555 Y35.799 E0.01685
G1 X148.925 Y31.169 E0.20564
G1 X148.389 Y31.167 E0.01685
G1 X153.018 Y35.797 E0.20564
G1 X152.482 Y35.795 E0.01685
G1 X147.852 Y31.165 E0.20564
G1 X147.316 Y31.163 E0.01685
G1 X151.945 Y35.792 E0.20564
G1 X151.409 Y35.790 E0.01685
G1 X146.779 Y31.160 E0.20564
G1 X146.243 Y31.158 E0.01685
G1 X150.873 Y35.788 E0.20564
G1 X150.336 Y35.786 E0.01685
G1 X145.706 Y31.156 E0.20564
G1 X145.170 Y31.154 E0.01685
G1 X149.800 Y35.783 E0.20564
G1 X149.263 Y35.781 E0.01685
G1 X144.634 Y31.151 E0.20564
G1 X144.097 Y31.149 E0.01685
G1 X148.727 Y35.779 E0.20564
G1 X148.190 Y35.777 E0.01685
G1 X143.561 Y31.147 E0.20564
G1 X143.024 Y31.145 E0.01685
G1 X147.654 Y35.774 E0.20564
G1 X147.118 Y35.772 E0.01685
G1 X142.488 Y31.142 E0.20564
G1 X141.951 Y31.140 E0.01685
G1 X146.581 Y35.770 E0.20564
G1 X146.045 Y35.768 E0.01685
G1 X141.415 Y31.138 E0.20564
G1 X140.879 Y31.136 E0.01685
G1 X145.508 Y35.765 E0.20564
G1 X144.972 Y35.763 E0.01685
G1 X140.342 Y31.133 E0.20564
G1 X139.806 Y31.131 E0.01685
G1 X144.968 Y36.294 E0.22930
G1 X144.966 Y36.826 E0.01671
G1 X139.269 Y31.129 E0.25303
G1 X138.733 Y31.127 E0.01685
G1 X144.964 Y37.358 E0.27676
G1 X144.961 Y37.889 E0.01671
G1 X138.196 Y31.124 E0.30048
G1 X137.660 Y31.122 E0.01685
G1 X144.959 Y38.421 E0.32421
M73 Q2 S126
G1 X144.957 Y38.953 E0.01671
G1 X137.124 Y31.120 E0.34794
G1 X136.587 Y31.118 E0.01685
G1 X144.955 Y39.485 E0.37167
G1 X144.952 Y40.017 E0.01671
G1 X136.051 Y31.116 E0.39540
G1 X135.514 Y31.113 E0.01685
G1 X144.950 Y40.549 E0.41912
G1 X144.948 Y41.081 E0.01671
G1 X134.978 Y31.111 E0.44285
G1 X134.441 Y31.109 E0.01685
G1 X144.946 Y41.613 E0.46658
G1 X144.944 Y42.145 E0.01671
G1 X133.905 Y31.107 E0.49031
G1 X133.369 Y31.104 E0.01685
G1 X144.941 Y42.677 E0.51404
G1 X144.939 Y43.209 E0.01671
G1 X132.832 Y31.102 E0.53776
G1 X132.296 Y31.100 E0.01685
G1 X144.937 Y43.741 E0.56149
G1 X144.935 Y44.273 E0.01671
G1 X131.759 Y31.098 E0.58522
G1 X131.223 Y31.095 E0.01685
G1 X144.932 Y44.805 E0.60895
G1 X144.930 Y45.337 E0.01671
G1 X130.686 Y31.093 E0.63268
G1 X130.150 Y31.091 E0.01685
G1 X144.928 Y45.869 E0.65640
G1 X144.926 Y46.401 E0.01671
G1 X129.614 Y31.089 E0.68013
G1 X129.077 Y31.086 E0.01685
G1 X144.924 Y46.933 E0.70386
G1 X144.921 Y47.465 E0.01671
G1 X128.541 Y31.084 E0.72759
G1 X128.004 Y31.082 E0.01685
G1 X144.919 Y47.997 E0.75132
G1 X144.917 Y48.529 E0.01671
G1 X127.468 Y31.080 E0.77504
G1 X126.931 Y31.077 E0.01685
G1 X144.915 Y49.061 E0.79877
G1 X144.912 Y49.593 E0.01671
G1 X126.395 Y31.075 E0.82250
M73 P3 R126
M73 Q3 S126
G1 X125.859 Y31.073 E0.01685
G1 X144.910 Y50.125 E0.84623
G1 X144.908 Y50.656 E0.01671
G1 X125.322 Y31.071 E0.86996
G1 X124.786 Y31.068 E0.01685
G1 X144.906 Y51.188 E0.89369
G1 X144.904 Y51.720 E0.01671
G1 X124.249 Y31.066 E0.91741
G1 X123.713 Y31.064 E0.01685
G1 X144.901 Y52.252 E0.94114
G1 X144.899 Y52.784 E0.01671
G1 X123.176 Y31.062 E0.96487
G1 X122.640 Y31.059 E0.01685
G1 X144.897 Y53.316 E0.98860
G1 X144.895 Y53.848 E0.01671
G1 X122.103 Y31.057 E1.01233
G1 X121.567 Y31.055 E0.01685
G1 X144.892 Y54.380 E1.03605
G1 X144.890 Y54.912 E0.01671
G1 X121.031 Y31.053 E1.05978
G1 X120.494 Y31.050 E0.01685
G1 X144.888 Y55.444 E1.08351
G1 X144.886 Y55.976 E0.01671
G1 X119.958 Y31.048 E1.10724
M73 P3 R125
G1 X119.421 Y31.046 E0.01685
G1 X144.883 Y56.508 E1.13097
G1 X144.881 Y57.040 E0.01671
G1 X118.885 Y31.044 E1.15469
G1 X118.348 Y31.041 E0.01685
G1 X144.879 Y57.572 E1.17842
G1 X144.877 Y58.104 E0.01671
G1 X117.812 Y31.039 E1.20215
G1 X117.276 Y31.037 E0.01685
G1 X144.875 Y58.636 E1.22588
G1 X144.872 Y59.168 E0.01671
G1 X116.739 Y31.035 E1.24961
G1 X116.203 Y31.032 E0.01685
G1 X144.870 Y59.700 E1.27333
G1 X144.868 Y60.232 E0.01671
G1 X115.666 Y31.030 E1.29706
G1 X115.130 Y31.028 E0.01685
G1 X144.866 Y60.764 E1.32079
G1 X144.863 Y61.296 E0.01671
G1 X114.593 Y31.026 E1.34452
G1 X114.057 Y31.023 E0.01685
G1 X144.861 Y61.828 E1.36825
M73 Q3 S125
G1 X144.859 Y62.360 E0.01671
G1 X113.521 Y31.021 E1.39198
G1 X112.984 Y31.019 E0.01685
G1 X144.857 Y62.892 E1.41570
G1 X144.855 Y63.423 E0.01671
G1 X112.448 Y31.017 E1.43943
G1 X111.911 Y31.014 E0.01685
G1 X144.852 Y63.955 E1.46316
G1 X144.850 Y64.487 E0.01671
G1 X111.375 Y31.012 E1.48689
G1 X110.838 Y31.010 E0.01685
G1 X144.848 Y65.019 E1.51062
G1 X144.846 Y65.551 E0.01671
G1 X110.302 Y31.008 E1.53434
G1 X109.766 Y31.005 E0.01685
G1 X144.843 Y66.083 E1.55807
G1 X144.841 Y66.615 E0.01671
G1 X109.229 Y31.003 E1.58180
G1 X108.693 Y31.001 E0.01685
G1 X144.839 Y67.147 E1.60553
G1 X144.837 Y67.679 E0.01671
G1 X108.156 Y30.999 E1.62926
G1 X107.620 Y30.996 E0.01685
G1 X144.835 Y68.211 E1.65298
G1 X144.832 Y68.743 E0.01671
G1 X107.083 Y30.994 E1.67671
G1 X106.547 Y30.992 E0.01685
G1 X144.830 Y69.275 E1.70044
G1 X144.828 Y69.807 E0.01671
G1 X106.011 Y30.990 E1.72417
