; generated by PrusaSlicer 2.3.3+win64 on 2022-03-25 at 23:09:40 UTC

; 

; external perimeters extrusion width = 0.45mm
; perimeters extrusion width = 0.45mm
; infill extrusion width = 0.45mm
; solid infill extrusion width = 0.45mm
; top infill extrusion width = 0.40mm
; first layer extrusion width = 0.42mm

M73 P0 R308
M73 Q0 S323
M201 X1000 Y1000 Z200 E5000 ; sets maximum accelerations, mm/sec^2
M203 X200 Y200 Z12 E120 ; sets maximum feedrates, mm/sec
M204 P1250 R1250 T1250 ; sets acceleration (P, T) and retract acceleration (R), mm/sec^2
M205 X8.00 Y8.00 Z0.40 E4.50 ; sets the jerk limits, mm/sec
M205 S0 T0 ; sets the minimum extruding and travel feed rate, mm/sec
M107
;TYPE:Custom
M862.3 P "MK3S" ; printer model check
M862.1 P0.4 ; nozzle diameter check
M115 U3.10.0 ; tell printer latest fw version
G90 ; use absolute coordinates
M83 ; extruder relative mode
M104 S215 ; set extruder temp
M140 S60 ; set bed temp
M190 S60 ; wait for bed temp
M109 S215 ; wait for extruder temp
G28 W ; home all without mesh bed level
G80 ; mesh bed leveling
G1 Y-3.0 F1000.0 ; go outside print area
G92 E0.0
G1 X60.0 E9.0 F1000.0 ; intro line
G1 X100.0 E12.5 F1000.0 ; intro line
G92 E0.0
M221 S95

; Don't change E values below. Excessive value can damage the printer.

M907 E538 ; set extruder motor current
G21 ; set units to millimeters
G90 ; use absolute coordinates
M83 ; use relative distances for extrusion
M900 K0.05 ; Filament gcode LA 1.5
M900 K30 ; Filament gcode LA 1.0
;LAYER_CHANGE
;Z:0.2
;HEIGHT:0.2
;BEFORE_LAYER_CHANGE
G92 E0.0
;0.2


G1 E-0.80000 F2100.000
G1 Z0.400 F10800.000
;AFTER_LAYER_CHANGE
;0.2
G1 X3.206 Y20.188
G1 Z0.200
G1 E0.80000 F2100.000
M204 S1000
;TYPE:Skirt
;WIDTH:0.42
G1 F1200.000
G1 X3.933 Y20.073 E0.02308
G1 X236.541 Y20.073 E7.29328
M73 P0 R307
G1 X237.380 Y20.227 E0.02673
G1 X238.113 Y20.670 E0.02684
G1 X238.641 Y21.343 E0.02684
G1 X238.897 Y22.160 E0.02684
G1 X248.434 Y117.289 E2.99764
G1 X248.439 Y177.813 E1.89770
G1 X248.366 Y178.363 E0.01740
G1 X248.168 Y178.878 E0.01728
G1 X247.858 Y179.333 E0.01728
G1 X247.451 Y179.704 E0.01728
G1 X246.866 Y180.012 E0.02071
G1 X246.220 Y180.147 E0.02071
G1 X92.928 Y189.925 E4.81612
G1 X3.911 Y189.927 E2.79107
G1 X3.361 Y189.856 E0.01740
G1 X2.842 Y189.659 E0.01740
G1 X2.383 Y189.348 E0.01740
G1 X2.008 Y188.938 E0.01740
G1 X1.676 Y188.282 E0.02308
G1 X1.560 Y187.555 E0.02308
G1 X1.560 Y22.442 E5.17699
M73 Q0 S322
G1 X1.628 Y21.888 E0.01752
G1 X1.823 Y21.364 E0.01752
G1 X2.135 Y20.901 E0.01752
G1 X2.549 Y20.521 E0.01763
G1 X3.152 Y20.215 E0.02119
; printing object Quilting_Square_Patterns.amf id:0 copy 0
;WIPE_START
G1 F8640.000
G1 X3.933 Y20.073 E-0.18318
G1 X6.431 Y20.073 E-0.57682
;WIPE_END
G1 E-0.04000 F2100.000
G1 Z0.600 F10800.000
G1 X71.230 Y38.960
G1 Z0.200
G1 E0.80000 F2100.000
;TYPE:Perimeter
G1 F1200.000
G1 X71.961 Y36.710 E0.07417
G1 X73.875 Y35.320 E0.07417
G1 X76.240 Y35.320 E0.07417
G1 X78.154 Y36.710 E0.07417
G1 X78.885 Y38.960 E0.07417
G1 X78.154 Y41.210 E0.07417
G1 X76.240 Y42.600 E0.07417
G1 X73.875 Y42.600 E0.07417
G1 X71.961 Y41.210 E0.07417
G1 X71.248 Y39.017 E0.07229
G1 X71.626 Y38.960 F10800.000
;TYPE:External perimeter
G1 F1200.000
G1 X72.282 Y36.943 E0.06649
G1 X73.997 Y35.697 E0.06649
G1 X76.118 Y35.697 E0.06649
G1 X77.833 Y36.943 E0.06649
G1 X78.489 Y38.960 E0.06649
G1 X77.833 Y40.977 E0.06649
G1 X76.118 Y42.223 E0.06649
G1 X73.997 Y42.223 E0.06649
G1 X72.282 Y40.977 E0.06649
G1 X71.645 Y39.017 E0.06461
G1 X71.280 Y38.760 F10800.000
;WIPE_START
G1 F8640.000
G1 X72.282 Y36.943 E-0.50092
G1 X73.189 Y36.284 E-0.25908
;WIPE_END
G1 E-0.04000 F2100.000
G1 Z0.600 F10800.000
G1 X92.050 Y23.237
G1 Z0.200
G1 E0.80000 F2100.000
;TYPE:Perimeter
G1 F1200.000
G1 X92.050 Y186.763 E5.12724
G1 X4.725 Y186.763 E2.73804
G1 X4.725 Y23.237 E5.12724
M73 P0 R306
G1 X91.990 Y23.237 E2.73616
G1 X92.428 Y22.860 F10800.000
;TYPE:External perimeter
G1 F1200.000
G1 X92.428 Y187.140 E5.15088
G1 X4.347 Y187.140 E2.76169
G1 X4.347 Y22.860 E5.15088
G1 X92.368 Y22.860 E2.75981
G1 X92.362 Y23.255 F10800.000
;WIPE_START
G1 F8640.000
G1 X92.369 Y26.151 E-0.76000
;WIPE_END
G1 E-0.04000 F2100.000
G1 Z0.600 F10800.000
G1 X91.174 Y23.350
G1 Z0.200
M73 Q0 S321
G1 E0.80000 F2100.000
;TYPE:Solid infill
;WIDTH:0.420558
G1 F1200.000
G1 X91.768 Y23.944 E0.02637
G1 X91.768 Y24.478 E0.01677
G1 X90.809 Y23.520 E0.04255
G1 X90.275 Y23.520 E0.01677
G1 X91.768 Y25.012 E0.06626
G1 X91.768 Y25.546 E0.01677
G1 X89.741 Y23.520 E0.08998
G1 X89.207 Y23.520 E0.01677
G1 X91.768 Y26.080 E0.11370
G1 X91.768 Y26.614 E0.01677
G1 X88.673 Y23.520 E0.13741
G1 X88.139 Y23.520 E0.01677
G1 X91.768 Y27.148 E0.16113
G1 X91.768 Y27.682 E0.01677
G1 X87.605 Y23.520 E0.18485
G1 X87.071 Y23.520 E0.01677
G1 X91.768 Y28.216 E0.20856
G1 X91.768 Y28.750 E0.01677
G1 X86.537 Y23.520 E0.23228
G1 X86.003 Y23.520 E0.01677
G1 X91.768 Y29.285 E0.25599
G1 X91.768 Y29.819 E0.01677
G1 X85.469 Y23.520 E0.27971
G1 X84.935 Y23.520 E0.01677
G1 X91.768 Y30.353 E0.30343
G1 X91.768 Y30.887 E0.01677
G1 X84.401 Y23.520 E0.32714
G1 X83.867 Y23.520 E0.01677
G1 X91.768 Y31.421 E0.35086
G1 X91.768 Y31.955 E0.01677
G1 X83.333 Y23.520 E0.37458
G1 X82.799 Y23.520 E0.01677
G1 X91.768 Y32.489 E0.39829
G1 X91.768 Y33.023 E0.01677
G1 X82.265 Y23.520 E0.42201
G1 X81.730 Y23.520 E0.01677
G1 X91.768 Y33.557 E0.44572
G1 X91.768 Y34.091 E0.01677
G1 X81.196 Y23.520 E0.46944
G1 X80.662 Y23.520 E0.01677
G1 X91.768 Y34.625 E0.49316
G1 X91.768 Y35.159 E0.01677
G1 X80.128 Y23.520 E0.51687
G1 X79.594 Y23.520 E0.01677
G1 X91.768 Y35.693 E0.54059
G1 X91.768 Y36.227 E0.01677
G1 X79.060 Y23.520 E0.56431
G1 X78.526 Y23.520 E0.01677
G1 X91.768 Y36.761 E0.58802
G1 X91.768 Y37.295 E0.01677
G1 X77.992 Y23.520 E0.61174
G1 X77.458 Y23.520 E0.01677
G1 X91.768 Y37.830 E0.63545
G1 X91.768 Y38.364 E0.01677
G1 X76.924 Y23.520 E0.65917
G1 X76.390 Y23.520 E0.01677
G1 X91.768 Y38.898 E0.68289
G1 X91.768 Y39.432 E0.01677
G1 X75.856 Y23.520 E0.70660
G1 X75.322 Y23.520 E0.01677
G1 X91.768 Y39.966 E0.73032
G1 X91.768 Y40.500 E0.01677
G1 X74.788 Y23.520 E0.75404
G1 X74.254 Y23.520 E0.01677
G1 X91.768 Y41.034 E0.77775
G1 X91.768 Y41.568 E0.01677
G1 X73.720 Y23.520 E0.80147
G1 X73.185 Y23.520 E0.01677
G1 X91.768 Y42.102 E0.82518
G1 X91.768 Y42.636 E0.01677
G1 X72.651 Y23.520 E0.84890
M73 P0 R305
G1 X72.117 Y23.520 E0.01677
G1 X91.768 Y43.170 E0.87262
G1 X91.768 Y43.704 E0.01677
G1 X71.583 Y23.520 E0.89633
G1 X71.049 Y23.520 E0.01677
G1 X91.768 Y44.238 E0.92005
G1 X91.768 Y44.772 E0.01677
G1 X70.515 Y23.520 E0.94376
G1 X69.981 Y23.520 E0.01677
G1 X91.768 Y45.306 E0.96748
G1 X91.768 Y45.840 E0.01677
G1 X69.447 Y23.520 E0.99120
G1 X68.913 Y23.520 E0.01677
G1 X91.768 Y46.375 E1.01491
G1 X91.768 Y46.909 E0.01677
G1 X68.379 Y23.520 E1.03863
G1 X67.845 Y23.520 E0.01677
G1 X91.768 Y47.443 E1.06235
G1 X91.768 Y47.977 E0.01677
G1 X67.311 Y23.520 E1.08606
G1 X66.777 Y23.520 E0.01677
G1 X91.768 Y48.511 E1.10978
G1 X91.768 Y49.045 E0.01677
G1 X66.243 Y23.520 E1.13349
G1 X65.709 Y23.520 E0.01677
G1 X91.768 Y49.579 E1.15721
G1 X91.768 Y50.113 E0.01677
G1 X65.175 Y23.520 E1.18093
G1 X64.641 Y23.520 E0.01677
G1 X76.158 Y35.037 E0.51144
G1 X75.624 Y35.037 E0.01677
G1 X64.106 Y23.520 E0.51144
G1 X63.572 Y23.520 E0.01677
G1 X75.089 Y35.037 E0.51144
G1 X74.555 Y35.037 E0.01677
G1 X63.038 Y23.520 E0.51144
G1 X62.504 Y23.520 E0.01677
G1 X74.021 Y35.037 E0.51144
G1 X73.783 Y35.037 E0.00749
G1 X73.612 Y35.161 E0.00664
G1 X61.970 Y23.520 E0.51696
G1 X61.436 Y23.520 E0.01677
G1 X73.302 Y35.386 E0.52694
G1 X72.993 Y35.611 E0.01201
G1 X60.902 Y23.520 E0.53692
G1 X60.368 Y23.520 E0.01677
G1 X72.684 Y35.835 E0.54690
G1 X72.374 Y36.060 E0.01201
G1 X59.834 Y23.520 E0.55688
G1 X59.300 Y23.520 E0.01677
G1 X72.065 Y36.285 E0.56686
G1 X71.756 Y36.510 E0.01201
G1 X58.766 Y23.520 E0.57684
M73 Q0 S320
G1 X58.232 Y23.520 E0.01677
G1 X71.604 Y36.892 E0.59384
G1 X71.473 Y37.296 E0.01331
G1 X57.698 Y23.520 E0.61174
G1 X57.164 Y23.520 E0.01677
G1 X71.342 Y37.699 E0.62964
G1 X71.211 Y38.102 E0.01331
G1 X56.630 Y23.520 E0.64754
G1 X56.096 Y23.520 E0.01677
G1 X71.080 Y38.505 E0.66544
G1 X70.950 Y38.908 E0.01331
G1 X55.561 Y23.520 E0.68334
G1 X55.027 Y23.520 E0.01677
G1 X71.156 Y39.649 E0.71624
G1 X71.413 Y40.440 E0.02612
G1 X54.324 Y23.350 E0.75891
;WIPE_START
G1 F8640.000
G1 X56.651 Y25.678 E-0.76000
;WIPE_END
G1 E-0.04000 F2100.000
G1 Z0.600 F10800.000
G1 X78.486 Y37.365
G1 Z0.200
G1 E0.80000 F2100.000
G1 F1200.000
G1 X91.768 Y50.647 E0.58981
G1 X91.768 Y51.181 E0.01677
G1 X79.007 Y38.421 E0.56666
G1 X79.182 Y38.960 E0.01781
G1 X79.141 Y39.088 E0.00423
G1 X91.768 Y51.715 E0.56073
G1 X91.768 Y52.249 E0.01677
G1 X79.010 Y39.491 E0.56654
G1 X78.879 Y39.894 E0.01331
G1 X91.768 Y52.783 E0.57236
G1 X91.768 Y53.317 E0.01677
G1 X78.748 Y40.298 E0.57817
G1 X78.617 Y40.701 E0.01331
G1 X91.768 Y53.851 E0.58399
G1 X91.768 Y54.385 E0.01677
G1 X78.486 Y41.104 E0.58980
G1 X78.395 Y41.385 E0.00927
G1 X78.301 Y41.453 E0.00364
G1 X91.768 Y54.919 E0.59802
G1 X91.768 Y55.454 E0.01677
G1 X77.992 Y41.677 E0.61176
G1 X77.682 Y41.902 E0.01201
G1 X91.768 Y55.988 E0.62549
G1 X91.768 Y56.522 E0.01677
G1 X77.373 Y42.127 E0.63923
G1 X77.064 Y42.352 E0.01201
G1 X91.768 Y57.056 E0.65297
G1 X91.768 Y57.590 E0.01677
M73 P1 R305
G1 X76.754 Y42.576 E0.66670
G1 X76.445 Y42.801 E0.01201
G1 X91.768 Y58.124 E0.68044
G1 X91.768 Y58.658 E0.01677
G1 X75.993 Y42.883 E0.70052
G1 X75.459 Y42.883 E0.01677
G1 X91.768 Y59.192 E0.72423
M73 P1 R304
G1 X91.768 Y59.726 E0.01677
G1 X74.925 Y42.883 E0.74795
G1 X74.391 Y42.883 E0.01677
G1 X91.768 Y60.260 E0.77167
G1 X91.768 Y60.794 E0.01677
G1 X73.286 Y42.312 E0.82074
;WIPE_START
G1 F8640.000
G1 X75.613 Y44.639 E-0.76000
;WIPE_END
G1 E-0.04000 F2100.000
G1 Z0.600 F10800.000
G1 X91.937 Y61.498
M73 Q1 S320
G1 Z0.200
G1 E0.80000 F2100.000
G1 F1200.000
G1 X53.959 Y23.520 E1.68650
G1 X53.425 Y23.520 E0.01677
G1 X91.768 Y61.862 E1.70268
G1 X91.768 Y62.396 E0.01677
G1 X52.891 Y23.520 E1.72640
G1 X52.357 Y23.520 E0.01677
G1 X91.768 Y62.930 E1.75012
G1 X91.768 Y63.464 E0.01677
G1 X51.823 Y23.520 E1.77383
G1 X51.289 Y23.520 E0.01677
G1 X91.768 Y63.999 E1.79755
G1 X91.768 Y64.533 E0.01677
G1 X50.755 Y23.520 E1.82127
G1 X50.221 Y23.520 E0.01677
G1 X91.768 Y65.067 E1.84498
G1 X91.768 Y65.601 E0.01677
G1 X49.687 Y23.520 E1.86870
G1 X49.153 Y23.520 E0.01677
G1 X91.768 Y66.135 E1.89241
M73 Q1 S319
G1 X91.768 Y66.669 E0.01677
G1 X48.619 Y23.520 E1.91613
G1 X48.085 Y23.520 E0.01677
G1 X91.768 Y67.203 E1.93985
G1 X91.768 Y67.737 E0.01677
G1 X47.551 Y23.520 E1.96356
G1 X47.017 Y23.520 E0.01677
G1 X91.768 Y68.271 E1.98728
G1 X91.768 Y68.805 E0.01677
G1 X46.482 Y23.520 E2.01099
G1 X45.948 Y23.520 E0.01677
G1 X91.768 Y69.339 E2.03471
G1 X91.768 Y69.873 E0.01677
G1 X45.414 Y23.520 E2.05843
G1 X44.880 Y23.520 E0.01677
G1 X91.768 Y70.407 E2.08214
G1 X91.768 Y70.941 E0.01677
G1 X44.346 Y23.520 E2.10586
M73 P1 R303
G1 X43.812 Y23.520 E0.01677
G1 X91.768 Y71.475 E2.12958
G1 X91.768 Y72.009 E0.01677
G1 X43.278 Y23.520 E2.15329
G1 X42.744 Y23.520 E0.01677
G1 X91.768 Y72.543 E2.17701
G1 X91.768 Y73.078 E0.01677
G1 X42.210 Y23.520 E2.20072
G1 X41.676 Y23.520 E0.01677
G1 X91.768 Y73.612 E2.22444
G1 X91.768 Y74.146 E0.01677
G1 X41.142 Y23.520 E2.24816
G1 X40.608 Y23.520 E0.01677
G1 X91.768 Y74.680 E2.27187
G1 X91.768 Y75.214 E0.01677
G1 X40.074 Y23.520 E2.29559
G1 X39.540 Y23.520 E0.01677
G1 X91.768 Y75.748 E2.31931
M73 Q1 S318
G1 X91.768 Y76.282 E0.01677
G1 X39.006 Y23.520 E2.34302
G1 X38.472 Y23.520 E0.01677
G1 X91.768 Y76.816 E2.36674
G1 X91.768 Y77.350 E0.01677
G1 X37.937 Y23.520 E2.39045
G1 X37.403 Y23.520 E0.01677
G1 X91.768 Y77.884 E2.41417
G1 X91.768 Y78.418 E0.01677
G1 X36.869 Y23.520 E2.43789
G1 X36.335 Y23.520 E0.01677
G1 X91.768 Y78.952 E2.46160
G1 X91.768 Y79.486 E0.01677
G1 X35.801 Y23.520 E2.48532
M73 P1 R302
G1 X35.267 Y23.520 E0.01677
G1 X91.768 Y80.020 E2.50904
G1 X91.768 Y80.554 E0.01677
G1 X34.733 Y23.520 E2.53275
G1 X34.199 Y23.520 E0.01677
G1 X91.768 Y81.088 E2.55647
G1 X91.768 Y81.623 E0.01677
G1 X33.665 Y23.520 E2.58018
G1 X33.131 Y23.520 E0.01677
G1 X91.768 Y82.157 E2.60390
G1 X91.768 Y82.691 E0.01677
G1 X32.597 Y23.520 E2.62762
G1 X32.063 Y23.520 E0.01677
G1 X91.768 Y83.225 E2.65133
G1 X91.768 Y83.759 E0.01677
G1 X31.529 Y23.520 E2.67505
M73 Q1 S317
G1 X30.995 Y23.520 E0.01677
G1 X91.768 Y84.293 E2.69877
G1 X91.768 Y84.827 E0.01677
G1 X30.461 Y23.520 E2.72248
G1 X29.927 Y23.520 E0.01677
G1 X91.768 Y85.361 E2.74620
G1 X91.768 Y85.895 E0.01677
G1 X29.392 Y23.520 E2.76991
G1 X28.858 Y23.520 E0.01677
G1 X91.768 Y86.429 E2.79363
G1 X91.768 Y86.963 E0.01677
G1 X28.324 Y23.520 E2.81735
M73 P2 R301
G1 X27.790 Y23.520 E0.01677
G1 X91.768 Y87.497 E2.84106
G1 X91.768 Y88.031 E0.01677
G1 X27.256 Y23.520 E2.86478
G1 X26.722 Y23.520 E0.01677
G1 X91.768 Y88.565 E2.88849
G1 X91.768 Y89.099 E0.01677
G1 X26.188 Y23.520 E2.91221
M73 Q2 S317
G1 X25.654 Y23.520 E0.01677
G1 X91.768 Y89.633 E2.93593
G1 X91.768 Y90.167 E0.01677
G1 X25.120 Y23.520 E2.95964
G1 X24.586 Y23.520 E0.01677
G1 X91.768 Y90.702 E2.98336
M73 Q2 S316
G1 X91.768 Y91.236 E0.01677
G1 X24.052 Y23.520 E3.00708
G1 X23.518 Y23.520 E0.01677
G1 X91.768 Y91.770 E3.03079
G1 X91.768 Y92.304 E0.01677
G1 X22.984 Y23.520 E3.05451
G1 X22.450 Y23.520 E0.01677
G1 X91.768 Y92.838 E3.07822
G1 X91.768 Y93.372 E0.01677
G1 X21.916 Y23.520 E3.10194
G1 X21.382 Y23.520 E0.01677
G1 X91.768 Y93.906 E3.12566
M73 P2 R300
G1 X91.768 Y94.440 E0.01677
G1 X20.848 Y23.520 E3.14937
G1 X20.313 Y23.520 E0.01677
G1 X91.768 Y94.974 E3.17309
G1 X91.768 Y95.508 E0.01677
G1 X19.779 Y23.520 E3.19681
G1 X19.245 Y23.520 E0.01677
G1 X91.768 Y96.042 E3.22052
G1 X91.768 Y96.576 E0.01677
G1 X18.711 Y23.520 E3.24424
G1 X18.177 Y23.520 E0.01677
G1 X91.768 Y97.110 E3.26795
M73 Q2 S315
G1 X91.768 Y97.644 E0.01677
G1 X17.643 Y23.520 E3.29167
G1 X17.109 Y23.520 E0.01677
G1 X91.768 Y98.178 E3.31539
G1 X91.768 Y98.712 E0.01677
G1 X16.575 Y23.520 E3.33910
G1 X16.041 Y23.520 E0.01677
G1 X91.768 Y99.247 E3.36282
G1 X91.768 Y99.781 E0.01677
G1 X15.507 Y23.520 E3.38654
M73 P2 R299
G1 X14.973 Y23.520 E0.01677
G1 X91.768 Y100.315 E3.41025
G1 X91.768 Y100.849 E0.01677
G1 X14.439 Y23.520 E3.43397
G1 X13.905 Y23.520 E0.01677
G1 X91.768 Y101.383 E3.45768
G1 X91.768 Y101.917 E0.01677
G1 X13.371 Y23.520 E3.48140
G1 X12.837 Y23.520 E0.01677
G1 X91.768 Y102.451 E3.50512
G1 X91.768 Y102.985 E0.01677
G1 X12.303 Y23.520 E3.52883
M73 Q2 S314
G1 X11.768 Y23.520 E0.01677
G1 X91.768 Y103.519 E3.55255
G1 X91.768 Y104.053 E0.01677
G1 X11.234 Y23.520 E3.57627
G1 X10.700 Y23.520 E0.01677
G1 X91.768 Y104.587 E3.59998
G1 X91.768 Y105.121 E0.01677
G1 X10.166 Y23.520 E3.62370
G1 X9.632 Y23.520 E0.01677
G1 X91.768 Y105.655 E3.64741
M73 P2 R298
G1 X91.768 Y106.189 E0.01677
G1 X9.098 Y23.520 E3.67113
M73 P3 R298
G1 X8.564 Y23.520 E0.01677
G1 X91.768 Y106.723 E3.69485
G1 X91.768 Y107.257 E0.01677
G1 X8.030 Y23.520 E3.71856
G1 X7.496 Y23.520 E0.01677
G1 X91.768 Y107.791 E3.74228
G1 X91.768 Y108.326 E0.01677
G1 X6.962 Y23.520 E3.76599
M73 Q3 S313
G1 X6.428 Y23.520 E0.01677
G1 X91.768 Y108.860 E3.78971
G1 X91.768 Y109.394 E0.01677
G1 X5.894 Y23.520 E3.81343
G1 X5.360 Y23.520 E0.01677
G1 X91.768 Y109.928 E3.83714
G1 X91.768 Y110.462 E0.01677
G1 X5.007 Y23.702 E3.85279
G1 X5.007 Y24.236 E0.01677
G1 X91.768 Y110.996 E3.85279
M73 P3 R297
G1 X91.768 Y111.530 E0.01677
G1 X5.007 Y24.770 E3.85279
G1 X5.007 Y25.304 E0.01677
G1 X91.768 Y112.064 E3.85279
G1 X91.768 Y112.598 E0.01677
G1 X5.007 Y25.838 E3.85279
G1 X5.007 Y26.372 E0.01677
G1 X91.768 Y113.132 E3.85279
G1 X91.768 Y113.666 E0.01677
G1 X5.007 Y26.906 E3.85279
M73 Q3 S312
G1 X5.007 Y27.440 E0.01677
G1 X91.768 Y114.200 E3.85279
G1 X91.768 Y114.734 E0.01677
G1 X5.007 Y27.974 E3.85279
G1 X5.007 Y28.508 E0.01677
G1 X91.768 Y115.268 E3.85279
G1 X91.768 Y115.802 E0.01677
G1 X5.007 Y29.042 E3.85279
M73 P3 R296
G1 X5.007 Y29.576 E0.01677
G1 X91.768 Y116.336 E3.85279
G1 X91.768 Y116.871 E0.01677
G1 X5.007 Y30.110 E3.85279
G1 X5.007 Y30.644 E0.01677
G1 X91.768 Y117.405 E3.85279
G1 X91.768 Y117.939 E0.01677
G1 X5.007 Y31.178 E3.85279
G1 X5.007 Y31.712 E0.01677
G1 X91.768 Y118.473 E3.85279
G1 X91.768 Y119.007 E0.01677
