; generated by PrusaSlicer 2.3.1+win64 on 2021-06-23 at 01:03:15 UTC

; 

; external perimeters extrusion width = 0.45mm
; perimeters extrusion width = 0.45mm
; infill extrusion width = 0.45mm
; solid infill extrusion width = 0.45mm
; top infill extrusion width = 0.40mm
; first layer extrusion width = 0.42mm

M73 P0 R47
M73 Q0 S47
M201 X1000 Y1000 Z200 E5000 ; sets maximum accelerations, mm/sec^2
M203 X200 Y200 Z12 E120 ; sets maximum feedrates, mm/sec
M204 P1250 R1250 T1250 ; sets acceleration (P, T) and retract acceleration (R), mm/sec^2
M205 X8.00 Y8.00 Z0.40 E4.50 ; sets the jerk limits, mm/sec
M205 S0 T0 ; sets the minimum extruding and travel feed rate, mm/sec
M107
;TYPE:Custom
M862.3 P "MK3S" ; printer model check
M862.1 P0.4 ; nozzle diameter check
M115 U3.9.3 ; tell printer latest fw version
G90 ; use absolute coordinates
M83 ; extruder relative mode
M104 S215 ; set extruder temp
M140 S60 ; set bed temp
M190 S60 ; wait for bed temp
M109 S215 ; wait for extruder temp
G28 W ; home all without mesh bed level
G80 ; mesh bed leveling
G1 Y-3.0 F1000.0 ; go outside print area
G92 E0.0
G1 X60.0 E9.0 F1000.0 ; intro line
G1 X100.0 E12.5 F1000.0 ; intro line
G92 E0.0
M221 S95

; Don't change E values below. Excessive value can damage the printer.
M907 E430 ; set extruder motor current
G21 ; set units to millimeters
G90 ; use absolute coordinates
M83 ; use relative distances for extrusion
M900 K0.05 ; Filament gcode LA 1.5
M900 K30 ; Filament gcode LA 1.0
;LAYER_CHANGE
;Z:0.2
;HEIGHT:0.2
;BEFORE_LAYER_CHANGE
G92 E0.0
;0.2


G1 E-0.80000 F2100.000
G1 Z0.400 F10800.000
;AFTER_LAYER_CHANGE
;0.2
G1 X80.703 Y97.215
G1 Z0.200
G1 E0.80000 F2100.000
M204 S1000
;TYPE:Skirt
;WIDTH:0.42
G1 F1200.000
G1 X81.961 Y96.247 E0.04978
G1 X83.385 Y95.329 E0.05312
G1 X84.962 Y94.501 E0.05586
G1 X86.495 Y93.864 E0.05205
G1 X88.139 Y93.343 E0.05408
G1 X89.789 Y92.977 E0.05300
G1 X91.465 Y92.756 E0.05300
G1 X93.108 Y92.682 E0.05157
G1 X143.163 Y92.682 E1.56941
G1 X144.854 Y92.756 E0.05309
G1 X146.620 Y92.995 E0.05586
G1 X148.173 Y93.342 E0.04990
G1 X149.688 Y93.817 E0.04977
G1 X151.288 Y94.470 E0.05420
G1 X172.922 Y105.409 E0.76009
G1 X173.994 Y106.039 E0.03898
G1 X175.004 Y106.904 E0.04171
G1 X176.063 Y108.281 E0.05446
G1 X176.652 Y109.512 E0.04279
G1 X176.996 Y110.792 E0.04155
G1 X177.104 Y112.149 E0.04270
G1 X176.877 Y113.875 E0.05456
G1 X176.418 Y115.169 E0.04306
G1 X175.748 Y116.323 E0.04184
G1 X175.315 Y116.875 E0.02199
G1 X174.537 Y117.652 E0.03447
G1 X173.365 Y118.477 E0.04495
G1 X151.344 Y129.622 E0.77383
G1 X149.780 Y130.269 E0.05309
G1 X148.079 Y130.799 E0.05587
G1 X146.524 Y131.141 E0.04989
G1 X144.951 Y131.351 E0.04978
G1 X143.217 Y131.435 E0.05443
G1 X93.147 Y131.436 E1.56989
M73 P0 R46
G1 X91.467 Y131.362 E0.05274
G1 X89.772 Y131.137 E0.05360
G1 X88.148 Y130.777 E0.05217
G1 X86.630 Y130.300 E0.04989
G1 X84.970 Y129.620 E0.05623
G1 X83.382 Y128.786 E0.05627
G1 X82.039 Y127.928 E0.04996
G1 X80.704 Y126.903 E0.05276
G1 X79.460 Y125.763 E0.05289
G1 X78.383 Y124.592 E0.04989
G1 X77.286 Y123.174 E0.05622
G1 X76.328 Y121.656 E0.05627
G1 X75.596 Y120.245 E0.04985
G1 X74.964 Y118.723 E0.05169
G1 X74.442 Y117.075 E0.05420
G1 X74.076 Y115.421 E0.05312
G1 X73.855 Y113.741 E0.05312
G1 X73.784 Y111.955 E0.05604
G1 X73.855 Y110.370 E0.04973
G1 X74.060 Y108.796 E0.04978
G1 X74.419 Y107.137 E0.05324
G1 X74.947 Y105.439 E0.05573
G1 X75.595 Y103.874 E0.05313
G1 X76.377 Y102.371 E0.05312
G1 X77.290 Y100.939 E0.05323
G1 X78.319 Y99.598 E0.05300
G1 X79.532 Y98.285 E0.05604
G1 X80.658 Y97.256 E0.04784
;WIPE_START
G1 F8640.000
G1 X81.961 Y96.247 E-0.38042
G1 X83.343 Y95.357 E-0.37958
;WIPE_END
G1 E-0.04000 F2100.000
G1 Z0.600 F10800.000
G1 X95.170 Y90.439
G1 Z0.200
G1 E0.80000 F2100.000
G1 F1200.000
G1 X93.277 Y90.346 E0.05941
G1 X91.331 Y90.422 E0.06107
G1 X89.397 Y90.674 E0.06114
G1 X87.493 Y91.097 E0.06114
G1 X85.625 Y91.694 E0.06150
G1 X83.973 Y92.384 E0.05614
G1 X82.384 Y93.207 E0.05611
G1 X80.785 Y94.216 E0.05927
G1 X79.277 Y95.362 E0.05939
G1 X77.874 Y96.636 E0.05942
G1 X76.554 Y98.067 E0.06104
G1 X75.367 Y99.613 E0.06112
G1 X74.322 Y101.258 E0.06112
G1 X73.430 Y102.989 E0.06105
G1 X72.716 Y104.740 E0.05928
G1 X72.183 Y106.447 E0.05606
G1 X71.795 Y108.176 E0.05557
G1 X71.539 Y110.048 E0.05924
G1 X71.446 Y111.940 E0.05941
G1 X71.523 Y113.887 E0.06107
G1 X71.774 Y115.820 E0.06114
G1 X72.198 Y117.724 E0.06114
G1 X72.794 Y119.592 E0.06150
G1 X73.484 Y121.244 E0.05614
G1 X74.307 Y122.833 E0.05611
G1 X75.316 Y124.432 E0.05928
G1 X76.462 Y125.940 E0.05939
G1 X77.736 Y127.343 E0.05941
G1 X79.166 Y128.662 E0.06101
G1 X80.697 Y129.840 E0.06056
G1 X82.341 Y130.885 E0.06109
G1 X84.071 Y131.779 E0.06104
G1 X85.826 Y132.496 E0.05946
G1 X87.653 Y133.062 E0.05996
G1 X89.499 Y133.461 E0.05921
G1 X91.240 Y133.687 E0.05503
G1 X93.005 Y133.770 E0.05541
G1 X94.962 Y133.697 E0.06141
G1 X96.917 Y133.444 E0.06181
G1 X98.823 Y133.020 E0.06120
G1 X100.696 Y132.422 E0.06166
G1 X102.562 Y131.624 E0.06364
G1 X103.277 Y131.247 F10800.000
G1 F1200.000
G1 X104.118 Y130.803 E0.02982
G1 X105.706 Y129.779 E0.05925
G1 X107.122 Y128.687 E0.05607
G1 X108.432 Y127.492 E0.05559
G1 X109.750 Y126.065 E0.06091
G1 X110.940 Y124.521 E0.06111
G1 X111.985 Y122.876 E0.06110
G1 X112.879 Y121.146 E0.06105
G1 X113.597 Y119.391 E0.05946
G1 X114.163 Y117.564 E0.05996
G1 X114.562 Y115.718 E0.05921
G1 X114.787 Y113.978 E0.05503
G1 X114.870 Y112.213 E0.05541
G1 X114.797 Y110.255 E0.06141
G1 X114.547 Y108.317 E0.06128
G1 X114.120 Y106.395 E0.06173
G1 X113.523 Y104.525 E0.06154
G1 X112.833 Y102.873 E0.05615
G1 X112.010 Y101.284 E0.05611
G1 X111.002 Y99.685 E0.05927
G1 X109.855 Y98.177 E0.05939
G1 X108.581 Y96.774 E0.05942
G1 X107.150 Y95.454 E0.06104
G1 X105.605 Y94.266 E0.06112
G1 X103.959 Y93.222 E0.06112
G1 X103.277 Y92.870 E0.02406
G1 X102.545 Y92.493 F10800.000
G1 F1200.000
G1 X102.228 Y92.330 E0.01118
G1 X100.478 Y91.616 E0.05928
G1 X98.786 Y91.087 E0.05558
G1 X97.042 Y90.695 E0.05605
G1 X95.170 Y90.439 E0.05924
;WIPE_START
G1 F8640.000
G1 X97.042 Y90.695 E-0.43629
G1 X98.409 Y91.003 E-0.32371
;WIPE_END
G1 E-0.04000 F2100.000
G1 Z0.600 F10800.000
G1 X93.267 Y90.723
G1 Z0.200
G1 E0.80000 F2100.000
G1 F1200.000
G1 X91.354 Y90.799 E0.06002
G1 X89.454 Y91.046 E0.06008
G1 X87.584 Y91.464 E0.06008
G1 X85.763 Y92.045 E0.05994
G1 X84.125 Y92.729 E0.05564
G1 X82.565 Y93.538 E0.05512
G1 X80.994 Y94.530 E0.05826
G1 X79.512 Y95.657 E0.05836
G1 X78.134 Y96.909 E0.05838
M73 Q1 S47
G1 X76.837 Y98.316 E0.06000
G1 X75.680 Y99.822 E0.05953
M73 P1 R46
G1 X74.653 Y101.439 E0.06006
G1 X73.776 Y103.140 E0.06000
G1 X73.073 Y104.860 E0.05827
G1 X72.549 Y106.537 E0.05508
G1 X72.165 Y108.251 E0.05507
G1 X71.913 Y110.091 E0.05823
G1 X71.823 Y111.950 E0.05837
G1 X71.899 Y113.863 E0.06002
G1 X72.147 Y115.763 E0.06008
G1 X72.564 Y117.633 E0.06008
G1 X73.145 Y119.454 E0.05994
G1 X73.823 Y121.078 E0.05515
G1 X74.638 Y122.653 E0.05562
G1 X75.630 Y124.224 E0.05826
G1 X76.757 Y125.705 E0.05836
G1 X78.009 Y127.083 E0.05837
G1 X79.416 Y128.379 E0.05997
G1 X80.920 Y129.536 E0.05951
G1 X82.537 Y130.563 E0.06003
G1 X84.222 Y131.433 E0.05947
G1 X85.946 Y132.139 E0.05842
G1 X87.741 Y132.696 E0.05893
G1 X89.555 Y133.088 E0.05820
G1 X91.280 Y133.312 E0.05454
G1 X93.014 Y133.393 E0.05443
G1 X94.939 Y133.320 E0.06040
G1 X96.844 Y133.074 E0.06021
G1 X98.716 Y132.658 E0.06014
G1 X100.558 Y132.071 E0.06061
G1 X101.621 Y131.624 E0.03617
G1 X102.469 Y131.247 F10800.000
G1 F1200.000
G1 X103.921 Y130.482 E0.05146
G1 X105.483 Y129.476 E0.05824
G1 X106.874 Y128.403 E0.05509
G1 X108.172 Y127.219 E0.05509
G1 X109.468 Y125.816 E0.05988
G1 X110.636 Y124.298 E0.06005
G1 X111.654 Y122.696 E0.05952
G1 X112.533 Y120.996 E0.06000
G1 X113.239 Y119.271 E0.05842
G1 X113.796 Y117.476 E0.05893
G1 X114.189 Y115.662 E0.05820
G1 X114.412 Y113.937 E0.05454
G1 X114.493 Y112.203 E0.05443
G1 X114.421 Y110.278 E0.06040
G1 X114.174 Y108.374 E0.06021
G1 X113.759 Y106.501 E0.06014
G1 X113.172 Y104.663 E0.06051
G1 X112.488 Y103.025 E0.05564
G1 X111.679 Y101.464 E0.05512
G1 X110.687 Y99.893 E0.05826
G1 X109.560 Y98.412 E0.05836
G1 X108.308 Y97.034 E0.05838
G1 X106.901 Y95.737 E0.06000
G1 X105.395 Y94.580 E0.05953
G1 X103.779 Y93.553 E0.06006
G1 X102.455 Y92.870 E0.04669
G1 X101.631 Y92.493 F10800.000
G1 F1200.000
G1 X100.357 Y91.973 E0.04313
M73 Q1 S46
G1 X98.681 Y91.449 E0.05508
G1 X96.967 Y91.065 E0.05507
G1 X95.127 Y90.813 E0.05823
G1 X93.267 Y90.723 E0.05838
;WIPE_START
G1 F8640.000
G1 X95.127 Y90.813 E-0.42991
G1 X96.543 Y91.007 E-0.33009
;WIPE_END
G1 E-0.04000 F2100.000
G1 Z0.600 F10800.000
G1 X95.084 Y91.188
G1 Z0.200
G1 E0.80000 F2100.000
G1 F1200.000
G1 X93.257 Y91.100 E0.05734
G1 X91.378 Y91.175 E0.05897
G1 X89.528 Y91.416 E0.05850
G1 X87.690 Y91.825 E0.05902
G1 X85.900 Y92.396 E0.05890
G1 X84.292 Y93.067 E0.05464
G1 X82.745 Y93.869 E0.05462
G1 X81.202 Y94.845 E0.05725
G1 X79.747 Y95.952 E0.05733
G1 X78.394 Y97.183 E0.05734
G1 X77.120 Y98.566 E0.05895
G1 X75.984 Y100.045 E0.05848
G1 X74.984 Y101.619 E0.05848
G1 X74.122 Y103.290 E0.05896
G1 X73.431 Y104.980 E0.05725
G1 X72.916 Y106.627 E0.05410
G1 X72.535 Y108.325 E0.05457
G1 X72.288 Y110.133 E0.05722
G1 X72.200 Y111.960 E0.05734
G1 X72.275 Y113.839 E0.05897
G1 X72.519 Y115.706 E0.05902
G1 X72.926 Y117.527 E0.05850
G1 X73.496 Y119.317 E0.05891
G1 X74.168 Y120.925 E0.05465
G1 X74.969 Y122.472 E0.05463
G1 X75.945 Y124.015 E0.05725
G1 X77.052 Y125.470 E0.05733
G1 X78.283 Y126.823 E0.05734
G1 X79.652 Y128.086 E0.05840
G1 X81.130 Y129.222 E0.05845
G1 X82.717 Y130.232 E0.05898
G1 X84.372 Y131.087 E0.05842
G1 X86.066 Y131.781 E0.05739
G1 X87.829 Y132.329 E0.05789
G1 X89.612 Y132.716 E0.05720
G1 X91.306 Y132.936 E0.05356
G1 X93.024 Y133.016 E0.05393
G1 X94.900 Y132.945 E0.05885
G1 X96.770 Y132.704 E0.05915
G1 X98.610 Y132.296 E0.05907
G1 X100.420 Y131.720 E0.05955
G1 X100.648 Y131.624 E0.00777
G1 X101.546 Y131.247 F10800.000
G1 F1200.000
G1 X102.106 Y131.012 E0.01903
G1 X103.724 Y130.160 E0.05732
G1 X105.259 Y129.172 E0.05723
G1 X106.637 Y128.109 E0.05459
G1 X107.912 Y126.946 E0.05411
G1 X109.185 Y125.566 E0.05886
G1 X110.322 Y124.088 E0.05848
G1 X111.323 Y122.515 E0.05847
G1 X112.187 Y120.845 E0.05895
G1 X112.881 Y119.151 E0.05739
G1 X113.429 Y117.388 E0.05789
G1 X113.816 Y115.605 E0.05720
G1 X114.036 Y113.912 E0.05356
G1 X114.116 Y112.193 E0.05393
G1 X114.045 Y110.318 E0.05885
G1 X113.804 Y108.447 E0.05915
G1 X113.397 Y106.608 E0.05907
G1 X112.821 Y104.800 E0.05947
G1 X112.150 Y103.192 E0.05465
G1 X111.348 Y101.645 E0.05462
G1 X110.373 Y100.102 E0.05725
G1 X109.265 Y98.647 E0.05733
G1 X108.035 Y97.294 E0.05734
G1 X106.652 Y96.020 E0.05895
G1 X105.173 Y94.884 E0.05848
G1 X103.598 Y93.884 E0.05848
G1 X101.927 Y93.022 E0.05896
G1 X101.557 Y92.871 E0.01254
G1 X100.635 Y92.493 F10800.000
G1 F1200.000
G1 X100.237 Y92.331 E0.01348
G1 X98.591 Y91.816 E0.05410
G1 X96.892 Y91.435 E0.05457
G1 X95.084 Y91.188 E0.05722
;WIPE_START
G1 F8640.000
G1 X96.892 Y91.435 E-0.42140
G1 X98.323 Y91.756 E-0.33860
;WIPE_END
G1 E-0.04000 F2100.000
G1 Z0.600 F10800.000
G1 X93.248 Y91.477
G1 Z0.200
G1 E0.80000 F2100.000
G1 F1200.000
G1 X91.402 Y91.552 E0.05793
G1 X89.585 Y91.789 E0.05744
G1 X87.797 Y92.187 E0.05745
G1 X86.038 Y92.747 E0.05787
G1 X84.444 Y93.412 E0.05414
G1 X82.926 Y94.200 E0.05363
G1 X81.410 Y95.159 E0.05623
G1 X79.982 Y96.247 E0.05630
G1 X78.654 Y97.456 E0.05631
G1 X77.414 Y98.802 E0.05738
G1 X76.298 Y100.254 E0.05743
G1 X75.316 Y101.800 E0.05742
G1 X74.468 Y103.441 E0.05791
G1 X73.788 Y105.101 E0.05624
G1 X73.278 Y106.732 E0.05360
G1 X72.905 Y108.400 E0.05358
G1 X72.663 Y110.176 E0.05621
G1 X72.577 Y111.970 E0.05631
G1 X72.650 Y113.799 E0.05740
G1 X72.889 Y115.632 E0.05796
G1 X73.287 Y117.420 E0.05744
G1 X73.848 Y119.179 E0.05787
G1 X74.512 Y120.773 E0.05414
G1 X75.300 Y122.291 E0.05363
G1 X76.259 Y123.807 E0.05624
G1 X77.347 Y125.235 E0.05630
G1 X78.556 Y126.563 E0.05630
G1 X79.902 Y127.802 E0.05736
G1 X81.353 Y128.918 E0.05740
G1 X82.898 Y129.901 E0.05740
G1 X84.523 Y130.741 E0.05738
G1 X86.186 Y131.424 E0.05635
G1 X87.917 Y131.962 E0.05686
G1 X89.668 Y132.343 E0.05618
G1 X91.347 Y132.561 E0.05306
G1 X93.033 Y132.639 E0.05295
G1 X94.877 Y132.569 E0.05783
G1 X96.714 Y132.331 E0.05808
G1 X98.520 Y131.930 E0.05801
G1 X99.481 Y131.624 E0.03162
;WIPE_START
G1 F8640.000
G1 X98.520 Y131.930 E-0.23284
G1 X96.714 Y132.331 E-0.42722
G1 X96.284 Y132.387 E-0.09993
;WIPE_END
G1 E-0.04000 F2100.000
G1 Z0.600 F10800.000
G1 X100.572 Y131.247
G1 Z0.200
G1 E0.80000 F2100.000
G1 F1200.000
G1 X101.938 Y130.674 E0.04642
G1 X103.527 Y129.839 E0.05629
G1 X105.035 Y128.869 E0.05622
G1 X106.389 Y127.825 E0.05360
G1 X107.652 Y126.673 E0.05360
G1 X108.902 Y125.317 E0.05783
G1 X110.018 Y123.865 E0.05742
G1 X111.001 Y122.320 E0.05742
G1 X111.842 Y120.694 E0.05739
G1 X112.524 Y119.031 E0.05635
G1 X113.062 Y117.300 E0.05686
G1 X113.443 Y115.549 E0.05618
G1 X113.661 Y113.871 E0.05306
G1 X113.739 Y112.184 E0.05295
G1 X113.669 Y110.341 E0.05783
G1 X113.432 Y108.504 E0.05808
G1 X113.030 Y106.698 E0.05801
G1 X112.470 Y104.938 E0.05790
G1 X111.805 Y103.344 E0.05414
G1 X111.017 Y101.826 E0.05363
G1 X110.059 Y100.310 E0.05623
G1 X108.970 Y98.882 E0.05630
G1 X107.761 Y97.554 E0.05631
G1 X106.415 Y96.314 E0.05738
G1 X104.963 Y95.198 E0.05743
G1 X103.417 Y94.215 E0.05742
G1 X101.777 Y93.368 E0.05791
G1 X100.562 Y92.871 E0.04115
;WIPE_START
G1 F8640.000
G1 X101.777 Y93.368 E-0.30301
G1 X103.417 Y94.215 E-0.42645
G1 X103.529 Y94.286 E-0.03053
;WIPE_END
G1 E-0.04000 F2100.000
G1 Z0.600 F10800.000
G1 X99.494 Y92.493
G1 Z0.200
G1 E0.80000 F2100.000
G1 F1200.000
G1 X98.485 Y92.178 E0.03315
G1 X96.818 Y91.804 E0.05358
G1 X95.041 Y91.563 E0.05621
G1 X93.248 Y91.477 E0.05631
;WIPE_START
G1 F8640.000
G1 X95.041 Y91.563 E-0.41467
G1 X96.523 Y91.764 E-0.34533
;WIPE_END
G1 E-0.04000 F2100.000
G1 Z0.600 F10800.000
G1 X94.999 Y91.938
G1 Z0.200
G1 E0.80000 F2100.000
G1 F1200.000
G1 X93.238 Y91.854 E0.05528
G1 X91.442 Y91.927 E0.05636
G1 X89.658 Y92.159 E0.05639
G1 X87.903 Y92.549 E0.05639
G1 X86.175 Y93.099 E0.05683
G1 X84.611 Y93.751 E0.05314
G1 X83.107 Y94.531 E0.05313
G1 X81.619 Y95.473 E0.05522
G1 X80.218 Y96.542 E0.05527
G1 X78.914 Y97.729 E0.05528
G1 X77.697 Y99.051 E0.05634
G1 X76.602 Y100.477 E0.05638
G1 X75.638 Y101.995 E0.05637
G1 X74.814 Y103.591 E0.05634
G1 X74.146 Y105.221 E0.05522
G1 X73.644 Y106.822 E0.05260
G1 X73.274 Y108.474 E0.05308
G1 X73.038 Y110.219 E0.05519
G1 X72.954 Y111.979 E0.05527
G1 X73.027 Y113.775 E0.05636
G1 X73.259 Y115.559 E0.05638
G1 X73.649 Y117.314 E0.05639
G1 X74.199 Y119.042 E0.05684
G1 X74.851 Y120.606 E0.05314
G1 X75.631 Y122.110 E0.05313
G1 X76.573 Y123.598 E0.05522
G1 X77.642 Y125.000 E0.05527
G1 X78.829 Y126.303 E0.05527
G1 X80.138 Y127.509 E0.05580
G1 X81.563 Y128.605 E0.05635
G1 X83.079 Y129.570 E0.05635
G1 X84.674 Y130.396 E0.05633
G1 X86.306 Y131.066 E0.05531
G1 X88.006 Y131.595 E0.05582
G1 X89.725 Y131.970 E0.05518
G1 X91.372 Y132.184 E0.05207
G1 X93.043 Y132.262 E0.05245
G1 X94.854 Y132.192 E0.05682
G1 X96.640 Y131.961 E0.05649
G1 X98.162 Y131.624 E0.04886
;WIPE_START
G1 F8640.000
G1 X96.640 Y131.961 E-0.35981
G1 X94.921 Y132.184 E-0.40019
;WIPE_END
G1 E-0.04000 F2100.000
G1 Z0.600 F10800.000
G1 X99.423 Y131.247
G1 Z0.200
G1 E0.80000 F2100.000
G1 F1200.000
G1 X100.144 Y131.018 E0.02369
G1 X101.770 Y130.337 E0.05528
G1 X103.330 Y129.517 E0.05526
G1 X104.811 Y128.565 E0.05521
G1 X106.141 Y127.541 E0.05261
G1 X107.392 Y126.400 E0.05310
G1 X108.608 Y125.080 E0.05628
G1 X109.704 Y123.655 E0.05637
G1 X110.670 Y122.139 E0.05637
G1 X111.496 Y120.543 E0.05634
G1 X112.166 Y118.911 E0.05531
G1 X112.696 Y117.212 E0.05582
G1 X113.070 Y115.492 E0.05518
G1 X113.285 Y113.845 E0.05207
G1 X113.362 Y112.174 E0.05245
G1 X113.293 Y110.364 E0.05682
G1 X113.062 Y108.577 E0.05649
G1 X112.668 Y106.804 E0.05695
G1 X112.119 Y105.075 E0.05687
G1 X111.467 Y103.511 E0.05314
G1 X110.686 Y102.007 E0.05313
G1 X109.744 Y100.519 E0.05522
G1 X108.675 Y99.117 E0.05527
G1 X107.488 Y97.814 E0.05528
G1 X106.166 Y96.597 E0.05634
G1 X104.740 Y95.502 E0.05638
G1 X103.222 Y94.538 E0.05637
G1 X101.626 Y93.713 E0.05634
G1 X99.996 Y93.046 E0.05522
