; generated by PrusaSlicer 2.3.1+win64 on 2021-06-19 at 01:53:30 UTC

; 

; external perimeters extrusion width = 0.45mm
; perimeters extrusion width = 0.45mm
; infill extrusion width = 0.45mm
; solid infill extrusion width = 0.45mm
; top infill extrusion width = 0.40mm
; first layer extrusion width = 0.42mm

M73 P0 R45
M73 Q0 S46
M201 X1000 Y1000 Z200 E5000 ; sets maximum accelerations, mm/sec^2
M203 X200 Y200 Z12 E120 ; sets maximum feedrates, mm/sec
M204 P1250 R1250 T1250 ; sets acceleration (P, T) and retract acceleration (R), mm/sec^2
M205 X8.00 Y8.00 Z0.40 E4.50 ; sets the jerk limits, mm/sec
M205 S0 T0 ; sets the minimum extruding and travel feed rate, mm/sec
M107
;TYPE:Custom
M862.3 P "MK3S" ; printer model check
M862.1 P0.4 ; nozzle diameter check
M115 U3.9.3 ; tell printer latest fw version
G90 ; use absolute coordinates
M83 ; extruder relative mode
M104 S215 ; set extruder temp
M140 S60 ; set bed temp
M190 S60 ; wait for bed temp
M109 S215 ; wait for extruder temp
G28 W ; home all without mesh bed level
G80 ; mesh bed leveling
G1 Y-3.0 F1000.0 ; go outside print area
G92 E0.0
G1 X60.0 E9.0 F1000.0 ; intro line
M73 Q0 S45
G1 X100.0 E12.5 F1000.0 ; intro line
G92 E0.0
M221 S95

; Don't change E values below. Excessive value can damage the printer.
M907 E430 ; set extruder motor current
G21 ; set units to millimeters
G90 ; use absolute coordinates
M83 ; use relative distances for extrusion
M900 K0.05 ; Filament gcode LA 1.5
M900 K30 ; Filament gcode LA 1.0
;LAYER_CHANGE
;Z:0.2
;HEIGHT:0.2
;BEFORE_LAYER_CHANGE
G92 E0.0
;0.2


G1 E-0.80000 F2100.000
G1 Z0.400 F10800.000
;AFTER_LAYER_CHANGE
;0.2
G1 X79.585 Y90.757
G1 Z0.200
G1 E0.80000 F2100.000
M204 S1000
;TYPE:Skirt
;WIDTH:0.42
G1 F1200.000
G1 X80.422 Y90.023 E0.03491
G1 X82.334 Y88.639 E0.07401
G1 X84.398 Y87.500 E0.07391
G1 X85.594 Y86.979 E0.04091
G1 X87.824 Y86.251 E0.07355
G1 X89.082 Y85.967 E0.04043
G1 X90.356 Y85.768 E0.04043
G1 X92.659 Y85.624 E0.07236
G1 X142.719 Y85.623 E1.56958
G1 X145.073 Y85.768 E0.07396
G1 X146.415 Y85.980 E0.04258
G1 X148.704 Y86.572 E0.07415
G1 X150.901 Y87.438 E0.07403
G1 X172.773 Y98.500 E0.76851
G1 X173.625 Y99.035 E0.03155
G1 X174.669 Y99.957 E0.04365
G1 X175.543 Y101.095 E0.04500
G1 X176.169 Y102.350 E0.04396
G1 X176.430 Y103.163 E0.02678
G1 X176.593 Y104.002 E0.02678
G1 X176.648 Y105.450 E0.04543
G1 X176.434 Y106.821 E0.04353
G1 X175.961 Y108.139 E0.04389
G1 X175.252 Y109.337 E0.04365
G1 X174.669 Y110.043 E0.02869
G1 X174.041 Y110.638 E0.02714
G1 X172.828 Y111.471 E0.04615
G1 X150.951 Y122.540 E0.76873
G1 X148.770 Y123.406 E0.07358
G1 X147.466 Y123.785 E0.04258
G1 X145.142 Y124.224 E0.07415
G1 X142.782 Y124.376 E0.07415
G1 X92.700 Y124.377 E1.57029
G1 X91.424 Y124.333 E0.04003
G1 X89.109 Y124.038 E0.07317
G1 X86.729 Y123.429 E0.07701
G1 X84.467 Y122.534 E0.07630
G1 X82.331 Y121.360 E0.07642
G1 X80.365 Y119.932 E0.07618
G1 X78.589 Y118.263 E0.07642
G1 X77.038 Y116.388 E0.07630
G1 X75.734 Y114.334 E0.07630
G1 X74.694 Y112.121 E0.07665
G1 X73.966 Y109.891 E0.07356
G1 X73.680 Y108.626 E0.04067
G1 X73.382 Y106.287 E0.07391
G1 X73.339 Y104.930 E0.04258
G1 X73.483 Y102.638 E0.07200
G1 X73.696 Y101.296 E0.04261
G1 X74.287 Y99.011 E0.07401
G1 X75.151 Y96.818 E0.07391
G1 X75.769 Y95.604 E0.04270
G1 X77.035 Y93.615 E0.07391
G1 X77.833 Y92.592 E0.04070
G1 X79.540 Y90.797 E0.07766
; printing object sextant_sun_filter.stl id:0 copy 0
;WIPE_START
G1 F8640.000
G1 X80.422 Y90.023 E-0.27096
G1 X82.137 Y88.781 E-0.48904
;WIPE_END
G1 E-0.04000 F2100.000
G1 Z0.600 F10800.000
G1 X129.771 Y102.025
G1 Z0.200
G1 E0.80000 F2100.000
;TYPE:Perimeter
G1 F1200.000
G1 X129.845 Y101.696 E0.01058
G1 X130.078 Y100.894 E0.02617
G1 X130.361 Y100.108 E0.02619
G1 X130.702 Y99.322 E0.02686
G1 X131.071 Y98.599 E0.02547
G1 X131.496 Y97.880 E0.02617
G1 X131.965 Y97.190 E0.02617
G1 X132.477 Y96.530 E0.02617
G1 X133.029 Y95.904 E0.02617
G1 X133.619 Y95.314 E0.02617
G1 X134.245 Y94.762 E0.02617
G1 X134.905 Y94.250 E0.02617
G1 X135.595 Y93.781 E0.02617
G1 X136.314 Y93.356 E0.02617
G1 X137.057 Y92.977 E0.02617
G1 X137.824 Y92.646 E0.02617
G1 X138.609 Y92.363 E0.02617
G1 X139.411 Y92.130 E0.02617
G1 X140.225 Y91.948 E0.02617
G1 X141.050 Y91.817 E0.02617
G1 X141.881 Y91.739 E0.02617
G1 X142.693 Y91.713 E0.02547
G1 X143.549 Y91.739 E0.02686
G1 X144.380 Y91.817 E0.02619
G1 X145.205 Y91.948 E0.02617
G1 X146.019 Y92.130 E0.02617
G1 X146.821 Y92.363 E0.02617
G1 X147.606 Y92.646 E0.02617
G1 X148.373 Y92.977 E0.02617
G1 X149.116 Y93.356 E0.02617
G1 X149.835 Y93.781 E0.02617
G1 X150.525 Y94.250 E0.02617
G1 X151.185 Y94.762 E0.02617
G1 X151.811 Y95.314 E0.02617
G1 X152.401 Y95.904 E0.02617
G1 X152.953 Y96.530 E0.02617
G1 X153.465 Y97.190 E0.02617
G1 X153.934 Y97.880 E0.02617
G1 X154.359 Y98.599 E0.02617
G1 X154.738 Y99.342 E0.02617
G1 X155.069 Y100.109 E0.02617
G1 X155.352 Y100.894 E0.02617
G1 X155.585 Y101.696 E0.02617
G1 X155.767 Y102.510 E0.02617
G1 X155.898 Y103.335 E0.02617
G1 X155.976 Y104.166 E0.02617
G1 X156.002 Y105.000 E0.02617
G1 X155.976 Y105.834 E0.02617
G1 X155.898 Y106.665 E0.02617
G1 X155.767 Y107.490 E0.02617
G1 X155.585 Y108.304 E0.02617
G1 X155.352 Y109.107 E0.02619
G1 X155.060 Y109.912 E0.02686
G1 X154.738 Y110.658 E0.02547
G1 X154.359 Y111.401 E0.02617
G1 X153.934 Y112.120 E0.02617
G1 X153.465 Y112.810 E0.02617
G1 X152.953 Y113.470 E0.02617
G1 X152.401 Y114.096 E0.02617
G1 X151.811 Y114.686 E0.02617
G1 X151.185 Y115.238 E0.02617
G1 X150.525 Y115.750 E0.02617
G1 X149.835 Y116.219 E0.02617
G1 X149.116 Y116.644 E0.02617
G1 X148.393 Y117.013 E0.02547
G1 X147.607 Y117.354 E0.02686
G1 X146.821 Y117.637 E0.02619
G1 X146.019 Y117.870 E0.02617
G1 X145.205 Y118.052 E0.02617
G1 X144.380 Y118.183 E0.02617
G1 X143.549 Y118.261 E0.02617
G1 X142.715 Y118.287 E0.02617
G1 X141.881 Y118.261 E0.02617
G1 X141.050 Y118.183 E0.02617
G1 X140.225 Y118.052 E0.02617
G1 X139.411 Y117.870 E0.02617
G1 X138.609 Y117.637 E0.02617
G1 X137.824 Y117.354 E0.02617
G1 X137.057 Y117.023 E0.02617
G1 X136.314 Y116.644 E0.02617
G1 X135.595 Y116.219 E0.02617
G1 X134.905 Y115.750 E0.02617
G1 X134.245 Y115.238 E0.02619
G1 X133.603 Y114.670 E0.02686
G1 X133.029 Y114.096 E0.02547
G1 X132.477 Y113.470 E0.02617
G1 X131.965 Y112.810 E0.02617
G1 X131.496 Y112.120 E0.02617
G1 X131.071 Y111.401 E0.02617
G1 X130.692 Y110.658 E0.02617
G1 X130.361 Y109.891 E0.02617
G1 X130.078 Y109.106 E0.02617
G1 X129.845 Y108.304 E0.02617
G1 X129.663 Y107.490 E0.02617
G1 X129.532 Y106.665 E0.02617
G1 X129.454 Y105.834 E0.02617
G1 X129.428 Y105.000 E0.02617
G1 X129.454 Y104.166 E0.02617
G1 X129.532 Y103.335 E0.02617
G1 X129.663 Y102.510 E0.02617
G1 X129.758 Y102.083 E0.01372
G1 X130.126 Y102.166 F10800.000
;TYPE:External perimeter
G1 F1200.000
G1 X130.210 Y101.789 E0.01209
G1 X130.437 Y101.011 E0.02543
G1 X130.711 Y100.247 E0.02544
G1 X131.044 Y99.483 E0.02612
G1 X131.402 Y98.780 E0.02473
G1 X131.815 Y98.082 E0.02543
G1 X132.270 Y97.412 E0.02543
G1 X132.768 Y96.771 E0.02543
G1 X133.304 Y96.162 E0.02543
G1 X133.877 Y95.589 E0.02543
G1 X134.486 Y95.053 E0.02543
G1 X135.127 Y94.555 E0.02543
G1 X135.797 Y94.100 E0.02543
G1 X136.495 Y93.687 E0.02543
G1 X137.218 Y93.319 E0.02543
G1 X137.962 Y92.996 E0.02543
G1 X138.726 Y92.722 E0.02543
G1 X139.504 Y92.495 E0.02543
G1 X140.296 Y92.318 E0.02543
G1 X141.097 Y92.192 E0.02543
G1 X141.904 Y92.115 E0.02543
G1 X142.693 Y92.090 E0.02473
G1 X143.525 Y92.115 E0.02612
G1 X144.333 Y92.192 E0.02544
G1 X145.134 Y92.318 E0.02543
G1 X145.926 Y92.495 E0.02543
G1 X146.704 Y92.722 E0.02543
G1 X147.468 Y92.996 E0.02543
G1 X148.212 Y93.319 E0.02543
G1 X148.935 Y93.687 E0.02543
G1 X149.633 Y94.100 E0.02543
G1 X150.303 Y94.555 E0.02543
G1 X150.944 Y95.053 E0.02543
G1 X151.553 Y95.589 E0.02543
G1 X152.126 Y96.162 E0.02543
G1 X152.662 Y96.771 E0.02543
G1 X153.160 Y97.412 E0.02543
G1 X153.615 Y98.082 E0.02543
G1 X154.028 Y98.780 E0.02543
G1 X154.397 Y99.503 E0.02543
G1 X154.719 Y100.247 E0.02543
G1 X154.993 Y101.011 E0.02543
G1 X155.220 Y101.789 E0.02543
G1 X155.397 Y102.581 E0.02543
G1 X155.523 Y103.382 E0.02543
G1 X155.600 Y104.189 E0.02543
G1 X155.625 Y105.000 E0.02543
G1 X155.600 Y105.811 E0.02543
G1 X155.523 Y106.618 E0.02543
G1 X155.397 Y107.419 E0.02543
G1 X155.220 Y108.211 E0.02543
G1 X154.993 Y108.990 E0.02544
G1 X154.710 Y109.773 E0.02612
G1 X154.397 Y110.497 E0.02473
G1 X154.028 Y111.220 E0.02543
G1 X153.615 Y111.918 E0.02543
G1 X153.160 Y112.588 E0.02543
G1 X152.662 Y113.229 E0.02543
G1 X152.126 Y113.838 E0.02543
G1 X151.553 Y114.411 E0.02543
G1 X150.944 Y114.947 E0.02543
G1 X150.303 Y115.445 E0.02543
G1 X149.633 Y115.900 E0.02543
G1 X148.935 Y116.313 E0.02543
G1 X148.232 Y116.671 E0.02473
G1 X147.468 Y117.004 E0.02612
G1 X146.704 Y117.278 E0.02544
M73 Q1 S45
G1 X145.926 Y117.505 E0.02543
G1 X145.134 Y117.682 E0.02543
G1 X144.333 Y117.808 E0.02543
G1 X143.526 Y117.885 E0.02543
G1 X142.715 Y117.910 E0.02543
G1 X141.904 Y117.885 E0.02543
G1 X141.097 Y117.808 E0.02543
M73 P1 R45
G1 X140.296 Y117.682 E0.02543
G1 X139.504 Y117.505 E0.02543
G1 X138.726 Y117.278 E0.02543
G1 X137.962 Y117.004 E0.02543
G1 X137.218 Y116.681 E0.02543
G1 X136.495 Y116.313 E0.02543
G1 X135.797 Y115.900 E0.02543
G1 X135.127 Y115.445 E0.02543
G1 X134.486 Y114.947 E0.02544
G1 X133.862 Y114.395 E0.02612
G1 X133.304 Y113.838 E0.02473
G1 X132.768 Y113.229 E0.02543
G1 X132.270 Y112.588 E0.02543
G1 X131.815 Y111.918 E0.02543
G1 X131.402 Y111.220 E0.02543
G1 X131.033 Y110.497 E0.02543
G1 X130.711 Y109.753 E0.02543
G1 X130.437 Y108.989 E0.02543
G1 X130.210 Y108.211 E0.02543
G1 X130.033 Y107.419 E0.02543
G1 X129.907 Y106.618 E0.02543
G1 X129.830 Y105.811 E0.02543
G1 X129.805 Y105.000 E0.02543
G1 X129.830 Y104.189 E0.02543
G1 X129.907 Y103.382 E0.02543
G1 X130.033 Y102.581 E0.02543
G1 X130.113 Y102.224 E0.01146
G1 X129.839 Y101.909 F10800.000
;WIPE_START
G1 F8640.000
G1 X130.210 Y101.789 E-0.10286
G1 X130.437 Y101.011 E-0.18727
G1 X130.711 Y100.247 E-0.18731
G1 X131.044 Y99.483 E-0.19234
G1 X131.221 Y99.135 E-0.09022
;WIPE_END
G1 E-0.04000 F2100.000
G1 Z0.600 F10800.000
G1 X166.097 Y104.975
G1 Z0.200
G1 E0.80000 F2100.000
;TYPE:Perimeter
G1 F1200.000
G1 X166.149 Y104.418 E0.01755
G1 X166.255 Y104.006 E0.01333
G1 X166.490 Y103.463 E0.01856
G1 X166.829 Y102.967 E0.01883
G1 X167.103 Y102.676 E0.01253
G1 X167.418 Y102.415 E0.01284
G1 X167.927 Y102.114 E0.01853
G1 X168.492 Y101.910 E0.01882
G1 X169.085 Y101.817 E0.01882
G1 X169.675 Y101.835 E0.01853
G1 X170.078 Y101.912 E0.01284
G1 X170.458 Y102.035 E0.01253
G1 X170.994 Y102.306 E0.01883
G1 X171.469 Y102.675 E0.01885
G1 X171.866 Y103.125 E0.01882
G1 X172.171 Y103.642 E0.01882
G1 X172.371 Y104.198 E0.01854
G1 X172.449 Y104.604 E0.01294
G1 X172.474 Y105.006 E0.01264
G1 X172.418 Y105.598 E0.01863
G1 X172.251 Y106.174 E0.01883
G1 X171.978 Y106.709 E0.01882
G1 X171.610 Y107.184 E0.01882
G1 X171.160 Y107.581 E0.01882
G1 X170.643 Y107.886 E0.01882
G1 X170.078 Y108.090 E0.01882
G1 X169.485 Y108.183 E0.01882
G1 X168.885 Y108.165 E0.01882
G1 X168.299 Y108.034 E0.01882
G1 X167.748 Y107.795 E0.01882
G1 X167.252 Y107.458 E0.01882
G1 X166.827 Y107.033 E0.01882
G1 X166.490 Y106.537 E0.01882
G1 X166.255 Y105.994 E0.01853
G1 X166.153 Y105.597 E0.01284
G1 X166.099 Y105.035 E0.01771
G1 X166.476 Y105.023 F10800.000
;TYPE:External perimeter
G1 F1200.000
G1 X166.522 Y104.483 E0.01701
G1 X166.613 Y104.128 E0.01147
G1 X166.822 Y103.646 E0.01649
G1 X167.124 Y103.204 E0.01678
G1 X167.361 Y102.951 E0.01087
G1 X167.636 Y102.724 E0.01117
G1 X168.088 Y102.457 E0.01648
G1 X168.586 Y102.277 E0.01659
G1 X169.108 Y102.195 E0.01659
G1 X169.634 Y102.211 E0.01648
G1 X169.984 Y102.278 E0.01117
G1 X170.314 Y102.385 E0.01087
G1 X170.791 Y102.626 E0.01678
G1 X171.209 Y102.951 E0.01660
G1 X171.559 Y103.348 E0.01659
G1 X171.828 Y103.803 E0.01659
G1 X172.007 Y104.298 E0.01649
G1 X172.074 Y104.651 E0.01127
G1 X172.096 Y105.000 E0.01097
G1 X172.046 Y105.527 E0.01658
G1 X171.899 Y106.035 E0.01659
G1 X171.658 Y106.506 E0.01659
G1 X171.334 Y106.924 E0.01659
G1 X170.937 Y107.274 E0.01659
G1 X170.482 Y107.543 E0.01659
G1 X169.984 Y107.723 E0.01659
G1 X169.462 Y107.805 E0.01659
G1 X168.933 Y107.789 E0.01659
G1 X168.416 Y107.673 E0.01659
G1 X167.931 Y107.463 E0.01659
G1 X167.493 Y107.166 E0.01659
G1 X167.119 Y106.792 E0.01659
G1 X166.822 Y106.354 E0.01659
G1 X166.613 Y105.872 E0.01648
G1 X166.524 Y105.527 E0.01117
G1 X166.477 Y105.083 E0.01398
G1 X166.130 Y104.822 F10800.000
;WIPE_START
G1 F8640.000
G1 X166.522 Y104.483 E-0.13905
G1 X166.613 Y104.128 E-0.08448
G1 X166.822 Y103.646 E-0.12147
G1 X167.124 Y103.204 E-0.12355
G1 X167.361 Y102.951 E-0.08006
G1 X167.636 Y102.724 E-0.08224
G1 X168.088 Y102.457 E-0.12140
G1 X168.120 Y102.445 E-0.00775
;WIPE_END
G1 E-0.04000 F2100.000
G1 Z0.600 F10800.000
G1 X166.928 Y108.700
G1 Z0.200
G1 E0.80000 F2100.000
;TYPE:Perimeter
G1 F1200.000
G1 X166.928 Y109.333 E0.01986
G1 X157.841 Y110.848 E0.28884
G1 X157.385 Y111.903 E0.03605
G1 X156.922 Y112.810 E0.03193
G1 X156.404 Y113.687 E0.03193
G1 X155.831 Y114.529 E0.03193
G1 X155.207 Y115.334 E0.03193
G1 X154.533 Y116.098 E0.03193
G1 X153.813 Y116.818 E0.03193
G1 X153.049 Y117.492 E0.03193
G1 X152.244 Y118.116 E0.03193
G1 X151.402 Y118.689 E0.03193
G1 X150.525 Y119.207 E0.03193
G1 X149.618 Y119.670 E0.03193
G1 X148.683 Y120.074 E0.03193
G1 X147.725 Y120.419 E0.03193
G1 X146.747 Y120.703 E0.03193
G1 X145.753 Y120.925 E0.03193
G1 X144.747 Y121.085 E0.03193
G1 X143.733 Y121.181 E0.03193
G1 X142.715 Y121.213 E0.03193
G1 X141.697 Y121.181 E0.03193
G1 X140.683 Y121.085 E0.03193
G1 X139.677 Y120.925 E0.03193
G1 X138.683 Y120.703 E0.03193
G1 X137.691 Y120.414 E0.03241
G1 X136.747 Y120.074 E0.03147
G1 X135.812 Y119.670 E0.03193
G1 X134.905 Y119.207 E0.03193
G1 X134.028 Y118.689 E0.03193
G1 X133.186 Y118.116 E0.03193
G1 X132.381 Y117.492 E0.03193
G1 X131.617 Y116.818 E0.03193
G1 X130.897 Y116.098 E0.03193
G1 X130.223 Y115.334 E0.03193
G1 X129.599 Y114.529 E0.03193
G1 X129.026 Y113.687 E0.03193
G1 X128.508 Y112.810 E0.03193
G1 X128.045 Y111.903 E0.03193
G1 X127.641 Y110.968 E0.03193
G1 X127.296 Y110.010 E0.03193
G1 X127.012 Y109.032 E0.03193
G1 X126.790 Y108.038 E0.03193
G1 X126.630 Y107.032 E0.03193
G1 X126.534 Y106.018 E0.03193
G1 X126.502 Y105.000 E0.03193
G1 X126.534 Y103.982 E0.03193
G1 X126.630 Y102.968 E0.03193
G1 X126.790 Y101.962 E0.03193
G1 X127.012 Y100.968 E0.03193
G1 X127.296 Y99.990 E0.03193
G1 X127.641 Y99.032 E0.03193
G1 X128.045 Y98.097 E0.03193
G1 X128.508 Y97.190 E0.03193
G1 X129.019 Y96.326 E0.03147
G1 X129.599 Y95.470 E0.03241
G1 X130.223 Y94.666 E0.03193
G1 X130.897 Y93.902 E0.03193
G1 X131.383 Y93.416 E0.02155
G1 X131.617 Y93.182 E0.01039
G1 X132.381 Y92.508 E0.03193
G1 X133.185 Y91.884 E0.03193
G1 X134.041 Y91.304 E0.03241
G1 X134.905 Y90.793 E0.03147
G1 X135.812 Y90.330 E0.03193
G1 X136.747 Y89.926 E0.03193
G1 X137.705 Y89.581 E0.03193
G1 X138.683 Y89.297 E0.03193
G1 X139.677 Y89.075 E0.03193
G1 X140.683 Y88.915 E0.03193
G1 X141.697 Y88.819 E0.03193
G1 X142.730 Y88.788 E0.03241
G1 X143.733 Y88.819 E0.03147
G1 X144.747 Y88.915 E0.03193
G1 X145.753 Y89.075 E0.03193
G1 X146.747 Y89.297 E0.03193
G1 X147.725 Y89.581 E0.03193
G1 X148.683 Y89.926 E0.03193
G1 X149.618 Y90.330 E0.03193
G1 X150.525 Y90.793 E0.03193
G1 X151.402 Y91.311 E0.03193
G1 X152.244 Y91.884 E0.03193
G1 X153.049 Y92.508 E0.03193
G1 X153.813 Y93.182 E0.03193
G1 X154.533 Y93.902 E0.03193
G1 X155.207 Y94.666 E0.03193
G1 X155.831 Y95.471 E0.03193
G1 X156.404 Y96.313 E0.03193
G1 X156.922 Y97.190 E0.03193
G1 X157.385 Y98.097 E0.03193
G1 X157.841 Y99.152 E0.03605
G1 X166.928 Y100.667 E0.28884
G1 X166.928 Y101.300 E0.01986
G1 X168.237 Y100.920 E0.04275
G1 X168.487 Y100.864 E0.00801
G1 X169.021 Y100.797 E0.01687
G1 X169.549 Y100.797 E0.01658
G1 X170.074 Y100.863 E0.01658
G1 X170.595 Y100.997 E0.01687
G1 X171.070 Y101.185 E0.01601
G1 X171.550 Y101.448 E0.01716
G1 X171.753 Y101.587 E0.00772
G1 X172.175 Y101.936 E0.01716
G1 X172.349 Y102.110 E0.00772
G1 X172.692 Y102.524 E0.01687
G1 X172.981 Y102.979 E0.01687
G1 X173.097 Y103.206 E0.00801
G1 X173.198 Y103.441 E0.00801
G1 X173.367 Y103.961 E0.01716
G1 X173.421 Y104.202 E0.00772
G1 X173.488 Y104.736 E0.01687
