; generated by PrusaSlicer 2.3.1+win64 on 2021-06-23 at 23:56:53 UTC

; 

; external perimeters extrusion width = 0.45mm
; perimeters extrusion width = 0.45mm
; infill extrusion width = 0.45mm
; solid infill extrusion width = 0.45mm
; top infill extrusion width = 0.40mm
; first layer extrusion width = 0.42mm

M73 P0 R46
M73 Q0 S47
M201 X1000 Y1000 Z200 E5000 ; sets maximum accelerations, mm/sec^2
M203 X200 Y200 Z12 E120 ; sets maximum feedrates, mm/sec
M204 P1250 R1250 T1250 ; sets acceleration (P, T) and retract acceleration (R), mm/sec^2
M205 X8.00 Y8.00 Z0.40 E4.50 ; sets the jerk limits, mm/sec
M205 S0 T0 ; sets the minimum extruding and travel feed rate, mm/sec
M107
;TYPE:Custom
M862.3 P "MK3S" ; printer model check
M862.1 P0.4 ; nozzle diameter check
M115 U3.9.3 ; tell printer latest fw version
G90 ; use absolute coordinates
M83 ; extruder relative mode
M104 S215 ; set extruder temp
M140 S60 ; set bed temp
M190 S60 ; wait for bed temp
M109 S215 ; wait for extruder temp
G28 W ; home all without mesh bed level
G80 ; mesh bed leveling
G1 Y-3.0 F1000.0 ; go outside print area
G92 E0.0
G1 X60.0 E9.0 F1000.0 ; intro line
G1 X100.0 E12.5 F1000.0 ; intro line
G92 E0.0
M221 S95

; Don't change E values below. Excessive value can damage the printer.
M907 E430 ; set extruder motor current
G21 ; set units to millimeters
G90 ; use absolute coordinates
M83 ; use relative distances for extrusion
M900 K0.05 ; Filament gcode LA 1.5
M900 K30 ; Filament gcode LA 1.0
;LAYER_CHANGE
;Z:0.2
;HEIGHT:0.2
;BEFORE_LAYER_CHANGE
G92 E0.0
;0.2


G1 E-0.80000 F2100.000
G1 Z0.400 F10800.000
;AFTER_LAYER_CHANGE
;0.2
G1 X80.259 Y90.157
G1 Z0.200
G1 E0.80000 F2100.000
M204 S1000
;TYPE:Skirt
;WIDTH:0.42
G1 F1200.000
G1 X81.517 Y89.189 E0.04978
G1 X82.941 Y88.271 E0.05312
G1 X84.518 Y87.442 E0.05586
G1 X86.051 Y86.805 E0.05205
G1 X87.695 Y86.284 E0.05408
G1 X89.346 Y85.918 E0.05300
G1 X91.021 Y85.697 E0.05300
G1 X92.665 Y85.623 E0.05157
G1 X142.719 Y85.623 E1.56941
G1 X144.411 Y85.697 E0.05309
G1 X146.176 Y85.936 E0.05586
G1 X147.729 Y86.283 E0.04990
G1 X149.244 Y86.758 E0.04977
G1 X150.844 Y87.412 E0.05420
G1 X172.478 Y98.351 E0.76009
G1 X173.550 Y98.981 E0.03898
G1 X174.560 Y99.846 E0.04171
G1 X175.619 Y101.222 E0.05446
G1 X176.208 Y102.453 E0.04279
G1 X176.552 Y103.733 E0.04155
G1 X176.660 Y105.091 E0.04270
G1 X176.434 Y106.816 E0.05456
G1 X175.974 Y108.110 E0.04306
G1 X175.304 Y109.264 E0.04184
G1 X174.871 Y109.816 E0.02199
G1 X174.094 Y110.593 E0.03447
G1 X172.921 Y111.418 E0.04495
M73 Q0 S46
G1 X150.901 Y122.563 E0.77383
G1 X149.336 Y123.211 E0.05309
G1 X147.635 Y123.740 E0.05587
G1 X146.081 Y124.083 E0.04989
G1 X144.507 Y124.292 E0.04978
G1 X142.773 Y124.376 E0.05443
G1 X92.704 Y124.377 E1.56989
G1 X91.023 Y124.303 E0.05274
G1 X89.329 Y124.079 E0.05360
G1 X87.704 Y123.718 E0.05217
G1 X86.186 Y123.242 E0.04989
G1 X84.527 Y122.562 E0.05623
G1 X82.938 Y121.727 E0.05627
G1 X81.595 Y120.869 E0.04996
G1 X80.260 Y119.844 E0.05276
G1 X79.017 Y118.705 E0.05289
G1 X77.940 Y117.533 E0.04989
G1 X76.843 Y116.115 E0.05622
G1 X75.884 Y114.598 E0.05627
G1 X75.152 Y113.186 E0.04985
G1 X74.520 Y111.664 E0.05169
G1 X73.998 Y110.016 E0.05420
G1 X73.632 Y108.362 E0.05312
G1 X73.411 Y106.682 E0.05312
G1 X73.340 Y104.896 E0.05604
G1 X73.412 Y103.312 E0.04973
G1 X73.617 Y101.738 E0.04978
G1 X73.975 Y100.078 E0.05324
G1 X74.504 Y98.381 E0.05573
G1 X75.151 Y96.815 E0.05313
G1 X75.934 Y95.312 E0.05312
G1 X76.846 Y93.880 E0.05323
G1 X77.876 Y92.540 E0.05300
G1 X79.088 Y91.227 E0.05604
G1 X80.215 Y90.197 E0.04784
;WIPE_START
G1 F8640.000
G1 X81.517 Y89.189 E-0.38042
G1 X82.899 Y88.298 E-0.37958
;WIPE_END
G1 E-0.04000 F2100.000
G1 Z0.600 F10800.000
G1 X94.726 Y83.380
G1 Z0.200
G1 E0.80000 F2100.000
G1 F1200.000
G1 X92.833 Y83.287 E0.05941
G1 X90.887 Y83.364 E0.06107
G1 X88.953 Y83.615 E0.06114
G1 X87.050 Y84.039 E0.06114
G1 X85.181 Y84.635 E0.06150
G1 X83.529 Y85.326 E0.05614
G1 X81.940 Y86.149 E0.05611
G1 X80.341 Y87.157 E0.05927
G1 X78.833 Y88.304 E0.05939
G1 X77.431 Y89.577 E0.05942
G1 X76.111 Y91.009 E0.06104
G1 X74.923 Y92.554 E0.06112
G1 X73.878 Y94.200 E0.06112
G1 X72.986 Y95.931 E0.06105
G1 X72.272 Y97.681 E0.05928
G1 X71.739 Y99.388 E0.05606
G1 X71.352 Y101.117 E0.05557
G1 X71.095 Y102.989 E0.05924
G1 X71.002 Y104.882 E0.05941
G1 X71.079 Y106.828 E0.06107
G1 X71.330 Y108.762 E0.06114
G1 X71.754 Y110.665 E0.06114
G1 X72.350 Y112.533 E0.06150
G1 X73.040 Y114.186 E0.05614
G1 X73.864 Y115.775 E0.05611
G1 X74.872 Y117.374 E0.05928
G1 X76.019 Y118.882 E0.05939
G1 X77.292 Y120.284 E0.05941
G1 X78.723 Y121.604 E0.06101
G1 X80.254 Y122.781 E0.06056
G1 X81.898 Y123.827 E0.06109
G1 X83.627 Y124.720 E0.06104
G1 X85.383 Y125.438 E0.05946
G1 X87.209 Y126.004 E0.05996
G1 X89.055 Y126.403 E0.05921
G1 X90.796 Y126.628 E0.05503
G1 X92.561 Y126.711 E0.05541
G1 X94.518 Y126.638 E0.06141
G1 X96.473 Y126.386 E0.06181
G1 X98.379 Y125.962 E0.06120
G1 X100.252 Y125.363 E0.06166
G1 X102.118 Y124.565 E0.06364
G1 X102.833 Y124.188 F10800.000
G1 F1200.000
G1 X103.674 Y123.745 E0.02982
G1 X105.263 Y122.721 E0.05925
G1 X106.678 Y121.628 E0.05607
G1 X107.988 Y120.434 E0.05559
G1 X109.307 Y119.007 E0.06091
G1 X110.496 Y117.462 E0.06111
G1 X111.542 Y115.818 E0.06110
G1 X112.435 Y114.088 E0.06105
G1 X113.153 Y112.332 E0.05946
G1 X113.719 Y110.506 E0.05996
G1 X114.118 Y108.660 E0.05921
G1 X114.343 Y106.919 E0.05503
G1 X114.426 Y105.154 E0.05541
G1 X114.353 Y103.197 E0.06141
G1 X114.103 Y101.258 E0.06128
G1 X113.677 Y99.336 E0.06173
G1 X113.080 Y97.466 E0.06154
G1 X112.389 Y95.814 E0.05615
G1 X111.566 Y94.225 E0.05611
G1 X110.558 Y92.626 E0.05927
G1 X109.411 Y91.118 E0.05939
G1 X108.138 Y89.716 E0.05942
G1 X106.706 Y88.396 E0.06104
G1 X105.161 Y87.208 E0.06112
G1 X103.515 Y86.163 E0.06112
G1 X102.833 Y85.812 E0.02406
G1 X102.101 Y85.435 F10800.000
G1 F1200.000
G1 X101.784 Y85.271 E0.01118
G1 X100.034 Y84.557 E0.05928
G1 X98.342 Y84.028 E0.05558
G1 X96.598 Y83.637 E0.05605
G1 X94.726 Y83.380 E0.05924
;WIPE_START
G1 F8640.000
G1 X96.598 Y83.637 E-0.43629
G1 X97.966 Y83.944 E-0.32371
;WIPE_END
G1 E-0.04000 F2100.000
G1 Z0.600 F10800.000
G1 X92.823 Y83.664
G1 Z0.200
G1 E0.80000 F2100.000
G1 F1200.000
G1 X90.910 Y83.740 E0.06002
G1 X89.010 Y83.988 E0.06008
G1 X87.140 Y84.405 E0.06008
G1 X85.319 Y84.987 E0.05994
G1 X83.682 Y85.670 E0.05564
G1 X82.121 Y86.480 E0.05512
G1 X80.550 Y87.472 E0.05826
G1 X79.068 Y88.599 E0.05836
M73 Q1 S46
G1 X77.690 Y89.851 E0.05838
M73 P1 R46
G1 X76.394 Y91.258 E0.06000
G1 X75.236 Y92.763 E0.05953
G1 X74.210 Y94.380 E0.06006
G1 X73.332 Y96.081 E0.06000
G1 X72.630 Y97.801 E0.05827
G1 X72.106 Y99.478 E0.05508
G1 X71.721 Y101.192 E0.05507
G1 X71.470 Y103.032 E0.05823
G1 X71.379 Y104.892 E0.05837
G1 X71.455 Y106.805 E0.06002
G1 X71.703 Y108.704 E0.06008
G1 X72.120 Y110.575 E0.06008
G1 X72.701 Y112.396 E0.05994
G1 X73.379 Y114.019 E0.05515
G1 X74.195 Y115.594 E0.05562
G1 X75.187 Y117.165 E0.05826
G1 X76.314 Y118.647 E0.05836
G1 X77.566 Y120.024 E0.05837
G1 X78.972 Y121.321 E0.05997
G1 X80.477 Y122.477 E0.05951
G1 X82.093 Y123.504 E0.06003
G1 X83.778 Y124.374 E0.05947
G1 X85.502 Y125.080 E0.05842
G1 X87.297 Y125.637 E0.05893
G1 X89.112 Y126.030 E0.05820
G1 X90.837 Y126.253 E0.05454
G1 X92.571 Y126.334 E0.05443
G1 X94.495 Y126.262 E0.06040
G1 X96.400 Y126.016 E0.06021
G1 X98.272 Y125.600 E0.06014
G1 X100.114 Y125.012 E0.06061
G1 X101.177 Y124.565 E0.03617
G1 X102.025 Y124.188 F10800.000
G1 F1200.000
G1 X103.477 Y123.423 E0.05146
G1 X105.039 Y122.417 E0.05824
G1 X106.430 Y121.344 E0.05509
G1 X107.728 Y120.160 E0.05509
G1 X109.024 Y118.757 E0.05988
G1 X110.192 Y117.239 E0.06005
G1 X111.211 Y115.637 E0.05952
G1 X112.089 Y113.937 E0.06000
G1 X112.795 Y112.213 E0.05842
G1 X113.352 Y110.418 E0.05893
G1 X113.745 Y108.603 E0.05820
G1 X113.968 Y106.878 E0.05454
G1 X114.049 Y105.144 E0.05443
G1 X113.977 Y103.220 E0.06040
G1 X113.731 Y101.315 E0.06021
G1 X113.315 Y99.443 E0.06014
G1 X112.729 Y97.604 E0.06051
G1 X112.045 Y95.967 E0.05564
G1 X111.235 Y94.406 E0.05512
G1 X110.243 Y92.835 E0.05826
G1 X109.116 Y91.353 E0.05836
G1 X107.864 Y89.975 E0.05838
G1 X106.457 Y88.679 E0.06000
G1 X104.952 Y87.521 E0.05953
G1 X103.335 Y86.495 E0.06006
G1 X102.011 Y85.812 E0.04669
G1 X101.187 Y85.435 F10800.000
G1 F1200.000
G1 X99.914 Y84.915 E0.04313
G1 X98.237 Y84.391 E0.05508
G1 X96.523 Y84.006 E0.05507
G1 X94.683 Y83.755 E0.05823
G1 X92.823 Y83.664 E0.05838
;WIPE_START
G1 F8640.000
G1 X94.683 Y83.755 E-0.42991
G1 X96.099 Y83.948 E-0.33009
;WIPE_END
G1 E-0.04000 F2100.000
G1 Z0.600 F10800.000
G1 X94.640 Y84.129
G1 Z0.200
G1 E0.80000 F2100.000
G1 F1200.000
G1 X92.813 Y84.041 E0.05734
G1 X90.934 Y84.117 E0.05897
G1 X89.084 Y84.358 E0.05850
G1 X87.246 Y84.767 E0.05902
G1 X85.457 Y85.338 E0.05890
G1 X83.848 Y86.009 E0.05464
G1 X82.302 Y86.811 E0.05462
G1 X80.758 Y87.786 E0.05725
G1 X79.303 Y88.894 E0.05733
G1 X77.950 Y90.124 E0.05734
G1 X76.677 Y91.507 E0.05895
G1 X75.541 Y92.986 E0.05848
G1 X74.541 Y94.561 E0.05848
G1 X73.678 Y96.231 E0.05896
G1 X72.987 Y97.922 E0.05725
G1 X72.472 Y99.568 E0.05410
G1 X72.091 Y101.267 E0.05457
G1 X71.844 Y103.075 E0.05722
G1 X71.756 Y104.902 E0.05734
G1 X71.832 Y106.781 E0.05897
G1 X72.076 Y108.647 E0.05902
G1 X72.482 Y110.468 E0.05850
G1 X73.053 Y112.258 E0.05891
G1 X73.724 Y113.867 E0.05465
G1 X74.526 Y115.413 E0.05463
G1 X75.501 Y116.957 E0.05725
G1 X76.609 Y118.412 E0.05733
G1 X77.839 Y119.765 E0.05734
G1 X79.209 Y121.027 E0.05840
G1 X80.686 Y122.164 E0.05845
G1 X82.273 Y123.173 E0.05898
G1 X83.929 Y124.029 E0.05842
G1 X85.622 Y124.723 E0.05739
G1 X87.385 Y125.270 E0.05789
G1 X89.168 Y125.657 E0.05720
G1 X90.862 Y125.877 E0.05356
G1 X92.580 Y125.957 E0.05393
G1 X94.456 Y125.887 E0.05885
G1 X96.327 Y125.646 E0.05915
G1 X98.166 Y125.238 E0.05907
G1 X99.976 Y124.661 E0.05955
G1 X100.204 Y124.565 E0.00777
G1 X101.102 Y124.188 F10800.000
G1 F1200.000
G1 X101.662 Y123.953 E0.01903
G1 X103.280 Y123.102 E0.05732
G1 X104.815 Y122.114 E0.05723
G1 X106.193 Y121.051 E0.05459
G1 X107.468 Y119.887 E0.05411
G1 X108.741 Y118.508 E0.05886
G1 X109.878 Y117.029 E0.05848
G1 X110.880 Y115.456 E0.05847
G1 X111.744 Y113.786 E0.05895
G1 X112.438 Y112.093 E0.05739
G1 X112.985 Y110.330 E0.05789
G1 X113.372 Y108.547 E0.05720
G1 X113.592 Y106.853 E0.05356
G1 X113.672 Y105.135 E0.05393
G1 X113.602 Y103.259 E0.05885
G1 X113.361 Y101.388 E0.05915
G1 X112.953 Y99.549 E0.05907
G1 X112.377 Y97.742 E0.05947
G1 X111.706 Y96.133 E0.05465
G1 X110.904 Y94.587 E0.05462
G1 X109.929 Y93.043 E0.05725
G1 X108.821 Y91.588 E0.05733
G1 X107.591 Y90.235 E0.05734
G1 X106.208 Y88.962 E0.05895
G1 X104.729 Y87.826 E0.05848
G1 X103.154 Y86.826 E0.05848
G1 X101.484 Y85.963 E0.05896
G1 X101.113 Y85.812 E0.01254
G1 X100.191 Y85.435 F10800.000
G1 F1200.000
G1 X99.793 Y85.272 E0.01348
G1 X98.147 Y84.757 E0.05410
G1 X96.448 Y84.376 E0.05457
G1 X94.640 Y84.129 E0.05722
;WIPE_START
G1 F8640.000
G1 X96.448 Y84.376 E-0.42140
G1 X97.879 Y84.697 E-0.33860
;WIPE_END
G1 E-0.04000 F2100.000
G1 Z0.600 F10800.000
G1 X92.804 Y84.418
G1 Z0.200
G1 E0.80000 F2100.000
G1 F1200.000
G1 X90.958 Y84.493 E0.05793
G1 X89.141 Y84.731 E0.05744
G1 X87.353 Y85.129 E0.05745
G1 X85.594 Y85.689 E0.05787
G1 X84.001 Y86.354 E0.05414
G1 X82.483 Y87.142 E0.05363
G1 X80.967 Y88.100 E0.05623
G1 X79.538 Y89.189 E0.05630
G1 X78.210 Y90.397 E0.05631
G1 X76.970 Y91.744 E0.05738
G1 X75.854 Y93.196 E0.05743
G1 X74.872 Y94.741 E0.05742
G1 X74.024 Y96.382 E0.05791
G1 X73.345 Y98.042 E0.05624
G1 X72.834 Y99.673 E0.05360
G1 X72.461 Y101.341 E0.05358
G1 X72.219 Y103.117 E0.05621
G1 X72.133 Y104.911 E0.05631
G1 X72.207 Y106.741 E0.05740
G1 X72.446 Y108.574 E0.05796
G1 X72.844 Y110.362 E0.05744
G1 X73.404 Y112.121 E0.05787
G1 X74.069 Y113.714 E0.05414
G1 X74.857 Y115.232 E0.05363
G1 X75.815 Y116.748 E0.05624
G1 X76.904 Y118.177 E0.05630
G1 X78.112 Y119.505 E0.05630
G1 X79.458 Y120.744 E0.05736
G1 X80.909 Y121.860 E0.05740
G1 X82.454 Y122.842 E0.05740
G1 X84.079 Y123.683 E0.05738
G1 X85.742 Y124.365 E0.05635
G1 X87.474 Y124.904 E0.05686
G1 X89.225 Y125.284 E0.05618
G1 X90.903 Y125.502 E0.05306
G1 X92.590 Y125.580 E0.05295
G1 X94.433 Y125.510 E0.05783
G1 X96.270 Y125.273 E0.05808
G1 X98.076 Y124.872 E0.05801
G1 X99.037 Y124.566 E0.03162
;WIPE_START
G1 F8640.000
G1 X98.076 Y124.872 E-0.23284
G1 X96.270 Y125.273 E-0.42722
G1 X95.841 Y125.328 E-0.09993
;WIPE_END
G1 E-0.04000 F2100.000
G1 Z0.600 F10800.000
G1 X100.129 Y124.188
G1 Z0.200
G1 E0.80000 F2100.000
G1 F1200.000
G1 X101.494 Y123.616 E0.04642
G1 X103.083 Y122.780 E0.05629
G1 X104.591 Y121.810 E0.05622
G1 X105.945 Y120.767 E0.05360
G1 X107.208 Y119.614 E0.05360
G1 X108.458 Y118.258 E0.05783
G1 X109.574 Y116.806 E0.05742
G1 X110.557 Y115.261 E0.05742
G1 X111.398 Y113.636 E0.05739
G1 X112.080 Y111.973 E0.05635
G1 X112.619 Y110.241 E0.05686
G1 X112.999 Y108.490 E0.05618
G1 X113.217 Y106.812 E0.05306
G1 X113.295 Y105.125 E0.05295
G1 X113.225 Y103.282 E0.05783
G1 X112.988 Y101.445 E0.05808
G1 X112.587 Y99.639 E0.05801
G1 X112.026 Y97.879 E0.05790
G1 X111.361 Y96.286 E0.05414
G1 X110.573 Y94.768 E0.05363
G1 X109.615 Y93.252 E0.05623
G1 X108.526 Y91.823 E0.05630
G1 X107.318 Y90.495 E0.05631
G1 X105.971 Y89.255 E0.05738
G1 X104.519 Y88.139 E0.05743
G1 X102.974 Y87.157 E0.05742
G1 X101.333 Y86.309 E0.05791
G1 X100.118 Y85.812 E0.04115
;WIPE_START
G1 F8640.000
G1 X101.333 Y86.309 E-0.30301
G1 X102.974 Y87.157 E-0.42645
G1 X103.085 Y87.228 E-0.03053
;WIPE_END
G1 E-0.04000 F2100.000
G1 Z0.600 F10800.000
G1 X99.051 Y85.435
G1 Z0.200
G1 E0.80000 F2100.000
G1 F1200.000
G1 X98.042 Y85.119 E0.03315
G1 X96.374 Y84.746 E0.05358
G1 X94.598 Y84.504 E0.05621
G1 X92.804 Y84.418 E0.05631
;WIPE_START
G1 F8640.000
G1 X94.598 Y84.504 E-0.41467
G1 X96.079 Y84.706 E-0.34533
;WIPE_END
G1 E-0.04000 F2100.000
G1 Z0.600 F10800.000
G1 X94.555 Y84.879
G1 Z0.200
G1 E0.80000 F2100.000
G1 F1200.000
G1 X92.794 Y84.795 E0.05528
G1 X90.998 Y84.868 E0.05636
G1 X89.215 Y85.101 E0.05639
G1 X87.459 Y85.491 E0.05639
G1 X85.732 Y86.040 E0.05683
G1 X84.167 Y86.692 E0.05314
G1 X82.663 Y87.473 E0.05313
G1 X81.175 Y88.414 E0.05522
G1 X79.774 Y89.483 E0.05527
G1 X78.470 Y90.671 E0.05528
G1 X77.254 Y91.993 E0.05634
G1 X76.159 Y93.419 E0.05638
G1 X75.195 Y94.936 E0.05637
G1 X74.370 Y96.533 E0.05634
G1 X73.702 Y98.162 E0.05522
G1 X73.200 Y99.764 E0.05260
G1 X72.830 Y101.416 E0.05308
G1 X72.594 Y103.160 E0.05519
G1 X72.510 Y104.921 E0.05527
G1 X72.583 Y106.717 E0.05636
G1 X72.815 Y108.500 E0.05638
G1 X73.206 Y110.256 E0.05639
G1 X73.755 Y111.983 E0.05684
G1 X74.407 Y113.547 E0.05314
G1 X75.188 Y115.052 E0.05313
G1 X76.129 Y116.540 E0.05522
G1 X77.198 Y117.941 E0.05527
G1 X78.385 Y119.244 E0.05527
G1 X79.694 Y120.450 E0.05580
G1 X81.119 Y121.546 E0.05635
G1 X82.635 Y122.511 E0.05635
G1 X84.231 Y123.337 E0.05633
G1 X85.862 Y124.007 E0.05531
G1 X87.562 Y124.537 E0.05582
G1 X89.281 Y124.911 E0.05518
G1 X90.928 Y125.126 E0.05207
G1 X92.599 Y125.203 E0.05245
G1 X94.410 Y125.134 E0.05682
G1 X96.196 Y124.903 E0.05649
G1 X97.718 Y124.566 E0.04886
;WIPE_START
G1 F8640.000
G1 X96.196 Y124.903 E-0.35981
G1 X94.478 Y125.125 E-0.40019
;WIPE_END
G1 E-0.04000 F2100.000
G1 Z0.600 F10800.000
G1 X98.980 Y124.188
G1 Z0.200
G1 E0.80000 F2100.000
G1 F1200.000
G1 X99.700 Y123.959 E0.02369
G1 X101.326 Y123.278 E0.05528
G1 X102.886 Y122.458 E0.05526
G1 X104.367 Y121.507 E0.05521
G1 X105.697 Y120.483 E0.05261
G1 X106.948 Y119.341 E0.05310
G1 X108.164 Y118.022 E0.05628
G1 X109.261 Y116.597 E0.05637
G1 X110.226 Y115.080 E0.05637
G1 X111.052 Y113.485 E0.05634
G1 X111.722 Y111.853 E0.05531
G1 X112.252 Y110.153 E0.05582
G1 X112.626 Y108.434 E0.05518
G1 X112.841 Y106.787 E0.05207
G1 X112.918 Y105.116 E0.05245
G1 X112.849 Y103.305 E0.05682
G1 X112.618 Y101.518 E0.05649
G1 X112.225 Y99.745 E0.05695
G1 X111.675 Y98.017 E0.05687
G1 X111.023 Y96.452 E0.05314
G1 X110.242 Y94.948 E0.05313
G1 X109.301 Y93.460 E0.05522
G1 X108.232 Y92.059 E0.05527
G1 X107.044 Y90.755 E0.05528
G1 X105.722 Y89.539 E0.05634
G1 X104.296 Y88.444 E0.05638
M73 P1 R45
G1 X102.779 Y87.480 E0.05637
G1 X101.182 Y86.655 E0.05634
G1 X99.553 Y85.987 E0.05522
G1 X98.993 Y85.812 E0.01839
;WIPE_START
G1 F8640.000
