; generated by PrusaSlicer 2.3.1+win64 on 2021-06-19 at 00:16:21 UTC

; 

; external perimeters extrusion width = 0.45mm
; perimeters extrusion width = 0.45mm
; infill extrusion width = 0.45mm
; solid infill extrusion width = 0.45mm
; top infill extrusion width = 0.40mm
; first layer extrusion width = 0.42mm

M73 P0 R23
M73 Q0 S23
M201 X1000 Y1000 Z200 E5000 ; sets maximum accelerations, mm/sec^2
M203 X200 Y200 Z12 E120 ; sets maximum feedrates, mm/sec
M204 P1250 R1250 T1250 ; sets acceleration (P, T) and retract acceleration (R), mm/sec^2
M205 X8.00 Y8.00 Z0.40 E4.50 ; sets the jerk limits, mm/sec
M205 S0 T0 ; sets the minimum extruding and travel feed rate, mm/sec
M107
;TYPE:Custom
M862.3 P "MK3S" ; printer model check
M862.1 P0.4 ; nozzle diameter check
M115 U3.9.3 ; tell printer latest fw version
G90 ; use absolute coordinates
M83 ; extruder relative mode
M104 S215 ; set extruder temp
M140 S60 ; set bed temp
M190 S60 ; wait for bed temp
M109 S215 ; wait for extruder temp
G28 W ; home all without mesh bed level
G80 ; mesh bed leveling
G1 Y-3.0 F1000.0 ; go outside print area
G92 E0.0
G1 X60.0 E9.0 F1000.0 ; intro line
G1 X100.0 E12.5 F1000.0 ; intro line
G92 E0.0
M221 S95

; Don't change E values below. Excessive value can damage the printer.

M907 E538 ; set extruder motor current
G21 ; set units to millimeters
G90 ; use absolute coordinates
M83 ; use relative distances for extrusion
M900 K0.05 ; Filament gcode LA 1.5
M900 K30 ; Filament gcode LA 1.0
;LAYER_CHANGE
;Z:0.2
;HEIGHT:0.2
;BEFORE_LAYER_CHANGE
G92 E0.0
;0.2


G1 E-0.80000 F2100.000
G1 Z0.400 F10800.000
;AFTER_LAYER_CHANGE
;0.2
G1 X80.171 Y90.407
G1 Z0.200
G1 E0.80000 F2100.000
M204 S1000
;TYPE:Skirt
;WIDTH:0.42
G1 F1200.000
G1 X82.222 Y88.917 E0.07949
G1 X84.189 Y87.836 E0.07038
G1 X85.410 Y87.307 E0.04172
G1 X87.546 Y86.614 E0.07041
G1 X88.785 Y86.334 E0.03982
G1 X91.072 Y86.041 E0.07231
G1 X92.345 Y85.998 E0.03994
G1 X143.364 Y88.347 E1.60134
G1 X144.501 Y88.457 E0.03581
G1 X146.469 Y88.834 E0.06283
G1 X148.419 Y89.463 E0.06426
G1 X171.950 Y98.122 E0.78615
G1 X173.187 Y98.740 E0.04337
G1 X174.035 Y99.356 E0.03286
G1 X174.957 Y100.283 E0.04097
G1 X175.550 Y101.107 E0.03185
G1 X176.139 Y102.272 E0.04092
G1 X176.446 Y103.230 E0.03154
G1 X176.647 Y104.532 E0.04131
G1 X176.642 Y105.533 E0.03140
G1 X176.436 Y106.814 E0.04068
G1 X175.931 Y108.200 E0.04626
G1 X175.509 Y108.961 E0.02726
G1 X174.971 Y109.701 E0.02869
G1 X173.929 Y110.731 E0.04593
G1 X173.227 Y111.236 E0.02711
G1 X172.425 Y111.676 E0.02869
G1 X148.412 Y120.539 E0.80255
M73 P1 R22
M73 Q1 S23
G1 X146.558 Y121.142 E0.06114
G1 X145.457 Y121.391 E0.03537
G1 X143.356 Y121.653 E0.06641
G1 X93.467 Y123.968 E1.56589
G1 X92.265 Y124.001 E0.03770
G1 X90.029 Y123.860 E0.07026
G1 X87.635 Y123.410 E0.07637
G1 X86.397 Y123.048 E0.04044
G1 X84.255 Y122.196 E0.07229
G1 X83.125 Y121.617 E0.03981
G1 X81.229 Y120.414 E0.07041
G1 X80.177 Y119.598 E0.04172
G1 X78.540 Y118.061 E0.07041
G1 X76.924 Y116.108 E0.07949
G1 X75.723 Y114.216 E0.07026
G1 X75.144 Y113.086 E0.03982
G1 X74.292 Y110.943 E0.07232
G1 X73.934 Y109.720 E0.03993
G1 X73.498 Y107.455 E0.07232
G1 X73.375 Y106.192 E0.03981
G1 X73.339 Y104.925 E0.03972
G1 X73.487 Y102.621 E0.07241
G1 X73.690 Y101.366 E0.03984
G1 X74.268 Y99.127 E0.07253
G1 X74.701 Y97.936 E0.03972
G1 X75.685 Y95.851 E0.07229
G1 X76.337 Y94.756 E0.03996
G1 X77.695 Y92.892 E0.07229
G1 X78.537 Y91.942 E0.03981
G1 X80.127 Y90.448 E0.06841
; printing object sextant_sun_filter.stl id:0 copy 0
;WIPE_START
G1 F8640.000
G1 X82.222 Y88.917 E-0.59912
G1 X82.832 Y88.581 E-0.16088
;WIPE_END
G1 E-0.04000 F2100.000
G1 Z0.600 F10800.000
G1 X83.813 Y94.692
G1 Z0.200
G1 E0.80000 F2100.000
;TYPE:Perimeter
G1 F1200.000
G1 X84.477 Y94.177 E0.02635
G1 X85.172 Y93.705 E0.02635
G1 X85.895 Y93.277 E0.02635
G1 X86.644 Y92.896 E0.02635
G1 X87.415 Y92.562 E0.02635
G1 X88.206 Y92.277 E0.02635
G1 X89.013 Y92.043 E0.02635
G1 X89.833 Y91.859 E0.02635
G1 X90.663 Y91.728 E0.02635
G1 X91.500 Y91.649 E0.02635
G1 X92.260 Y91.625 E0.02385
G1 X93.178 Y91.649 E0.02880
G1 X94.017 Y91.728 E0.02640
G1 X94.847 Y91.859 E0.02635
G1 X95.667 Y92.043 E0.02635
G1 X96.474 Y92.277 E0.02635
G1 X97.265 Y92.562 E0.02635
G1 X98.036 Y92.896 E0.02635
G1 X98.785 Y93.277 E0.02635
G1 X99.508 Y93.705 E0.02635
G1 X100.203 Y94.177 E0.02635
G1 X100.867 Y94.692 E0.02635
G1 X101.498 Y95.248 E0.02635
G1 X102.092 Y95.842 E0.02635
G1 X102.648 Y96.473 E0.02635
G1 X103.163 Y97.137 E0.02635
G1 X103.635 Y97.832 E0.02635
G1 X104.064 Y98.557 E0.02640
G1 X104.476 Y99.377 E0.02880
G1 X104.778 Y100.075 E0.02385
G1 X105.063 Y100.866 E0.02635
G1 X105.297 Y101.673 E0.02635
G1 X105.481 Y102.493 E0.02635
G1 X105.612 Y103.323 E0.02635
G1 X105.691 Y104.160 E0.02635
G1 X105.717 Y105.000 E0.02635
G1 X105.691 Y105.840 E0.02635
G1 X105.612 Y106.677 E0.02635
G1 X105.481 Y107.507 E0.02635
G1 X105.297 Y108.327 E0.02635
G1 X105.063 Y109.134 E0.02635
G1 X104.778 Y109.925 E0.02635
G1 X104.444 Y110.696 E0.02635
G1 X104.063 Y111.445 E0.02635
G1 X103.635 Y112.168 E0.02635
G1 X103.163 Y112.863 E0.02635
G1 X102.648 Y113.527 E0.02635
G1 X102.092 Y114.158 E0.02635
G1 X101.498 Y114.752 E0.02635
G1 X100.867 Y115.308 E0.02635
G1 X100.203 Y115.823 E0.02635
G1 X99.508 Y116.295 E0.02635
G1 X98.785 Y116.723 E0.02635
G1 X98.036 Y117.104 E0.02635
G1 X97.265 Y117.438 E0.02635
G1 X96.474 Y117.723 E0.02635
G1 X95.667 Y117.957 E0.02635
G1 X94.847 Y118.141 E0.02635
G1 X94.017 Y118.272 E0.02635
G1 X93.180 Y118.351 E0.02635
G1 X92.340 Y118.377 E0.02635
G1 X91.500 Y118.351 E0.02635
G1 X90.663 Y118.272 E0.02635
G1 X89.833 Y118.141 E0.02635
G1 X89.013 Y117.957 E0.02635
G1 X88.206 Y117.723 E0.02635
G1 X87.415 Y117.438 E0.02635
G1 X86.644 Y117.104 E0.02635
G1 X85.895 Y116.723 E0.02635
G1 X85.172 Y116.295 E0.02635
G1 X84.477 Y115.823 E0.02635
G1 X83.812 Y115.307 E0.02640
G1 X83.126 Y114.695 E0.02880
G1 X82.588 Y114.158 E0.02385
G1 X82.032 Y113.527 E0.02635
G1 X81.517 Y112.863 E0.02635
G1 X81.045 Y112.168 E0.02635
G1 X80.617 Y111.445 E0.02635
G1 X80.236 Y110.696 E0.02635
G1 X79.902 Y109.925 E0.02635
G1 X79.617 Y109.134 E0.02635
G1 X79.383 Y108.327 E0.02635
G1 X79.199 Y107.507 E0.02635
G1 X79.068 Y106.677 E0.02635
G1 X78.989 Y105.840 E0.02635
G1 X78.963 Y105.000 E0.02635
G1 X78.989 Y104.160 E0.02635
G1 X79.068 Y103.323 E0.02635
G1 X79.199 Y102.493 E0.02635
G1 X79.383 Y101.673 E0.02635
G1 X79.617 Y100.866 E0.02635
G1 X79.902 Y100.075 E0.02635
G1 X80.236 Y99.304 E0.02635
G1 X80.617 Y98.555 E0.02635
G1 X81.045 Y97.832 E0.02635
G1 X81.517 Y97.137 E0.02635
G1 X82.032 Y96.473 E0.02635
G1 X82.588 Y95.842 E0.02635
G1 X83.182 Y95.248 E0.02635
G1 X83.768 Y94.732 E0.02447
G1 X84.017 Y95.015 F10800.000
;TYPE:External perimeter
G1 F1200.000
G1 X84.699 Y94.483 E0.02711
G1 X85.374 Y94.024 E0.02561
G1 X86.077 Y93.608 E0.02561
G1 X86.805 Y93.237 E0.02561
G1 X87.554 Y92.913 E0.02561
G1 X88.323 Y92.636 E0.02561
G1 X89.107 Y92.408 E0.02561
G1 X89.904 Y92.230 E0.02561
G1 X90.711 Y92.102 E0.02561
G1 X91.524 Y92.025 E0.02561
G1 X92.261 Y92.002 E0.02314
G1 X93.156 Y92.025 E0.02805
G1 X93.969 Y92.102 E0.02563
G1 X94.776 Y92.230 E0.02561
G1 X95.573 Y92.408 E0.02561
G1 X96.357 Y92.636 E0.02561
G1 X97.126 Y92.913 E0.02561
G1 X97.875 Y93.237 E0.02561
G1 X98.603 Y93.608 E0.02561
G1 X99.306 Y94.024 E0.02561
G1 X99.981 Y94.483 E0.02561
G1 X100.627 Y94.983 E0.02561
G1 X101.239 Y95.523 E0.02561
G1 X101.817 Y96.101 E0.02561
G1 X102.357 Y96.713 E0.02561
G1 X102.857 Y97.359 E0.02561
G1 X103.316 Y98.034 E0.02561
G1 X103.732 Y98.738 E0.02563
G1 X104.134 Y99.537 E0.02805
G1 X104.427 Y100.214 E0.02314
G1 X104.704 Y100.983 E0.02561
M73 Q1 S22
G1 X104.932 Y101.767 E0.02561
G1 X105.110 Y102.564 E0.02561
G1 X105.238 Y103.371 E0.02561
G1 X105.315 Y104.184 E0.02561
G1 X105.340 Y105.000 E0.02561
G1 X105.315 Y105.816 E0.02561
G1 X105.238 Y106.629 E0.02561
G1 X105.110 Y107.436 E0.02561
G1 X104.932 Y108.233 E0.02561
G1 X104.704 Y109.017 E0.02561
G1 X104.427 Y109.786 E0.02561
G1 X104.103 Y110.535 E0.02561
G1 X103.732 Y111.263 E0.02561
G1 X103.316 Y111.966 E0.02561
G1 X102.857 Y112.641 E0.02561
G1 X102.357 Y113.287 E0.02561
G1 X101.817 Y113.899 E0.02561
G1 X101.239 Y114.477 E0.02561
G1 X100.627 Y115.017 E0.02561
G1 X99.981 Y115.517 E0.02561
G1 X99.306 Y115.976 E0.02561
G1 X98.603 Y116.392 E0.02561
G1 X97.875 Y116.763 E0.02561
G1 X97.500 Y116.925 E0.01280
G1 X97.126 Y117.087 E0.01280
G1 X96.357 Y117.364 E0.02561
G1 X95.573 Y117.592 E0.02561
G1 X94.776 Y117.770 E0.02561
G1 X93.969 Y117.898 E0.02561
G1 X93.156 Y117.975 E0.02561
G1 X92.340 Y118.000 E0.02561
G1 X91.524 Y117.975 E0.02561
G1 X90.711 Y117.898 E0.02561
G1 X89.904 Y117.770 E0.02561
G1 X89.107 Y117.592 E0.02561
G1 X88.323 Y117.364 E0.02561
G1 X87.554 Y117.087 E0.02561
G1 X86.805 Y116.763 E0.02561
G1 X86.077 Y116.392 E0.02561
G1 X85.374 Y115.976 E0.02561
G1 X84.699 Y115.517 E0.02561
G1 X84.053 Y115.016 E0.02563
G1 X83.385 Y114.421 E0.02805
G1 X82.863 Y113.899 E0.02314
G1 X82.323 Y113.287 E0.02561
G1 X81.823 Y112.641 E0.02561
G1 X81.364 Y111.966 E0.02561
G1 X80.948 Y111.263 E0.02561
G1 X80.577 Y110.535 E0.02561
G1 X80.253 Y109.786 E0.02561
G1 X79.976 Y109.017 E0.02561
G1 X79.748 Y108.233 E0.02561
G1 X79.570 Y107.436 E0.02561
M73 Q2 S22
G1 X79.442 Y106.629 E0.02561
G1 X79.365 Y105.816 E0.02561
G1 X79.340 Y105.000 E0.02561
M73 P2 R22
G1 X79.365 Y104.184 E0.02561
G1 X79.442 Y103.371 E0.02561
G1 X79.570 Y102.564 E0.02561
G1 X79.748 Y101.767 E0.02561
G1 X79.976 Y100.983 E0.02561
G1 X80.253 Y100.214 E0.02561
G1 X80.577 Y99.465 E0.02561
G1 X80.948 Y98.737 E0.02561
G1 X81.364 Y98.034 E0.02561
G1 X81.823 Y97.359 E0.02561
G1 X82.323 Y96.713 E0.02561
G1 X82.863 Y96.101 E0.02561
G1 X83.441 Y95.523 E0.02561
G1 X83.972 Y95.055 E0.02222
G1 X83.949 Y94.621 F10800.000
;WIPE_START
G1 F8640.000
G1 X84.699 Y94.483 E-0.21350
G1 X85.374 Y94.024 E-0.18858
G1 X86.077 Y93.608 E-0.18858
G1 X86.731 Y93.275 E-0.16934
;WIPE_END
G1 E-0.04000 F2100.000
G1 Z0.600 F10800.000
G1 X82.097 Y92.927
G1 Z0.200
G1 E0.80000 F2100.000
;TYPE:Perimeter
G1 F1200.000
G1 X83.031 Y92.187 E0.03737
G1 X83.854 Y91.628 E0.03120
G1 X84.710 Y91.121 E0.03120
G1 X85.597 Y90.670 E0.03120
G1 X86.510 Y90.275 E0.03120
G1 X87.446 Y89.938 E0.03120
G1 X88.384 Y89.665 E0.03063
G1 X89.373 Y89.443 E0.03177
G1 X90.355 Y89.287 E0.03119
G1 X91.345 Y89.194 E0.03119
G1 X92.355 Y89.163 E0.03168
G1 X93.334 Y89.194 E0.03071
G1 X94.325 Y89.287 E0.03120
G1 X95.308 Y89.443 E0.03120
G1 X96.279 Y89.660 E0.03120
G1 X97.234 Y89.938 E0.03120
G1 X98.153 Y90.269 E0.03063
G1 X99.084 Y90.670 E0.03177
G1 X99.970 Y91.121 E0.03119
G1 X100.826 Y91.628 E0.03120
G1 X101.649 Y92.187 E0.03120
G1 X102.435 Y92.797 E0.03120
G1 X103.182 Y93.455 E0.03120
G1 X103.885 Y94.158 E0.03120
G1 X104.543 Y94.905 E0.03120
G1 X105.142 Y95.677 E0.03063
G1 X105.712 Y96.514 E0.03177
G1 X106.219 Y97.370 E0.03119
G1 X106.670 Y98.257 E0.03120
G1 X107.065 Y99.170 E0.03120
G1 X107.402 Y100.106 E0.03120
G1 X107.675 Y101.044 E0.03063
G1 X107.897 Y102.033 E0.03177
G1 X108.053 Y103.015 E0.03119
G1 X108.146 Y104.006 E0.03120
G1 X108.178 Y105.000 E0.03120
G1 X108.146 Y105.994 E0.03120
G1 X108.053 Y106.985 E0.03120
G1 X107.897 Y107.968 E0.03120
G1 X107.680 Y108.939 E0.03120
G1 X107.402 Y109.894 E0.03120
G1 X107.065 Y110.830 E0.03120
G1 X106.670 Y111.743 E0.03120
G1 X106.219 Y112.630 E0.03120
G1 X105.712 Y113.486 E0.03120
G1 X105.153 Y114.309 E0.03120
G1 X104.543 Y115.095 E0.03120
G1 X103.885 Y115.842 E0.03120
G1 X103.210 Y116.517 E0.02995
G1 X102.435 Y117.203 E0.03246
G1 X101.649 Y117.813 E0.03117
G1 X100.826 Y118.372 E0.03119
G1 X99.956 Y118.886 E0.03168
G1 X99.083 Y119.330 E0.03071
G1 X98.170 Y119.725 E0.03120
G1 X97.234 Y120.062 E0.03120
G1 X96.296 Y120.335 E0.03063
G1 X95.307 Y120.557 E0.03177
G1 X94.325 Y120.713 E0.03119
G1 X93.334 Y120.806 E0.03120
G1 X92.340 Y120.838 E0.03120
G1 X91.346 Y120.806 E0.03120
G1 X90.355 Y120.713 E0.03120
G1 X89.372 Y120.557 E0.03120
G1 X88.401 Y120.340 E0.03120
G1 X87.446 Y120.062 E0.03120
G1 X86.510 Y119.725 E0.03120
G1 X85.597 Y119.330 E0.03120
G1 X84.710 Y118.879 E0.03120
G1 X83.854 Y118.372 E0.03120
G1 X83.031 Y117.813 E0.03120
G1 X82.245 Y117.203 E0.03120
G1 X81.499 Y116.545 E0.03119
G1 X80.785 Y115.830 E0.03168
G1 X80.137 Y115.095 E0.03071
G1 X79.527 Y114.309 E0.03120
G1 X78.968 Y113.486 E0.03120
G1 X78.462 Y112.630 E0.03119
G1 X78.004 Y111.729 E0.03168
G1 X77.615 Y110.830 E0.03071
G1 X77.278 Y109.894 E0.03120
G1 X77.000 Y108.939 E0.03120
G1 X76.783 Y107.968 E0.03119
G1 X76.626 Y106.970 E0.03168
G1 X76.534 Y105.994 E0.03071
G1 X76.502 Y105.000 E0.03120
G1 X76.534 Y104.006 E0.03120
G1 X76.627 Y103.015 E0.03120
G1 X76.783 Y102.032 E0.03120
G1 X77.000 Y101.061 E0.03120
G1 X77.278 Y100.106 E0.03120
G1 X77.615 Y99.170 E0.03120
G1 X78.010 Y98.257 E0.03120
G1 X78.461 Y97.370 E0.03120
G1 X78.968 Y96.514 E0.03120
G1 X79.527 Y95.691 E0.03120
G1 X80.137 Y94.905 E0.03120
G1 X80.795 Y94.158 E0.03120
G1 X81.498 Y93.455 E0.03120
G1 X82.052 Y92.967 E0.02313
G1 X81.802 Y92.684 F10800.000
;TYPE:External perimeter
G1 F1200.000
G1 X82.004 Y92.506 E0.00844
G1 X82.809 Y91.882 E0.03194
G1 X83.652 Y91.309 E0.03194
G1 X84.528 Y90.791 E0.03194
G1 X85.436 Y90.328 E0.03194
G1 X86.371 Y89.924 E0.03194
G1 X87.329 Y89.579 E0.03194
G1 X88.290 Y89.300 E0.03136
G1 X89.302 Y89.072 E0.03252
G1 X90.308 Y88.913 E0.03194
G1 X91.322 Y88.817 E0.03194
G1 X92.356 Y88.786 E0.03243
G1 X93.358 Y88.817 E0.03145
G1 X94.372 Y88.913 E0.03194
G1 X95.378 Y89.072 E0.03194
G1 X96.372 Y89.295 E0.03194
G1 X97.351 Y89.579 E0.03194
G1 X98.292 Y89.918 E0.03136
G1 X99.244 Y90.328 E0.03252
G1 X100.152 Y90.791 E0.03194
G1 X101.028 Y91.309 E0.03194
G1 X101.871 Y91.882 E0.03194
G1 X102.676 Y92.506 E0.03194
G1 X103.440 Y93.180 E0.03194
G1 X104.160 Y93.900 E0.03194
G1 X104.834 Y94.664 E0.03194
G1 X105.447 Y95.455 E0.03136
G1 X106.031 Y96.312 E0.03252
G1 X106.549 Y97.188 E0.03194
G1 X107.012 Y98.096 E0.03194
G1 X107.416 Y99.031 E0.03194
G1 X107.761 Y99.989 E0.03194
G1 X108.040 Y100.950 E0.03136
G1 X108.268 Y101.962 E0.03252
G1 X108.427 Y102.968 E0.03194
G1 X108.523 Y103.982 E0.03194
G1 X108.555 Y105.000 E0.03194
G1 X108.523 Y106.018 E0.03194
G1 X108.427 Y107.032 E0.03194
G1 X108.268 Y108.038 E0.03194
G1 X108.045 Y109.032 E0.03194
G1 X107.761 Y110.011 E0.03194
G1 X107.416 Y110.969 E0.03194
G1 X107.012 Y111.904 E0.03194
G1 X106.549 Y112.812 E0.03194
G1 X106.031 Y113.688 E0.03194
G1 X105.458 Y114.531 E0.03194
G1 X104.834 Y115.336 E0.03194
G1 X104.160 Y116.100 E0.03194
G1 X103.468 Y116.792 E0.03068
G1 X102.676 Y117.494 E0.03320
G1 X101.871 Y118.118 E0.03193
G1 X101.028 Y118.691 E0.03194
G1 X100.138 Y119.216 E0.03243
G1 X99.244 Y119.672 E0.03145
G1 X98.309 Y120.076 E0.03194
G1 X97.351 Y120.421 E0.03194
G1 X96.390 Y120.700 E0.03136
G1 X95.378 Y120.928 E0.03252
G1 X94.372 Y121.087 E0.03194
G1 X93.358 Y121.183 E0.03194
G1 X92.340 Y121.215 E0.03194
G1 X91.322 Y121.183 E0.03194
G1 X90.308 Y121.087 E0.03194
G1 X89.302 Y120.928 E0.03194
G1 X88.308 Y120.705 E0.03194
G1 X87.329 Y120.421 E0.03194
G1 X86.371 Y120.076 E0.03194
G1 X85.436 Y119.672 E0.03194
G1 X84.528 Y119.209 E0.03194
G1 X83.652 Y118.691 E0.03194
G1 X82.809 Y118.118 E0.03194
G1 X82.004 Y117.494 E0.03194
G1 X81.240 Y116.820 E0.03194
G1 X80.510 Y116.088 E0.03243
G1 X79.846 Y115.336 E0.03145
G1 X79.222 Y114.531 E0.03194
G1 X78.649 Y113.688 E0.03194
G1 X78.131 Y112.812 E0.03194
G1 X77.662 Y111.890 E0.03243
G1 X77.264 Y110.969 E0.03145
G1 X76.919 Y110.011 E0.03194
G1 X76.635 Y109.032 E0.03194
G1 X76.412 Y108.038 E0.03194
G1 X76.252 Y107.017 E0.03243
G1 X76.157 Y106.018 E0.03145
G1 X76.125 Y105.000 E0.03194
G1 X76.157 Y103.982 E0.03194
G1 X76.253 Y102.968 E0.03194
G1 X76.412 Y101.962 E0.03194
G1 X76.635 Y100.968 E0.03194
G1 X76.919 Y99.989 E0.03194
G1 X77.264 Y99.031 E0.03194
G1 X77.668 Y98.096 E0.03194
G1 X78.131 Y97.188 E0.03194
G1 X78.649 Y96.312 E0.03194
G1 X79.222 Y95.469 E0.03194
G1 X79.846 Y94.664 E0.03194
G1 X80.520 Y93.900 E0.03194
G1 X81.240 Y93.180 E0.03194
G1 X81.757 Y92.724 E0.02162
G1 X82.059 Y92.767 F10800.000
;WIPE_START
G1 F8640.000
G1 X82.004 Y92.506 E-0.07599
G1 X82.809 Y91.882 E-0.23521
G1 X83.652 Y91.309 E-0.23521
G1 X84.448 Y90.839 E-0.21359
;WIPE_END
