; generated by PrusaSlicer 2.6.1+win64 on 2023-10-08 at 13:45:49 UTC


;
;
; 

; external perimeters extrusion width = 0.45mm
; perimeters extrusion width = 0.45mm
; infill extrusion width = 0.45mm
; solid infill extrusion width = 0.45mm
; top infill extrusion width = 0.40mm
; first layer extrusion width = 0.42mm

M73 P0 R131
M73 Q0 S131
M201 X1000 Y1000 Z200 E5000 ; sets maximum accelerations, mm/sec^2
M203 X200 Y200 Z12 E120 ; sets maximum feedrates, mm / sec
M204 S1250 T1250 ; sets acceleration (S) and retract acceleration (R), mm/sec^2
M205 X8.00 Y8.00 Z0.40 E4.50 ; sets the jerk limits, mm/sec
M205 S0 T0 ; sets the minimum extruding and travel feed rate, mm/sec
;TYPE:Custom
M862.3 P "MK3S" ; printer model check
M862.1 P0.4 ; nozzle diameter check
M115 U3.12.2 ; tell printer latest fw version
G90 ; use absolute coordinates
M83 ; extruder relative mode
M104 S215 ; set extruder temp
M140 S60 ; set bed temp
M190 S60 ; wait for bed temp
M109 S215 ; wait for extruder temp
G28 W ; home all without mesh bed level
G80 ; mesh bed leveling

G1 Z0.2 F720
G1 Y-3 F1000 ; go outside print area
G92 E0
G1 X60 E9 F1000 ; intro line
G1 X100 E12.5 F1000 ; intro line

G92 E0
M221 S95

; Don't change E values below. Excessive value can damage the printer.
M907 E430 ; set extruder motor current
G21 ; set units to millimeters
G90 ; use absolute coordinates
M83 ; use relative distances for extrusion
M900 K0.05 ; Filament gcode LA 1.5
M900 K30 ; Filament gcode LA 1.0
M107
;LAYER_CHANGE
;Z:0.2
;HEIGHT:0.2
;BEFORE_LAYER_CHANGE
G92 E0.0
;0.2


G1 E-.8 F2100
G1 Z.4 F720
;AFTER_LAYER_CHANGE
;0.2
G1 X19.154 Y22.224 F10800
G1 Z.2 F720
G1 E.8 F2100
M204 S800
;TYPE:Skirt/Brim
;WIDTH:0.42
G1 F1200
G1 X19.855 Y21.744 E.02664
G1 X20.637 Y21.43 E.02642
G1 X33.592 Y18.11 E.41932
G1 X34.167 Y18.036 E.01818
G1 X183.894 Y17.079 E4.69468
G1 X223.234 Y17.08 E1.23348
M73 P0 R130
G1 X224.568 Y17.22 E.04206
G1 X225.852 Y17.608 E.04206
G1 X227.04 Y18.23 E.04205
G1 X228.092 Y19.063 E.04207
G1 X228.968 Y20.078 E.04204
G1 X229.639 Y21.24 E.04207
G1 X230.145 Y22.797 E.05133
G1 X230.285 Y24.131 E.04206
G1 X231.364 Y144.367 E3.77007
G1 X230.196 Y185.387 E1.28667
G1 X229.972 Y186.71 E.04207
G1 X229.37 Y188.232 E.05132
G1 X228.627 Y189.35 E.04209
G1 X227.689 Y190.308 E.04204
G1 X226.844 Y190.922 E.03275
G1 X225.643 Y191.518 E.04204
G1 X224.351 Y191.879 E.04206
G1 X223.098 Y191.992 E.03945
G1 X153.472 Y192.245 E2.18309
G1 X114.213 Y192.245 E1.23094
G1 X33.975 Y191.609 E2.51589
G1 X33.404 Y191.535 E.01805
G1 X20.367 Y188.191 E.422
G1 X19.353 Y187.715 E.03512
G1 X18.555 Y187.01 E.03339
G1 X18.181 Y186.496 E.01993
G1 X17.862 Y185.84 E.02287
G1 X17.672 Y185.135 E.02289
G1 X17.616 Y184.479 E.02064
G1 X17.805 Y25.16 E4.99534
G1 X17.884 Y24.387 E.02436
G1 X18.143 Y23.58 E.02657
G1 X18.59 Y22.824 E.02754
G1 X19.113 Y22.268 E.02393
M204 S1000
; printing object 0 id:0 copy 6
;WIPE_START
G1 F8640
G1 X19.855 Y21.744 E-.20975
G1 X20.637 Y21.43 E-.19458
G1 X22.297 Y21.005 E-.39567
;WIPE_END
G1 Z.6 F720
G1 X21.18 Y184.563 F10800
G1 Z.2 F720
G1 E.8 F2100
M204 S800
;TYPE:Perimeter
;WIDTH:0.419999
G1 F1200
G1 X21.209 Y184.332 E.0073
G1 X21.325 Y184.208 E.00532
G1 X21.763 Y184.115 E.01404
G1 X34.142 Y180.896 E.40104
G1 X73.157 Y180.905 E1.22329
G1 X73.789 Y180.96 E.01989
G1 X74.342 Y181.078 E.01773
G1 X74.856 Y181.304 E.01761
G1 X75.374 Y181.609 E.01885
G1 X75.845 Y182.019 E.01958
G1 X76.268 Y182.563 E.02161
G1 X76.645 Y183.377 E.02813
G1 X76.765 Y183.925 E.01759
G1 X76.82 Y184.514 E.01855
G1 X76.766 Y185.139 E.01967
G1 X76.628 Y185.613 E.01548
G1 X76.39 Y186.196 E.01974
G1 X76.003 Y186.765 E.02158
G1 X75.764 Y187.004 E.0106
G1 X75.32 Y187.395 E.01855
G1 X74.782 Y187.718 E.01968
G1 X74.134 Y187.951 E.02159
G1 X73.453 Y188.059 E.02162
G1 X34.142 Y188.068 E1.23257
G1 X21.763 Y184.849 E.40104
G1 X21.522 Y184.808 E.00766
G1 X21.277 Y184.72 E.00816
G1 X21.211 Y184.614 E.00392
M204 S1000
G1 X20.824 Y184.63 F10800
M204 S800
G1 F1200
G1 X20.8 Y184.558 E.00238
G1 X20.817 Y184.34 E.00686
G1 X20.922 Y184.082 E.00873
G1 X21.146 Y183.87 E.00967
G1 X21.668 Y183.75 E.01679
G1 X34.094 Y180.519 E.40256
G1 X73.461 Y180.528 E1.23432
G1 X74.01 Y180.613 E.01742
G1 X74.673 Y180.789 E.02151
G1 X75.131 Y181.02 E.01608
G1 X75.595 Y181.304 E.01706
G1 X76.125 Y181.764 E.022
G1 X76.587 Y182.36 E.02364
G1 X76.93 Y183.032 E.02366
G1 X77.078 Y183.489 E.01506
G1 X77.155 Y183.975 E.01543
G1 X77.197 Y184.514 E.01695
G1 X77.136 Y185.216 E.02209
G1 X76.923 Y185.949 E.02393
G1 X76.719 Y186.383 E.01504
G1 X76.295 Y187.007 E.02365
G1 X75.953 Y187.348 E.01514
G1 X75.542 Y187.7 E.01697
G1 X74.938 Y188.063 E.02209
G1 X74.228 Y188.318 E.02365
G1 X73.483 Y188.436 E.02365
G1 X34.094 Y188.445 E1.23501
G1 X21.668 Y185.214 E.40256
G1 X21.282 Y185.154 E.01225
M73 Q0 S130
G1 X21.038 Y185.019 E.00874
G1 X20.898 Y184.861 E.00662
G1 X20.842 Y184.687 E.00573
M204 S1000
G1 X20.44 Y184.753 F10800
M204 S800
;TYPE:External perimeter
G1 F1200
G1 X20.408 Y184.417 E.01058
G1 X20.511 Y184.017 E.01295
G1 X20.7 Y183.738 E.01057
G1 X20.967 Y183.531 E.01059
G1 X21.164 Y183.467 E.00649
G1 X21.573 Y183.385 E.01308
G1 X34.046 Y180.142 E.40408
G1 X73.49 Y180.151 E1.23674
G1 X74.326 Y180.28 E.02652
G1 X74.817 Y180.439 E.01618
G1 X75.572 Y180.82 E.02652
G1 X76.009 Y181.138 E.01695
G1 X76.405 Y181.51 E.01704
G1 X76.907 Y182.158 E.0257
G1 X77.279 Y182.888 E.02569
G1 X77.446 Y183.401 E.01692
G1 X77.527 Y183.916 E.01635
G1 X77.574 Y184.514 E.01881
G1 X77.574 Y184.754 E.00753
G1 X77.506 Y185.293 E.01703
G1 X77.277 Y186.082 E.02576
G1 X77.047 Y186.57 E.01692
G1 X76.586 Y187.248 E.02571
G1 X76.007 Y187.828 E.0257
G1 X75.569 Y188.146 E.01697
G1 X75.093 Y188.407 E.01702
G1 X74.322 Y188.685 E.0257
G1 X73.513 Y188.813 E.02568
G1 X34.046 Y188.822 E1.23746
G1 X21.573 Y185.579 E.40408
G1 X21.16 Y185.517 E.01309
G1 X20.798 Y185.318 E.01295
G1 X20.575 Y185.065 E.01057
G1 X20.464 Y184.808 E.00878
M204 S1000
G1 X20.681 Y184.517 F10800
;WIPE_START
G1 F8640
G1 X20.408 Y184.417 E-.0912
G1 X20.511 Y184.017 E-.09537
G1 X20.7 Y183.738 E-.07781
G1 X20.967 Y183.531 E-.07801
G1 X21.164 Y183.467 E-.04783
G1 X21.573 Y183.385 E-.09632
G1 X22.887 Y183.043 E-.31346
;WIPE_END
G1 Z.6 F720
G1 X74.852 Y181.429 F10800
G1 Z.2 F720
G1 E.8 F2100
M204 S800
;TYPE:Solid infill
;WIDTH:0.423439
G1 F1200
G1 X75.642 Y182.219 E.03535
G1 X76.028 Y182.716 E.01991
G1 X76.318 Y183.286 E.02023
G1 X76.389 Y183.503 E.00722
G1 X74.222 Y181.336 E.09696
G1 X74.085 Y181.292 E.00455
G1 X73.558 Y181.21 E.01688
G1 X76.518 Y184.17 E.13245
G1 X76.537 Y184.295 E.004
G1 X76.533 Y184.724 E.01357
G1 X72.997 Y181.187 E.15824
G1 X72.458 Y181.187 E.01705
G1 X76.457 Y185.186 E.17894
G1 X76.336 Y185.603 E.01374
G1 X71.92 Y181.187 E.1976
G1 X71.382 Y181.187 E.01702
G1 X76.178 Y185.983 E.2146
G1 X75.969 Y186.312 E.01233
G1 X70.844 Y181.187 E.22932
G1 X70.305 Y181.187 E.01705
G1 X75.743 Y186.625 E.24333
G1 X75.474 Y186.894 E.01204
G1 X69.767 Y181.187 E.25537
G1 X69.229 Y181.187 E.01702
G1 X75.185 Y187.143 E.26651
G1 X74.858 Y187.354 E.01231
G1 X68.691 Y181.187 E.27595
G1 X68.152 Y181.186 E.01705
G1 X74.489 Y187.523 E.28356
G1 X74.093 Y187.665 E.01331
G1 X67.614 Y181.186 E.28991
G1 X67.076 Y181.186 E.01702
G1 X73.634 Y187.744 E.29345
G1 X73.431 Y187.776 E.0065
G1 X73.128 Y187.776 E.00959
G1 X66.538 Y181.186 E.29488
G1 X65.999 Y181.186 E.01705
M73 P0 R129
G1 X72.59 Y187.776 E.2949
G1 X72.052 Y187.777 E.01702
G1 X65.461 Y181.186 E.29492
G1 X64.923 Y181.186 E.01702
G1 X71.514 Y187.777 E.29492
G1 X70.976 Y187.777 E.01702
G1 X64.385 Y181.186 E.29492
G1 X63.846 Y181.185 E.01705
G1 X70.438 Y187.777 E.29497
G1 X69.9 Y187.777 E.01702
G1 X63.308 Y181.185 E.29497
G1 X62.77 Y181.185 E.01702
G1 X69.362 Y187.777 E.29497
G1 X68.824 Y187.777 E.01702
G1 X62.232 Y181.185 E.29497
G1 X61.693 Y181.185 E.01705
G1 X68.286 Y187.777 E.29499
G1 X67.748 Y187.778 E.01702
G1 X61.155 Y181.185 E.29501
G1 X60.617 Y181.185 E.01702
G1 X67.21 Y187.778 E.29501
G1 X66.672 Y187.778 E.01702
G1 X60.079 Y181.185 E.29501
G1 X59.54 Y181.185 E.01705
G1 X66.134 Y187.778 E.29503
G1 X65.596 Y187.778 E.01702
G1 X59.002 Y181.184 E.29506
G1 X58.464 Y181.184 E.01702
M73 Q1 S130
G1 X65.058 Y187.778 E.29506
G1 X64.52 Y187.778 E.01702
M73 P1 R129
G1 X57.926 Y181.184 E.29506
G1 X57.387 Y181.184 E.01705
G1 X63.982 Y187.778 E.29508
G1 X63.444 Y187.778 E.01702
G1 X56.849 Y181.184 E.29508
G1 X56.311 Y181.184 E.01702
G1 X62.906 Y187.779 E.2951
G1 X62.368 Y187.779 E.01702
G1 X55.773 Y181.184 E.2951
G1 X55.234 Y181.184 E.01705
G1 X61.83 Y187.779 E.29512
G1 X61.292 Y187.779 E.01702
G1 X54.696 Y181.184 E.29512
G1 X54.158 Y181.183 E.01702
G1 X60.754 Y187.779 E.29515
G1 X60.216 Y187.779 E.01702
G1 X53.62 Y181.183 E.29515
G1 X53.081 Y181.183 E.01705
G1 X59.678 Y187.779 E.29517
G1 X59.14 Y187.779 E.01702
G1 X52.543 Y181.183 E.29517
G1 X52.005 Y181.183 E.01702
G1 X58.602 Y187.78 E.29519
G1 X58.064 Y187.78 E.01702
G1 X51.467 Y181.183 E.29519
G1 X50.928 Y181.183 E.01705
G1 X57.526 Y187.78 E.29521
G1 X56.988 Y187.78 E.01702
G1 X50.39 Y181.183 E.29521
G1 X49.852 Y181.183 E.01702
G1 X56.449 Y187.78 E.29519
G1 X55.911 Y187.78 E.01702
G1 X49.314 Y181.182 E.29521
G1 X48.775 Y181.182 E.01705
G1 X55.373 Y187.78 E.29523
G1 X54.835 Y187.78 E.01702
G1 X48.237 Y181.182 E.29523
G1 X47.699 Y181.182 E.01702
G1 X54.297 Y187.781 E.29526
G1 X53.759 Y187.781 E.01702
G1 X47.161 Y181.182 E.29526
G1 X46.622 Y181.182 E.01705
G1 X53.221 Y187.781 E.29528
G1 X52.683 Y187.781 E.01702
G1 X46.084 Y181.182 E.29528
G1 X45.546 Y181.182 E.01702
G1 X52.145 Y187.781 E.29528
G1 X51.607 Y187.781 E.01702
G1 X45.008 Y181.182 E.29528
G1 X44.469 Y181.181 E.01705
G1 X51.069 Y187.781 E.29532
G1 X50.531 Y187.781 E.01702
G1 X43.931 Y181.181 E.29532
G1 X43.393 Y181.181 E.01702
G1 X49.993 Y187.782 E.29535
G1 X49.455 Y187.782 E.01702
G1 X42.855 Y181.181 E.29535
G1 X42.316 Y181.181 E.01705
G1 X48.917 Y187.782 E.29537
G1 X48.379 Y187.782 E.01702
G1 X41.778 Y181.181 E.29537
G1 X41.24 Y181.181 E.01702
G1 X47.841 Y187.782 E.29537
G1 X47.303 Y187.782 E.01702
G1 X40.702 Y181.181 E.29537
G1 X40.163 Y181.18 E.01705
G1 X46.765 Y187.782 E.29541
G1 X46.227 Y187.782 E.01702
G1 X39.625 Y181.18 E.29541
G1 X39.087 Y181.18 E.01702
G1 X45.689 Y187.783 E.29544
G1 X45.151 Y187.783 E.01702
G1 X38.549 Y181.18 E.29544
G1 X38.01 Y181.18 E.01705
G1 X44.613 Y187.783 E.29546
G1 X44.075 Y187.783 E.01702
G1 X37.472 Y181.18 E.29546
G1 X36.934 Y181.18 E.01702
G1 X43.537 Y187.783 E.29546
G1 X42.999 Y187.783 E.01702
G1 X36.396 Y181.18 E.29546
G1 X35.857 Y181.18 E.01705
G1 X42.461 Y187.783 E.29548
G1 X41.923 Y187.783 E.01702
G1 X35.319 Y181.179 E.2955
G1 X34.781 Y181.179 E.01702
G1 X41.385 Y187.784 E.29553
G1 X40.847 Y187.784 E.01702
G1 X34.243 Y181.179 E.29553
G1 X34.178 Y181.179 E.00206
G1 X33.802 Y181.277 E.01229
G1 X40.309 Y187.784 E.29116
G1 X39.771 Y187.784 E.01702
G1 X33.375 Y181.388 E.2862
G1 X32.948 Y181.499 E.01396
G1 X39.233 Y187.784 E.28123
G1 X38.695 Y187.784 E.01702
G1 X32.521 Y181.61 E.27626
G1 X32.094 Y181.721 E.01396
G1 X38.157 Y187.784 E.2713
G1 X37.619 Y187.784 E.01702
G1 X31.667 Y181.832 E.26633
G1 X31.24 Y181.943 E.01396
G1 X37.081 Y187.785 E.26138
G1 X36.543 Y187.785 E.01702
G1 X30.813 Y182.054 E.25642
G1 X30.386 Y182.165 E.01396
G1 X36.005 Y187.785 E.25145
G1 X35.467 Y187.785 E.01702
G1 X29.958 Y182.276 E.24651
G1 X29.531 Y182.387 E.01396
G1 X34.929 Y187.785 E.24154
G1 X34.391 Y187.785 E.01702
G1 X29.104 Y182.498 E.23657
G1 X28.677 Y182.609 E.01396
G1 X33.739 Y187.671 E.2265
G1 X33.011 Y187.482 E.0238
G1 X28.25 Y182.721 E.21304
G1 X27.823 Y182.832 E.01396
G1 X32.284 Y187.293 E.19961
G1 X31.557 Y187.104 E.02377
G1 X27.396 Y182.943 E.18619
G1 X26.969 Y183.054 E.01396
G1 X30.83 Y186.915 E.17276
G1 X30.103 Y186.726 E.02377
G1 X26.542 Y183.165 E.15934
G1 X26.115 Y183.276 E.01396
G1 X29.375 Y186.536 E.14587
G1 X28.648 Y186.347 E.02377
G1 X25.688 Y183.387 E.13245
G1 X25.26 Y183.498 E.01399
G1 X27.921 Y186.158 E.11905
G1 X27.194 Y185.969 E.02377
G1 X24.833 Y183.609 E.10562
G1 X24.406 Y183.72 E.01396
G1 X26.467 Y185.78 E.0922
G1 X25.739 Y185.591 E.0238
G1 X23.979 Y183.831 E.07875
G1 X23.552 Y183.942 E.01396
G1 X25.012 Y185.402 E.06533
G1 X24.285 Y185.213 E.02377
G1 X23.125 Y184.053 E.05191
G1 X22.698 Y184.164 E.01396
G1 X23.558 Y185.024 E.03848
G1 X22.83 Y184.835 E.0238
G1 X22.271 Y184.275 E.02504
G1 X21.844 Y184.386 E.01396
G1 X22.34 Y184.883 E.02222
M204 S1000
; stop printing object 0 id:0 copy 6
; printing object 0 id:0 copy 0
;WIPE_START
G1 F8640
G1 X21.844 Y184.386 E-.16213
G1 X22.271 Y184.275 E-.10187
G1 X22.83 Y184.835 E-.1827
G1 X23.558 Y185.024 E-.17367
G1 X23.008 Y184.474 E-.17963
;WIPE_END
G1 Z.6 F720
G1 X22.028 Y164.716 F10800
G1 Z.2 F720
G1 E.8 F2100
M204 S800
;TYPE:Perimeter
;WIDTH:0.419999
G1 F1200
G1 X21.97 Y164.622 E.00346
G1 X21.999 Y164.391 E.0073
G1 X22.116 Y164.267 E.00535
G1 X22.553 Y164.174 E.01401
G1 X34.933 Y160.956 E.40106
G1 X73.947 Y160.964 E1.22325
G1 X74.58 Y161.019 E.01992
G1 X75.133 Y161.137 E.01773
G1 X75.646 Y161.363 E.01758
G1 X76.164 Y161.668 E.01885
G1 X76.636 Y162.078 E.0196
G1 X77.058 Y162.623 E.02161
G1 X77.435 Y163.436 E.0281
G1 X77.556 Y163.985 E.01763
G1 X77.611 Y164.573 E.01852
G1 X77.556 Y165.199 E.0197
G1 X77.418 Y165.673 E.01548
G1 X77.181 Y166.255 E.0197
G1 X76.793 Y166.825 E.02162
G1 X76.555 Y167.063 E.01055
G1 X76.111 Y167.454 E.01855
G1 X75.573 Y167.777 E.01968
G1 X74.924 Y168.011 E.02163
G1 X74.244 Y168.118 E.02158
G1 X34.933 Y168.127 E1.23257
G1 X22.553 Y164.909 E.40106
G1 X22.313 Y164.867 E.00764
M73 Q1 S129
G1 X22.059 Y164.767 E.00856
M204 S1000
G1 X21.688 Y164.92 F10800
M204 S800
G1 F1200
G1 X21.591 Y164.617 E.00998
G1 X21.608 Y164.399 E.00686
G1 X21.713 Y164.142 E.0087
G1 X21.936 Y163.929 E.00967
G1 X22.458 Y163.809 E.01679
G1 X34.884 Y160.579 E.40256
G1 X74.251 Y160.587 E1.23432
G1 X74.8 Y160.672 E.01742
G1 X75.463 Y160.848 E.02151
G1 X75.921 Y161.079 E.01608
G1 X76.386 Y161.363 E.01708
G1 X76.915 Y161.824 E.022
G1 X77.378 Y162.42 E.02366
G1 X77.72 Y163.092 E.02364
G1 X77.868 Y163.548 E.01503
G1 X77.945 Y164.034 E.01543
G1 X77.988 Y164.573 E.01695
G1 X77.926 Y165.275 E.0221
G1 X77.713 Y166.008 E.02393
G1 X77.509 Y166.442 E.01504
G1 X77.085 Y167.066 E.02365
G1 X76.743 Y167.408 E.01516
G1 X76.332 Y167.759 E.01695
G1 X75.728 Y168.122 E.02209
G1 X75.018 Y168.377 E.02365
G1 X74.274 Y168.495 E.02362
G1 X34.884 Y168.504 E1.23504
G1 X22.458 Y165.274 E.40256
G1 X22.073 Y165.213 E.01222
G1 X21.828 Y165.079 E.00876
G1 X21.728 Y164.965 E.00475
M204 S1000
G1 X21.366 Y165.125 F10800
M204 S800
;TYPE:External perimeter
G1 F1200
G1 X21.231 Y164.812 E.01069
G1 X21.199 Y164.477 E.01055
G1 X21.302 Y164.076 E.01298
G1 X21.491 Y163.797 E.01057
G1 X21.757 Y163.591 E.01055
G1 X21.954 Y163.527 E.00649
G1 X22.363 Y163.445 E.01308
G1 X34.836 Y160.202 E.40408
G1 X74.28 Y160.21 E1.23674
G1 X75.116 Y160.339 E.02652
G1 X75.607 Y160.498 E.01618
G1 X76.362 Y160.88 E.02653
G1 X76.8 Y161.198 E.01697
G1 X77.195 Y161.569 E.01699
G1 X77.698 Y162.217 E.02572
G1 X78.069 Y162.947 E.02567
G1 X78.236 Y163.46 E.01692
G1 X78.318 Y163.975 E.01635
G1 X78.365 Y164.573 E.01881
G1 X78.365 Y164.814 E.00756
G1 X78.297 Y165.352 E.017
G1 X78.067 Y166.142 E.0258
G1 X77.838 Y166.63 E.0169
G1 X77.377 Y167.308 E.02571
G1 X76.797 Y167.887 E.0257
G1 X76.359 Y168.205 E.01697
G1 X75.884 Y168.467 E.01701
G1 X75.113 Y168.744 E.02569
G1 X74.303 Y168.872 E.02571
G1 X34.836 Y168.882 E1.23746
G1 X22.363 Y165.639 E.40408
G1 X21.95 Y165.576 E.0131
G1 X21.589 Y165.377 E.01292
G1 X21.405 Y165.169 E.00871
M204 S1000
G1 X21.52 Y164.821 F10800
;WIPE_START
G1 F8640
G1 X21.231 Y164.812 E-.0917
G1 X21.199 Y164.477 E-.0777
G1 X21.302 Y164.076 E-.0956
G1 X21.491 Y163.797 E-.07781
G1 X21.757 Y163.591 E-.07768
G1 X21.954 Y163.527 E-.04783
G1 X22.363 Y163.445 E-.09632
G1 X23.35 Y163.189 E-.23536
;WIPE_END
G1 Z.6 F720
G1 X75.643 Y161.488 F10800
G1 Z.2 F720
G1 E.8 F2100
M204 S800
;TYPE:Solid infill
;WIDTH:0.423439
G1 F1200
G1 X76.433 Y162.278 E.03535
G1 X76.818 Y162.775 E.01989
G1 X77.108 Y163.345 E.02023
G1 X77.179 Y163.563 E.00725
G1 X75.012 Y161.396 E.09696
G1 X74.876 Y161.352 E.00452
G1 X74.348 Y161.27 E.01691
G1 X77.308 Y164.23 E.13245
G1 X77.328 Y164.354 E.00397
