; generated by PrusaSlicer 2.4.1+win64 on 2023-10-07 at 23:39:37 UTC


;
;
; 

; external perimeters extrusion width = 0.45mm
; perimeters extrusion width = 0.45mm
; infill extrusion width = 0.45mm
; solid infill extrusion width = 0.45mm
; top infill extrusion width = 0.40mm
; first layer extrusion width = 0.42mm

M73 P0 R6
M73 Q0 S6
M201 X1000 Y1000 Z200 E5000 ; sets maximum accelerations, mm/sec^2
M203 X200 Y200 Z12 E120 ; sets maximum feedrates, mm / sec
M204 P1250 R1250 T1250 ; sets acceleration (P, T) and retract acceleration (R), mm/sec^2
M205 X8.00 Y8.00 Z0.40 E4.50 ; sets the jerk limits, mm/sec
M205 S0 T0 ; sets the minimum extruding and travel feed rate, mm/sec
M107
;TYPE:Custom
M862.3 P "MK3S" ; printer model check
M862.1 P0.4 ; nozzle diameter check
M115 U3.12.2 ; tell printer latest fw version
G90 ; use absolute coordinates
M83 ; extruder relative mode
M104 S215 ; set extruder temp
M140 S60 ; set bed temp
M190 S60 ; wait for bed temp
M109 S215 ; wait for extruder temp
G28 W ; home all without mesh bed level
G80 ; mesh bed leveling

G1 Z0.2 F720
G1 Y-3 F1000 ; go outside print area
G92 E0
G1 X60 E9 F1000 ; intro line
G1 X100 E12.5 F1000 ; intro line

G92 E0
M221 S95

; Don't change E values below. Excessive value can damage the printer.
M907 E430 ; set extruder motor current
G21 ; set units to millimeters
G90 ; use absolute coordinates
M83 ; use relative distances for extrusion
M900 K0.05 ; Filament gcode LA 1.5
M900 K30 ; Filament gcode LA 1.0
M107
;LAYER_CHANGE
;Z:0.2
;HEIGHT:0.2
;BEFORE_LAYER_CHANGE
G92 E0.0
;0.2


M73 P1 R6
M73 Q1 S6
G1 E-.8 F2100
M73 P1 R5
G1 Z.4 F720
;AFTER_LAYER_CHANGE
;0.2
G1 X94.792 Y102.226 F10800
G1 Z.2 F720
M73 Q2 S5
G1 E.8 F2100
M204 S800
;TYPE:Skirt/Brim
;WIDTH:0.42
G1 F1200
G1 X95.782 Y101.525 E.03803
G1 X96.537 Y101.244 E.02525
G1 X109.41 Y97.947 E.41665
G1 X110 Y97.873 E.01864
M73 P2 R5
G1 X149.325 Y97.874 E1.233
G1 X150.659 Y98.014 E.04206
G1 X151.943 Y98.402 E.04205
G1 X153.131 Y99.023 E.04206
G1 X154.182 Y99.857 E.04205
G1 X155.059 Y100.871 E.04204
G1 X155.73 Y102.034 E.04207
G1 X156.171 Y103.3 E.04205
G1 X156.366 Y104.627 E.04205
G1 X156.31 Y105.967 E.04204
G1 X156.004 Y107.273 E.04208
G1 X155.459 Y108.498 E.04205
G1 X154.693 Y109.6 E.04205
M73 Q3 S5
G1 X153.735 Y110.538 E.04207
G1 X152.618 Y111.28 E.04205
G1 X151.381 Y111.8 E.04206
G1 X150.217 Y112.06 E.0374
M73 P3 R5
G1 X149.25 Y112.127 E.03039
G1 X110 Y112.127 E1.23066
G1 X109.41 Y112.053 E.01864
G1 X96.004 Y108.576 E.43425
G1 X95.087 Y108.034 E.0334
G1 X94.408 Y107.339 E.03047
G1 X93.924 Y106.496 E.03047
G1 X93.664 Y105.56 E.03047
G1 X93.678 Y104.353 E.03783
G1 X94.068 Y103.198 E.03822
G1 X94.756 Y102.274 E.03615
M204 S1000
; printing object shirt_stay.amf id:0 copy 0
;WIPE_START
G1 F8640
G1 X95.782 Y101.525 E-.29327
G1 X96.537 Y101.244 E-.18596
G1 X97.715 Y100.943 E-.28077
;WIPE_END
G1 E-.04 F2100
G1 Z.6 F720
G1 X96.86 Y104.119 F10800
M73 Q4 S5
G1 Z.2 F720
G1 E.8 F2100
M204 S800
;TYPE:External perimeter
G1 F1200
G1 X96.972 Y104.047 E.00419
G1 X97.163 Y103.964 E.00653
G1 X97.366 Y103.919 E.00651
G1 X97.561 Y103.908 E.00613
G1 X110.052 Y100.66 E.40466
G1 X149.512 Y100.669 E1.23724
M73 P4 R5
G1 X149.791 Y100.694 E.00877
G1 X150.329 Y100.797 E.01718
G1 X150.851 Y100.966 E.01719
G1 X151.095 Y101.072 E.00834
G1 X151.578 Y101.338 E.01729
G1 X151.801 Y101.489 E.00845
G1 X152.014 Y101.654 E.00844
G1 X152.416 Y102.032 E.01729
G1 X152.592 Y102.231 E.00834
G1 X152.916 Y102.677 E.0173
G1 X153.051 Y102.906 E.00834
G1 X153.285 Y103.403 E.01719
G1 X153.454 Y103.924 E.01719
G1 X153.512 Y104.184 E.00834
G1 X153.581 Y104.731 E.01729
G1 X153.59 Y105 E.00844
G1 X153.581 Y105.269 E.00844
G1 X153.512 Y105.816 E.01729
G1 X153.454 Y106.076 E.00834
G1 X153.285 Y106.597 E.01719
G1 X153.051 Y107.094 E.01719
G1 X152.916 Y107.323 E.00834
G1 X152.592 Y107.769 E.0173
G1 X152.416 Y107.968 E.00834
G1 X152.014 Y108.346 E.01729
G1 X151.801 Y108.511 E.00845
G1 X151.578 Y108.662 E.00844
G1 X151.095 Y108.928 E.01729
G1 X150.851 Y109.034 E.00834
G1 X150.326 Y109.204 E.01729
G1 X150.066 Y109.262 E.00834
G1 X149.523 Y109.331 E.01719
G1 X110.052 Y109.34 E1.23756
G1 X97.561 Y106.092 E.40466
M73 P5 R5
M73 Q5 S5
G1 X97.366 Y106.081 E.00613
G1 X97.167 Y106.036 E.00641
G1 X96.911 Y105.916 E.00887
G1 X96.661 Y105.694 E.01048
G1 X96.544 Y105.522 E.00653
G1 X96.446 Y105.274 E.00836
G1 X96.413 Y105.068 E.00653
G1 X96.42 Y104.864 E.00643
G1 X96.464 Y104.664 E.00643
G1 X96.547 Y104.472 E.00653
G1 X96.617 Y104.362 E.00408
G1 X96.813 Y104.157 E.00892
M204 S1000
G1 X96.983 Y104.169 F10800
G1 X97.149 Y104.381
M204 S800
;TYPE:Perimeter
G1 F1200
G1 X97.281 Y104.325 E.00448
G1 X97.419 Y104.294 E.00444
G1 X97.62 Y104.282 E.00634
G1 X110.101 Y101.037 E.40432
G1 X149.495 Y101.046 E1.23519
G1 X149.738 Y101.068 E.00765
M73 P6 R5
M73 Q6 S5
G1 X150.235 Y101.163 E.01587
G1 X150.717 Y101.319 E.01589
G1 X150.929 Y101.411 E.00723
G1 X151.381 Y101.66 E.01618
G1 X151.579 Y101.794 E.00752
G1 X151.769 Y101.941 E.00751
G1 X152.145 Y102.294 E.01618
G1 X152.297 Y102.467 E.00723
G1 X152.6 Y102.885 E.01618
G1 X152.718 Y103.083 E.00722
G1 X152.933 Y103.542 E.01589
G1 X153.09 Y104.024 E.01589
G1 X153.14 Y104.248 E.00722
G1 X153.205 Y104.76 E.01618
G1 X153.213 Y105 E.00752
G1 X153.205 Y105.24 E.00752
G1 X153.14 Y105.752 E.01618
G1 X153.09 Y105.976 E.00722
G1 X152.933 Y106.458 E.01589
G1 X152.718 Y106.917 E.01589
G1 X152.6 Y107.115 E.00722
G1 X152.297 Y107.533 E.01618
G1 X152.145 Y107.706 E.00723
G1 X151.769 Y108.059 E.01618
G1 X151.579 Y108.206 E.00752
G1 X151.381 Y108.34 E.00752
G1 X150.929 Y108.589 E.01618
G1 X150.717 Y108.681 E.00723
G1 X150.226 Y108.84 E.01618
G1 X150.002 Y108.89 E.00723
G1 X149.499 Y108.954 E.01589
G1 X110.101 Y108.963 E1.2353
G1 X97.62 Y105.718 E.40432
M73 P7 R5
M73 Q7 S5
G1 X97.419 Y105.706 E.00634
G1 X97.29 Y105.677 E.00415
G1 X97.104 Y105.59 E.00644
G1 X96.953 Y105.453 E.0064
G1 X96.838 Y105.262 E.00697
G1 X96.791 Y105.045 E.00697
G1 X96.795 Y104.911 E.00419
G1 X96.825 Y104.781 E.00419
G1 X96.881 Y104.649 E.00448
G1 X97.02 Y104.475 E.00698
G1 X97.099 Y104.413 E.00314
M204 S1000
;WIPE_START
G1 F8640
G1 X97.281 Y104.325 E-.04675
G1 X97.419 Y104.294 E-.03269
G1 X97.62 Y104.282 E-.04667
G1 X100.277 Y103.591 E-.6339
;WIPE_END
G1 E-.04 F2100
G1 Z.6 F720
G1 X151.06 Y101.612 F10800
G1 Z.2 F720
G1 E.8 F2100
M204 S800
;TYPE:Solid infill
;WIDTH:0.423203
G1 F1200
G1 X152.076 Y102.644 E.04579
G1 X152.364 Y103.04 E.01548
G1 X152.467 Y103.216 E.00644
G1 X152.67 Y103.646 E.01504
G1 X152.725 Y103.815 E.00561
G1 X150.435 Y101.525 E.10239
G1 X150.165 Y101.437 E.00899
G1 X149.726 Y101.354 E.01413
G1 X152.889 Y104.517 E.14146
G1 X152.923 Y104.783 E.00847
G1 X152.927 Y105.092 E.00979
G1 X149.163 Y101.328 E.16831
G1 X148.625 Y101.328 E.01701
G1 X152.877 Y105.58 E.19014
G1 X152.779 Y106.02 E.01424
G1 X148.087 Y101.328 E.2098
G1 X147.549 Y101.328 E.01701
M73 Q8 S5
G1 X152.64 Y106.419 E.22764
G1 X152.468 Y106.784 E.01278
M73 P8 R5
G1 X147.011 Y101.328 E.244
G1 X146.473 Y101.328 E.01701
G1 X152.255 Y107.11 E.25855
G1 X152.023 Y107.416 E.01214
G1 X145.935 Y101.328 E.27224
G1 X145.397 Y101.328 E.01701
G1 X151.754 Y107.684 E.28426
G1 X151.467 Y107.935 E.01205
G1 X144.86 Y101.328 E.29547
G1 X144.322 Y101.327 E.01701
G1 X151.143 Y108.149 E.30503
G1 X150.795 Y108.339 E.01253
G1 X143.784 Y101.327 E.31354
G1 X143.246 Y101.327 E.01701
M73 Q9 S5
G1 X150.404 Y108.485 E.32009
G1 X149.985 Y108.604 E.01376
M73 P9 R5
G1 X142.708 Y101.327 E.32542
G1 X142.17 Y101.327 E.01701
G1 X149.51 Y108.667 E.32825
G1 X149.481 Y108.671 E.00094
G1 X148.976 Y108.671 E.01595
G1 X141.632 Y101.327 E.32843
G1 X141.094 Y101.327 E.01701
G1 X148.439 Y108.671 E.32844
G1 X147.901 Y108.671 E.017
G1 X140.556 Y101.327 E.32845
G1 X140.018 Y101.326 E.01701
G1 X147.363 Y108.672 E.32846
G1 X146.826 Y108.672 E.017
M73 P10 R5
M73 Q10 S5
G1 X139.48 Y101.326 E.32847
G1 X138.942 Y101.326 E.01701
G1 X146.288 Y108.672 E.32848
G1 X145.75 Y108.672 E.017
G1 X138.405 Y101.326 E.32849
G1 X137.867 Y101.326 E.01701
G1 X145.213 Y108.672 E.3285
G1 X144.675 Y108.672 E.017
G1 X137.329 Y101.326 E.32852
G1 X136.791 Y101.326 E.01701
G1 X144.137 Y108.672 E.32853
G1 X143.6 Y108.672 E.017
M73 Q11 S5
G1 X136.253 Y101.326 E.32854
G1 X135.715 Y101.326 E.01701
M73 P11 R5
G1 X143.062 Y108.673 E.32855
G1 X142.524 Y108.673 E.017
G1 X135.177 Y101.325 E.32856
G1 X134.639 Y101.325 E.01701
G1 X141.987 Y108.673 E.32857
G1 X141.449 Y108.673 E.017
G1 X134.101 Y101.325 E.32858
G1 X133.563 Y101.325 E.01701
G1 X140.911 Y108.673 E.32859
G1 X140.374 Y108.673 E.017
G1 X133.025 Y101.325 E.3286
G1 X132.487 Y101.325 E.01701
M73 P12 R5
M73 Q12 S5
G1 X139.836 Y108.673 E.32861
G1 X139.298 Y108.673 E.017
G1 X131.95 Y101.325 E.32862
G1 X131.412 Y101.325 E.01701
G1 X138.761 Y108.674 E.32863
G1 X138.223 Y108.674 E.017
G1 X130.874 Y101.324 E.32864
G1 X130.336 Y101.324 E.01701
G1 X137.685 Y108.674 E.32866
G1 X137.148 Y108.674 E.017
G1 X129.798 Y101.324 E.32867
G1 X129.26 Y101.324 E.01701
M73 Q13 S5
G1 X136.61 Y108.674 E.32868
G1 X136.072 Y108.674 E.017
M73 P13 R5
G1 X128.722 Y101.324 E.32869
G1 X128.184 Y101.324 E.01701
G1 X135.534 Y108.674 E.3287
G1 X134.997 Y108.674 E.017
G1 X127.646 Y101.324 E.32871
G1 X127.108 Y101.324 E.01701
G1 X134.459 Y108.675 E.32872
G1 X133.921 Y108.675 E.017
G1 X126.57 Y101.323 E.32873
G1 X126.032 Y101.323 E.01701
G1 X133.384 Y108.675 E.32874
G1 X132.846 Y108.675 E.017
M73 P14 R5
M73 Q14 S5
G1 X125.494 Y101.323 E.32875
G1 X124.957 Y101.323 E.01701
G1 X132.308 Y108.675 E.32876
G1 X131.771 Y108.675 E.017
G1 X124.419 Y101.323 E.32877
G1 X123.881 Y101.323 E.01701
G1 X131.233 Y108.675 E.32878
G1 X130.695 Y108.675 E.017
G1 X123.343 Y101.323 E.3288
G1 X122.805 Y101.323 E.01701
G1 X130.158 Y108.676 E.32881
G1 X129.62 Y108.676 E.017
M73 Q15 S5
G1 X122.267 Y101.323 E.32882
G1 X121.729 Y101.322 E.01701
M73 P15 R5
G1 X129.082 Y108.676 E.32883
G1 X128.545 Y108.676 E.017
G1 X121.191 Y101.322 E.32884
G1 X120.653 Y101.322 E.01701
G1 X128.007 Y108.676 E.32885
G1 X127.469 Y108.676 E.017
G1 X120.115 Y101.322 E.32886
G1 X119.577 Y101.322 E.01701
G1 X126.932 Y108.676 E.32887
G1 X126.394 Y108.676 E.017
G1 X119.039 Y101.322 E.32888
G1 X118.502 Y101.322 E.01701
M73 P16 R5
M73 Q16 S5
G1 X125.856 Y108.676 E.32889
G1 X125.319 Y108.677 E.017
G1 X117.964 Y101.322 E.3289
G1 X117.426 Y101.321 E.01701
G1 X124.781 Y108.677 E.32891
G1 X124.243 Y108.677 E.017
G1 X116.888 Y101.321 E.32893
G1 X116.35 Y101.321 E.01701
G1 X123.706 Y108.677 E.32894
G1 X123.168 Y108.677 E.017
G1 X115.812 Y101.321 E.32895
G1 X115.274 Y101.321 E.01701
G1 X122.63 Y108.677 E.32896
M73 Q17 S5
G1 X122.093 Y108.677 E.017
M73 P17 R5
G1 X114.736 Y101.321 E.32897
G1 X114.198 Y101.321 E.01701
G1 X121.555 Y108.677 E.32898
G1 X121.017 Y108.678 E.017
G1 X113.66 Y101.321 E.32899
G1 X113.122 Y101.321 E.01701
G1 X120.48 Y108.678 E.329
G1 X119.942 Y108.678 E.017
G1 X112.584 Y101.32 E.32901
G1 X112.046 Y101.32 E.01701
M73 P17 R4
G1 X119.404 Y108.678 E.32902
G1 X118.866 Y108.678 E.017
M73 P18 R4
M73 Q18 S5
G1 X111.509 Y101.32 E.32903
G1 X110.971 Y101.32 E.01701
G1 X118.329 Y108.678 E.32904
G1 X117.791 Y108.678 E.017
G1 X110.433 Y101.32 E.32905
G1 X110.137 Y101.32 E.00936
M73 Q18 S4
G1 X109.945 Y101.37 E.00627
G1 X117.253 Y108.678 E.32683
G1 X116.716 Y108.679 E.017
G1 X109.518 Y101.481 E.32187
G1 X109.091 Y101.592 E.01395
G1 X116.178 Y108.679 E.31692
G1 X115.64 Y108.679 E.017
G1 X108.664 Y101.703 E.31196
G1 X108.237 Y101.814 E.01395
M73 P19 R4
M73 Q19 S4
G1 X115.103 Y108.679 E.307
G1 X114.565 Y108.679 E.017
G1 X107.811 Y101.925 E.30205
G1 X107.384 Y102.036 E.01395
G1 X114.027 Y108.679 E.29709
G1 X113.49 Y108.679 E.017
G1 X106.957 Y102.147 E.29213
G1 X106.53 Y102.258 E.01395
G1 X112.952 Y108.679 E.28717
G1 X112.414 Y108.68 E.017
G1 X106.103 Y102.369 E.28222
G1 X105.677 Y102.48 E.01395
G1 X111.877 Y108.68 E.27726
G1 X111.339 Y108.68 E.017
M73 P20 R4
M73 Q20 S4
G1 X105.25 Y102.591 E.2723
G1 X104.823 Y102.702 E.01395
G1 X110.801 Y108.68 E.26735
G1 X110.264 Y108.68 E.017
G1 X104.396 Y102.812 E.26239
G1 X103.969 Y102.923 E.01395
G1 X109.581 Y108.536 E.25097
G1 X108.855 Y108.347 E.02374
G1 X103.542 Y103.034 E.23756
G1 X103.116 Y103.145 E.01395
G1 X108.128 Y108.158 E.22415
G1 X107.401 Y107.969 E.02374
G1 X102.689 Y103.256 E.21073
G1 X102.262 Y103.367 E.01395
G1 X106.674 Y107.78 E.19732
G1 X105.948 Y107.591 E.02374
G1 X101.835 Y103.478 E.18391
G1 X101.408 Y103.589 E.01395
M73 P21 R4
M73 Q21 S4
G1 X105.221 Y107.402 E.1705
G1 X104.494 Y107.213 E.02374
G1 X100.981 Y103.7 E.15708
G1 X100.555 Y103.811 E.01395
G1 X103.767 Y107.024 E.14367
G1 X103.041 Y106.835 E.02374
G1 X100.128 Y103.922 E.13026
G1 X99.701 Y104.033 E.01395
G1 X102.314 Y106.646 E.11685
G1 X101.587 Y106.457 E.02374
G1 X99.274 Y104.144 E.10343
G1 X98.847 Y104.255 E.01395
G1 X100.86 Y106.268 E.09002
G1 X100.134 Y106.079 E.02374
G1 X98.42 Y104.366 E.07661
G1 X97.994 Y104.477 E.01395
G1 X99.407 Y105.89 E.0632
G1 X98.68 Y105.701 E.02374
G1 X97.548 Y104.569 E.05062
G1 X97.376 Y104.593 E.00549
G1 X97.25 Y104.656 E.00445
G1 X97.174 Y104.733 E.00343
G1 X97.953 Y105.512 E.03484
G1 X97.665 Y105.437 E.00943
G1 X97.382 Y105.408 E.00899
G1 X97.263 Y105.352 E.00417
G1 X96.906 Y105.003 E.0158
M204 S1000
; stop printing object shirt_stay.amf id:0 copy 0
M106 S84.15
;LAYER_CHANGE
;Z:0.35
;HEIGHT:0.15
;BEFORE_LAYER_CHANGE
G92 E0.0
;0.35


;WIPE_START
G1 F8640
G1 X97.263 Y105.352 E-.11535
G1 X97.382 Y105.408 E-.03044
G1 X97.665 Y105.437 E-.06566
G1 X97.953 Y105.512 E-.06887
G1 X97.174 Y104.733 E-.25438
G1 X97.25 Y104.656 E-.02507
G1 X97.376 Y104.593 E-.03247
G1 X97.548 Y104.569 E-.04008
G1 X97.939 Y104.96 E-.12768
;WIPE_END
G1 E-.04 F2100
G1 Z.6 F720
;AFTER_LAYER_CHANGE
;0.35
M104 S210 ; set temperature
G1 X96.96 Y101.136 F10800
G1 Z.35 F720
G1 E.8 F2100
;TYPE:Skirt/Brim
;WIDTH:0.42
G1 F3000
G1 X109.41 Y97.947 E.31083
G1 X110 Y97.873 E.01438
G1 X149.325 Y97.874 E.95106
G1 X150.659 Y98.014 E.03244
M73 P22 R4
M73 Q22 S4
G1 X151.943 Y98.402 E.03244
G1 X153.131 Y99.023 E.03244
G1 X154.182 Y99.857 E.03244
G1 X155.059 Y100.871 E.03243
G1 X155.73 Y102.034 E.03245
G1 X156.171 Y103.3 E.03244
G1 X156.366 Y104.627 E.03243
G1 X156.31 Y105.967 E.03243
G1 X156.004 Y107.273 E.03246
G1 X155.459 Y108.498 E.03243
G1 X154.693 Y109.6 E.03243
G1 X153.735 Y110.538 E.03245
G1 X152.618 Y111.28 E.03243
G1 X151.381 Y111.8 E.03244
G1 X150.217 Y112.06 E.02885
G1 X149.25 Y112.127 E.02344
G1 X110 Y112.127 E.94926
G1 X109.41 Y112.053 E.01438
G1 X96.004 Y108.576 E.33496
G1 X95.087 Y108.034 E.02576
G1 X94.408 Y107.339 E.0235
G1 X93.924 Y106.496 E.0235
G1 X93.664 Y105.56 E.0235
G1 X93.678 Y104.353 E.02918
G1 X94.068 Y103.198 E.02948
G1 X94.792 Y102.226 E.02933
G1 X95.782 Y101.525 E.02933
G1 X96.537 Y101.244 E.01948
G1 X96.902 Y101.151 E.0091
; printing object shirt_stay.amf id:0 copy 0
;WIPE_START
G1 F8640
G1 X100.09 Y100.334 E-.76
;WIPE_END
G1 E-.04 F2100
G1 Z.75 F720
G1 X96.922 Y104.37 F10800
G1 Z.35 F720
G1 E.8 F2100
M204 S800
;TYPE:Perimeter
;WIDTH:0.45
G1 F2700
G1 X97.079 Y104.255 E.00506
G1 X97.245 Y104.183 E.00472
G1 X97.612 Y104.135 E.00963
G1 X110.082 Y100.893 E.33573
G1 X149.466 Y100.9 E1.02619
G1 X149.758 Y100.925 E.00762
M73 P23 R4
M73 Q23 S4
G1 X150.271 Y101.023 E.01362
G1 X150.771 Y101.186 E.0137
G1 X150.989 Y101.28 E.0062
G1 X151.459 Y101.538 E.01396
G1 X151.664 Y101.677 E.00646
G1 X151.86 Y101.829 E.00646
G1 X152.25 Y102.196 E.01396
G1 X152.408 Y102.375 E.0062
G1 X152.723 Y102.808 E.01396
G1 X152.844 Y103.013 E.00619
G1 X153.068 Y103.489 E.0137
G1 X153.23 Y103.989 E.0137
G1 X153.282 Y104.221 E.00619
G1 X153.349 Y104.752 E.01396
G1 X153.357 Y105 E.00646
G1 X153.349 Y105.248 E.00646
G1 X153.282 Y105.779 E.01396
G1 X153.23 Y106.011 E.00619
G1 X153.068 Y106.511 E.0137
G1 X152.844 Y106.987 E.0137
G1 X152.723 Y107.192 E.00619
G1 X152.408 Y107.625 E.01396
G1 X152.25 Y107.804 E.0062
G1 X151.86 Y108.171 E.01396
G1 X151.664 Y108.323 E.00646
G1 X151.459 Y108.462 E.00646
G1 X150.989 Y108.72 E.01396
G1 X150.771 Y108.814 E.0062
G1 X150.261 Y108.98 E.01396
G1 X150.029 Y109.032 E.00619
G1 X149.508 Y109.098 E.0137
G1 X110.082 Y109.107 E1.02727
G1 X97.612 Y105.865 E.33573
G1 X97.245 Y105.817 E.00963
G1 X97.079 Y105.745 E.00472
