; generated by PrusaSlicer 2.4.1+win64 on 2023-07-15 at 22:25:10 UTC

; 

; external perimeters extrusion width = 0.45mm
; perimeters extrusion width = 0.45mm
; infill extrusion width = 0.45mm
; solid infill extrusion width = 0.45mm
; top infill extrusion width = 0.40mm
; support material extrusion width = 0.35mm
; first layer extrusion width = 0.42mm

; external perimeters extrusion width = 0.45mm
; perimeters extrusion width = 0.45mm
; infill extrusion width = 0.45mm
; solid infill extrusion width = 0.45mm
; top infill extrusion width = 0.40mm
; support material extrusion width = 0.35mm
; first layer extrusion width = 0.42mm

M73 P0 R191
M73 Q0 S195
M107
;TYPE:Custom
M862.3 P "MK3S" ; printer model check
M862.1 P0.4 ; nozzle diameter check
M115 U3.10.0 ; tell printer latest fw version
G90 ; use absolute coordinates
M83 ; extruder relative mode
M104 S215 ; set extruder temp
M140 S60 ; set bed temp
M190 S60 ; wait for bed temp
M109 S215 ; wait for extruder temp
G28 W ; home all without mesh bed level
G80 ; mesh bed leveling
G1 Y-3.0 F1000.0 ; go outside print area
G92 E0.0
G1 X60.0 E9.0 F1000.0 ; intro line
G1 X100.0 E12.5 F1000.0 ; intro line
G92 E0.0
M221 S95

; Don't change E values below. Excessive value can damage the printer.
M907 E430 ; set extruder motor current
G21 ; set units to millimeters
G90 ; use absolute coordinates
M83 ; use relative distances for extrusion
M900 K0.05 ; Filament gcode LA 1.5
M900 K30 ; Filament gcode LA 1.0
M107
;LAYER_CHANGE
;Z:0.2
;HEIGHT:0.2
;BEFORE_LAYER_CHANGE
G92 E0.0
;0.2


G1 E-.8 F2100
G1 Z.4 F10800
;AFTER_LAYER_CHANGE
;0.2
G1 X110.794 Y49.752
G1 Z.2
G1 E.8 F2100
M204 S1000
;TYPE:Skirt/Brim
;WIDTH:0.42
G1 F1200
G1 X111.84 Y48.876 E.04278
G1 X112.78 Y48.682 E.03008
G1 X137.236 Y48.682 E.76681
G1 X169.476 Y48.902 E1.01087
G1 X170.78 Y49.303 E.04278
G1 X171.649 Y50.354 E.04278
G1 X171.837 Y51.279 E.02959
G1 X171.837 Y159.16 E3.38254
G1 X171.445 Y160.467 E.04278
G1 X170.399 Y161.344 E.04278
G1 X169.46 Y161.537 E.03008
G1 X145.02 Y161.537 E.7663
G1 X112.764 Y161.318 E1.01138
G1 X111.459 Y160.917 E.04278
G1 X110.59 Y159.865 E.04278
G1 X110.403 Y158.941 E.02959
G1 X110.403 Y51.059 E3.38254
G1 X110.777 Y49.81 E.0409
; printing object shuttle_tube.amf id:1 copy 0
;WIPE_START
G1 F8640
G1 X111.84 Y48.876 E-.32671
G1 X112.78 Y48.682 E-.22155
G1 X113.697 Y48.682 E-.21174
;WIPE_END
G1 E-.04 F2100
G1 Z.6 F10800
G1 X152.938 Y61.181
G1 Z.2
G1 E.8 F2100
;TYPE:Support material interface
;WIDTH:0.35
G1 F1200
G1 X152.604 Y61.181 E.00853
G1 X152.604 Y54.228 E.17755
G1 X153.097 Y54.228 E.01259
G1 X153.097 Y61.181 E.17755
G1 X153.615 Y61.181 E.01322
G1 X153.615 Y59.337 E.04709
G1 X153.391 Y59.113 E.0081
G1 X153.391 Y56.097 E.07702
G1 X153.615 Y55.872 E.0081
G1 X153.615 Y54.228 E.04199
G1 X154.133 Y54.228 E.01322
G1 X154.133 Y55.767 E.0393
G1 X154.169 Y55.767 E.00092
G1 X154.169 Y55.8 E.00084
G1 X154.202 Y55.767 E.00119
G1 X154.589 Y55.767 E.00989
G1 X154.651 Y55.721 E.00196
G1 X154.651 Y54.228 E.03812
G1 X154.922 Y54.228 E.00693
G1 X154.922 Y55.721 E.03812
G1 X154.809 Y55.721 E.00287
;WIPE_START
G1 F8640
G1 X154.922 Y55.721 E-.02594
G1 X154.922 Y54.228 E-.34472
G1 X154.651 Y54.228 E-.06263
G1 X154.651 Y55.643 E-.32671
;WIPE_END
G1 E-.04 F2100
G1 Z.6 F10800
G1 X153.73 Y59.443
G1 Z.2
G1 E.8 F2100
G1 F1200
G1 X154.133 Y59.443 E.01028
G1 X154.133 Y61.181 E.0444
G1 X154.651 Y61.181 E.01322
G1 X154.651 Y59.489 E.04322
G1 X154.922 Y59.489 E.00693
G1 X154.922 Y61.181 E.04322
G1 X154.809 Y61.181 E.00287
;WIPE_START
G1 F8640
G1 X154.922 Y61.181 E-.02594
G1 X154.922 Y59.489 E-.39086
G1 X154.651 Y59.489 E-.06263
G1 X154.651 Y60.704 E-.28057
;WIPE_END
G1 E-.04 F2100
G1 Z.6 F10800
G1 X159.67 Y61.181
G1 Z.2
G1 E.8 F2100
G1 F1200
G1 X159.557 Y61.181 E.00287
G1 X159.557 Y59.489 E.04322
G1 X159.829 Y59.489 E.00693
G1 X159.829 Y61.181 E.04322
G1 X160.346 Y61.181 E.01322
G1 X160.346 Y59.443 E.0444
G1 X160.749 Y59.443 E.01028
;WIPE_START
G1 F8640
G1 X160.346 Y59.443 E-.09295
G1 X160.346 Y61.181 E-.40151
G1 X159.829 Y61.181 E-.11956
G1 X159.829 Y60.549 E-.14598
;WIPE_END
G1 E-.04 F2100
G1 Z.6 F10800
G1 X161.541 Y61.181
G1 Z.2
G1 E.8 F2100
G1 F1200
G1 X161.875 Y61.181 E.00853
G1 X161.875 Y54.228 E.17755
G1 X161.382 Y54.228 E.01259
G1 X161.382 Y61.181 E.17755
G1 X160.864 Y61.181 E.01322
G1 X160.864 Y59.337 E.04709
G1 X161.089 Y59.113 E.0081
G1 X161.089 Y56.097 E.07702
G1 X160.864 Y55.872 E.0081
G1 X160.864 Y54.228 E.04199
G1 X160.346 Y54.228 E.01322
G1 X160.346 Y55.767 E.0393
G1 X160.311 Y55.767 E.00092
G1 X160.311 Y55.8 E.00084
G1 X160.278 Y55.767 E.00119
G1 X159.89 Y55.767 E.00989
G1 X159.829 Y55.721 E.00196
G1 X159.829 Y54.228 E.03812
G1 X159.557 Y54.228 E.00693
G1 X159.557 Y55.721 E.03812
G1 X159.67 Y55.721 E.00287
;WIPE_START
G1 F8640
G1 X159.557 Y55.721 E-.02594
G1 X159.557 Y54.228 E-.34472
G1 X159.829 Y54.228 E-.06263
G1 X159.829 Y55.643 E-.32671
;WIPE_END
G1 E-.04 F2100
G1 Z.6 F10800
G1 X169.46 Y64.13
G1 Z.2
G1 E.8 F2100
;TYPE:Support material
;WIDTH:0.42
G1 F1200
G1 X164.824 Y64.13 E.14535
G1 X164.824 Y146.309 E2.57667
G1 X169.46 Y146.309 E.14535
G1 X169.46 Y159.16 E.40294
G1 X145.02 Y159.16 E.7663
M73 P0 R190
G1 X145.02 Y146.309 E.40294
G1 X149.655 Y146.309 E.14535
M73 Q0 S194
G1 X149.655 Y64.13 E2.57667
G1 X145.02 Y64.13 E.14535
G1 X145.02 Y51.279 E.40294
G1 X169.46 Y51.279 E.7663
G1 X169.46 Y64.074 E.40116
;WIPE_START
G1 F8640
G1 X169.46 Y60.782 E-.76
;WIPE_END
G1 E-.04 F2100
G1 Z.6 F10800
G1 X159.188 Y151.32
G1 Z.2
G1 E.8 F2100
G1 F1200
G1 X159.691 Y151.32 E.01576
G1 X160.095 Y151.724 E.01791
G1 X160.095 Y151.366 E.01122
G1 X160.125 Y151.366 E.00093
G1 X160.238 Y151.479 E.00503
G1 X160.238 Y151.77 E.0091
G1 X160.679 Y151.77 E.01384
G1 X160.68 Y151.439 E.01036
G1 X160.72 Y151.479 E.00178
G1 X160.72 Y154.19 E.08499
G1 X160.68 Y154.23 E.00178
G1 X160.68 Y153.9 E.01036
G1 X160.238 Y153.9 E.01384
G1 X160.238 Y154.19 E.0091
G1 X160.125 Y154.304 E.00503
G1 X160.095 Y154.304 E.00093
G1 X160.095 Y153.946 E.01122
G1 X159.691 Y154.35 E.01791
G1 X159.188 Y154.35 E.01576
G1 X159.188 Y156.581 E.06995
G1 X162.244 Y156.581 E.09581
G1 X162.244 Y148.889 E.24116
G1 X159.188 Y148.889 E.09581
G1 X159.188 Y151.263 E.07444
;WIPE_START
G1 F8640
G1 X159.188 Y148.889 E-.5482
G1 X160.106 Y148.889 E-.2118
;WIPE_END
G1 E-.04 F2100
G1 Z.6 F10800
G1 X152.235 Y156.581
G1 Z.2
G1 E.8 F2100
G1 F1200
G1 X155.291 Y156.581 E.09581
G1 X155.291 Y154.35 E.06995
G1 X154.788 Y154.35 E.01576
G1 X154.384 Y153.946 E.01791
G1 X154.384 Y154.304 E.01122
G1 X154.355 Y154.304 E.00093
G1 X154.241 Y154.19 E.00503
G1 X154.241 Y153.9 E.0091
G1 X153.8 Y153.9 E.01384
G1 X153.8 Y154.23 E.01036
G1 X153.76 Y154.19 E.00178
G1 X153.76 Y151.479 E.08499
G1 X153.8 Y151.439 E.00178
G1 X153.8 Y151.77 E.01036
G1 X154.241 Y151.77 E.01384
G1 X154.241 Y151.479 E.0091
G1 X154.355 Y151.366 E.00503
G1 X154.384 Y151.366 E.00093
G1 X154.384 Y151.724 E.01122
G1 X154.788 Y151.32 E.01791
G1 X155.291 Y151.32 E.01576
G1 X155.291 Y148.889 E.07621
G1 X152.235 Y148.889 E.09581
G1 X152.235 Y156.524 E.23939
;WIPE_START
G1 F8640
G1 X152.235 Y153.233 E-.76
;WIPE_END
G1 E-.04 F2100
G1 Z.6 F10800
G1 X155.586 Y150.9
G1 Z.2
G1 E.8 F2100
G1 F1200
G1 X155.331 Y151.155 E.0113
G1 X155.331 Y154.515 E.10536
G1 X155.586 Y154.77 E.0113
G1 X158.894 Y154.77 E.10372
G1 X159.148 Y154.515 E.0113
G1 X159.148 Y151.155 E.10536
G1 X158.894 Y150.9 E.0113
G1 X155.642 Y150.9 E.10195
G1 X159.188 Y56.09 F10800
G1 F1200
G1 X159.691 Y56.09 E.01576
G1 X160.095 Y56.494 E.01791
G1 X160.095 Y56.136 E.01122
G1 X160.125 Y56.136 E.00093
G1 X160.238 Y56.249 E.00503
G1 X160.238 Y56.54 E.0091
G1 X160.679 Y56.54 E.01384
G1 X160.68 Y56.209 E.01036
G1 X160.72 Y56.249 E.00178
G1 X160.72 Y58.96 E.08499
G1 X160.68 Y59 E.00178
G1 X160.68 Y58.67 E.01036
G1 X160.238 Y58.67 E.01384
G1 X160.238 Y58.96 E.0091
G1 X160.125 Y59.074 E.00503
G1 X160.095 Y59.074 E.00093
G1 X160.095 Y58.716 E.01122
G1 X159.691 Y59.12 E.01791
G1 X159.188 Y59.12 E.01576
G1 X159.188 Y61.55 E.07621
G1 X162.244 Y61.55 E.09581
G1 X162.244 Y53.859 E.24116
G1 X159.188 Y53.859 E.09581
G1 X159.188 Y56.033 E.06818
;WIPE_START
G1 F8640
G1 X159.188 Y53.859 E-.50206
G1 X160.306 Y53.859 E-.25794
;WIPE_END
G1 E-.04 F2100
G1 Z.6 F10800
G1 X152.235 Y61.55
G1 Z.2
G1 E.8 F2100
G1 F1200
G1 X155.291 Y61.55 E.09581
G1 X155.291 Y59.12 E.07621
G1 X154.788 Y59.12 E.01576
G1 X154.384 Y58.716 E.01791
G1 X154.384 Y59.074 E.01122
G1 X154.355 Y59.074 E.00093
G1 X154.241 Y58.96 E.00503
G1 X154.241 Y58.67 E.0091
G1 X153.8 Y58.67 E.01384
G1 X153.8 Y59 E.01036
G1 X153.76 Y58.96 E.00178
G1 X153.76 Y56.249 E.08499
G1 X153.8 Y56.209 E.00178
G1 X153.8 Y56.54 E.01036
G1 X154.241 Y56.54 E.01384
G1 X154.241 Y56.249 E.0091
G1 X154.355 Y56.136 E.00503
G1 X154.384 Y56.136 E.00093
G1 X154.384 Y56.494 E.01122
G1 X154.788 Y56.09 E.01791
G1 X155.291 Y56.09 E.01576
G1 X155.291 Y53.859 E.06995
G1 X152.235 Y53.859 E.09581
G1 X152.235 Y61.494 E.23939
;WIPE_START
G1 F8640
G1 X152.235 Y58.202 E-.76
;WIPE_END
G1 E-.04 F2100
G1 Z.6 F10800
G1 X155.586 Y55.67
G1 Z.2
G1 E.8 F2100
G1 F1200
G1 X155.331 Y55.925 E.0113
G1 X155.331 Y59.285 E.10536
G1 X155.586 Y59.54 E.0113
G1 X158.894 Y59.54 E.10372
G1 X159.148 Y59.285 E.0113
G1 X159.148 Y55.925 E.10536
G1 X158.894 Y55.67 E.0113
G1 X155.642 Y55.67 E.10195
;WIPE_START
G1 F8640
G1 X158.894 Y55.67 E-.75076
G1 X158.922 Y55.698 E-.00924
;WIPE_END
G1 E-.04 F2100
G1 Z.6 F10800
G1 X168.971 Y158.991
G1 Z.2
G1 E.8 F2100
G1 F1200
G1 X168.971 Y146.649 E.38697
G1 X168.552 Y146.649 E.01314
G1 X168.552 Y158.821 E.38165
G1 X168.133 Y158.821 E.01314
G1 X168.133 Y146.649 E.38165
G1 X167.714 Y146.649 E.01314
G1 X167.714 Y158.821 E.38165
G1 X167.295 Y158.821 E.01314
G1 X167.295 Y146.649 E.38165
G1 X166.876 Y146.649 E.01314
G1 X166.876 Y158.821 E.38165
G1 X166.457 Y158.821 E.01314
G1 X166.457 Y146.649 E.38165
G1 X166.038 Y146.649 E.01314
G1 X166.038 Y158.821 E.38165
G1 X165.619 Y158.821 E.01314
G1 X165.619 Y146.649 E.38165
G1 X165.2 Y146.649 E.01314
G1 X165.2 Y158.821 E.38165
G1 X164.781 Y158.821 E.01314
G1 X164.781 Y146.649 E.38165
G1 X164.485 Y146.649 E.0093
G1 X164.485 Y63.791 E2.59795
G1 X164.781 Y63.791 E.0093
G1 X164.781 Y51.618 E.38165
G1 X165.2 Y51.618 E.01314
G1 X165.2 Y63.791 E.38165
G1 X165.619 Y63.791 E.01314
G1 X165.619 Y51.618 E.38165
G1 X166.038 Y51.618 E.01314
G1 X166.038 Y63.791 E.38165
G1 X166.457 Y63.791 E.01314
G1 X166.457 Y51.618 E.38165
G1 X166.876 Y51.618 E.01314
G1 X166.876 Y63.791 E.38165
G1 X167.295 Y63.791 E.01314
G1 X167.295 Y51.618 E.38165
G1 X167.714 Y51.618 E.01314
G1 X167.714 Y63.791 E.38165
G1 X168.133 Y63.791 E.01314
G1 X168.133 Y51.618 E.38165
G1 X168.552 Y51.618 E.01314
G1 X168.552 Y63.791 E.38165
G1 X168.971 Y63.791 E.01314
G1 X168.971 Y51.449 E.38697
;WIPE_START
G1 F8640
G1 X168.971 Y54.74 E-.76
;WIPE_END
G1 E-.04 F2100
G1 Z.6 F10800
G1 X164.362 Y158.991
G1 Z.2
G1 E.8 F2100
G1 F1200
G1 X164.362 Y51.618 E3.36658
G1 X163.943 Y51.618 E.01314
G1 X163.943 Y158.821 E3.36126
G1 X163.524 Y158.821 E.01314
G1 X163.524 Y51.618 E3.36126
G1 X163.105 Y51.618 E.01314
G1 X163.105 Y158.821 E3.36126
G1 X162.686 Y158.821 E.01314
M73 P0 R189
M73 Q0 S193
G1 X162.686 Y51.618 E3.36126
G1 X162.267 Y51.618 E.01314
G1 X162.267 Y53.52 E.05961
G1 X161.848 Y53.52 E.01314
G1 X161.848 Y51.618 E.05961
G1 X161.429 Y51.618 E.01314
G1 X161.429 Y53.52 E.05961
G1 X161.01 Y53.52 E.01314
G1 X161.01 Y51.618 E.05961
G1 X160.591 Y51.618 E.01314
G1 X160.591 Y53.52 E.05961
G1 X160.172 Y53.52 E.01314
G1 X160.172 Y51.618 E.05961
G1 X159.753 Y51.618 E.01314
G1 X159.753 Y53.52 E.05961
G1 X159.335 Y53.52 E.01314
G1 X159.335 Y51.618 E.05961
G1 X158.916 Y51.618 E.01314
G1 X158.916 Y53.52 E.05961
G1 X158.849 Y53.52 E.00208
G1 X158.849 Y55.33 E.05678
G1 X158.497 Y55.33 E.01105
G1 X158.497 Y51.618 E.11638
G1 X158.078 Y51.618 E.01314
G1 X158.078 Y55.33 E.11638
G1 X157.659 Y55.33 E.01314
G1 X157.659 Y51.618 E.11638
G1 X157.24 Y51.618 E.01314
G1 X157.24 Y55.33 E.11638
G1 X156.821 Y55.33 E.01314
G1 X156.821 Y51.618 E.11638
G1 X156.402 Y51.618 E.01314
G1 X156.402 Y55.33 E.11638
G1 X155.983 Y55.33 E.01314
G1 X155.983 Y51.618 E.11638
G1 X155.564 Y51.618 E.01314
G1 X155.564 Y53.52 E.05961
G1 X155.145 Y53.52 E.01314
G1 X155.145 Y51.618 E.05961
G1 X154.726 Y51.618 E.01314
G1 X154.726 Y53.52 E.05961
G1 X154.307 Y53.52 E.01314
G1 X154.307 Y51.618 E.05961
G1 X153.888 Y51.618 E.01314
G1 X153.888 Y53.52 E.05961
G1 X153.469 Y53.52 E.01314
G1 X153.469 Y51.618 E.05961
G1 X153.05 Y51.618 E.01314
G1 X153.05 Y53.52 E.05961
G1 X152.631 Y53.52 E.01314
G1 X152.631 Y51.618 E.05961
G1 X152.212 Y51.618 E.01314
G1 X152.212 Y53.52 E.05961
G1 X151.896 Y53.52 E.00992
G1 X151.896 Y61.89 E.26244
G1 X152.212 Y61.89 E.00992
G1 X152.212 Y148.55 E2.71716
G1 X152.631 Y148.55 E.01314
G1 X152.631 Y61.89 E2.71716
G1 X153.05 Y61.89 E.01314
M73 P1 R189
M73 Q1 S193
G1 X153.05 Y148.55 E2.71716
G1 X153.469 Y148.55 E.01314
G1 X153.469 Y61.89 E2.71716
G1 X153.888 Y61.89 E.01314
G1 X153.888 Y148.55 E2.71716
G1 X154.307 Y148.55 E.01314
G1 X154.307 Y61.89 E2.71716
G1 X154.726 Y61.89 E.01314
G1 X154.726 Y148.55 E2.71716
G1 X155.145 Y148.55 E.01314
G1 X155.145 Y61.89 E2.71716
G1 X155.564 Y61.89 E.01314
G1 X155.564 Y148.55 E2.71716
G1 X155.63 Y148.55 E.00208
G1 X155.63 Y150.56 E.06304
G1 X155.983 Y150.56 E.01105
G1 X155.983 Y59.879 E2.84325
G1 X156.402 Y59.879 E.01314
G1 X156.402 Y150.56 E2.84325
G1 X156.821 Y150.56 E.01314
M73 P1 R188
M73 Q1 S192
G1 X156.821 Y59.879 E2.84325
G1 X157.24 Y59.879 E.01314
G1 X157.24 Y150.56 E2.84325
G1 X157.659 Y150.56 E.01314
G1 X157.659 Y59.879 E2.84325
G1 X158.078 Y59.879 E.01314
G1 X158.078 Y150.56 E2.84325
G1 X158.497 Y150.56 E.01314
G1 X158.497 Y59.879 E2.84325
G1 X158.849 Y59.879 E.01105
G1 X158.849 Y61.89 E.06304
G1 X158.916 Y61.89 E.00208
G1 X158.916 Y148.55 E2.71716
G1 X159.334 Y148.55 E.01314
G1 X159.335 Y61.89 E2.71716
G1 X159.753 Y61.89 E.01314
G1 X159.753 Y148.55 E2.71716
G1 X160.172 Y148.55 E.01314
G1 X160.172 Y61.89 E2.71716
G1 X160.591 Y61.89 E.01314
G1 X160.591 Y148.55 E2.71716
G1 X161.01 Y148.55 E.01314
G1 X161.01 Y61.89 E2.71716
G1 X161.429 Y61.89 E.01314
G1 X161.429 Y148.55 E2.71716
G1 X161.848 Y148.55 E.01314
G1 X161.848 Y61.89 E2.71716
G1 X162.267 Y61.89 E.01314
G1 X162.267 Y148.55 E2.71716
G1 X162.584 Y148.55 E.00992
M73 P1 R187
M73 Q1 S191
G1 X162.584 Y156.92 E.26244
G1 X162.267 Y156.92 E.00992
G1 X162.267 Y158.821 E.05961
G1 X161.848 Y158.821 E.01314
G1 X161.848 Y156.92 E.05961
G1 X161.429 Y156.92 E.01314
G1 X161.429 Y158.821 E.05961
G1 X161.01 Y158.821 E.01314
G1 X161.01 Y156.92 E.05961
G1 X160.591 Y156.92 E.01314
G1 X160.591 Y158.821 E.05961
G1 X160.172 Y158.821 E.01314
G1 X160.172 Y156.92 E.05961
G1 X159.753 Y156.92 E.01314
G1 X159.753 Y158.821 E.05961
G1 X159.334 Y158.821 E.01314
G1 X159.334 Y156.92 E.05961
G1 X158.916 Y156.92 E.01314
G1 X158.916 Y158.821 E.05961
G1 X158.497 Y158.821 E.01314
G1 X158.497 Y155.109 E.11638
G1 X158.078 Y155.109 E.01314
G1 X158.078 Y158.821 E.11638
G1 X157.659 Y158.821 E.01314
G1 X157.659 Y155.109 E.11638
G1 X157.24 Y155.109 E.01314
G1 X157.24 Y158.821 E.11638
G1 X156.821 Y158.821 E.01314
G1 X156.821 Y155.109 E.11638
G1 X156.402 Y155.109 E.01314
G1 X156.402 Y158.821 E.11638
G1 X155.983 Y158.821 E.01314
G1 X155.983 Y155.109 E.11638
G1 X155.63 Y155.109 E.01105
G1 X155.63 Y156.92 E.05678
G1 X155.564 Y156.92 E.00208
G1 X155.564 Y158.821 E.05961
G1 X155.145 Y158.821 E.01314
G1 X155.145 Y156.92 E.05961
G1 X154.726 Y156.92 E.01314
G1 X154.726 Y158.821 E.05961
G1 X154.307 Y158.821 E.01314
G1 X154.307 Y156.92 E.05961
G1 X153.888 Y156.92 E.01314
G1 X153.888 Y158.821 E.05961
G1 X153.469 Y158.821 E.01314
G1 X153.469 Y156.92 E.05961
G1 X153.05 Y156.92 E.01314
G1 X153.05 Y158.821 E.05961
G1 X152.631 Y158.821 E.01314
G1 X152.631 Y156.92 E.05961
G1 X152.212 Y156.92 E.01314
G1 X152.212 Y158.821 E.05961
G1 X151.793 Y158.821 E.01314
G1 X151.793 Y51.618 E3.36126
G1 X151.374 Y51.618 E.01314
G1 X151.374 Y158.821 E3.36126
G1 X150.955 Y158.821 E.01314
M73 P2 R187
M73 Q2 S191
G1 X150.955 Y51.618 E3.36126
G1 X150.536 Y51.618 E.01314
G1 X150.536 Y158.821 E3.36126
G1 X150.117 Y158.821 E.01314
G1 X150.117 Y51.618 E3.36126
G1 X149.698 Y51.618 E.01314
G1 X149.698 Y63.791 E.38165
