; generated by PrusaSlicer 2.4.1+win64 on 2023-07-04 at 00:53:25 UTC

; 

; external perimeters extrusion width = 0.45mm
; perimeters extrusion width = 0.45mm
; infill extrusion width = 0.45mm
; solid infill extrusion width = 0.45mm
; top infill extrusion width = 0.40mm
; first layer extrusion width = 0.42mm

M73 P0 R239
M73 Q0 S255
M107
;TYPE:Custom
M862.3 P "MK3S" ; printer model check
M862.1 P0.4 ; nozzle diameter check
M115 U3.10.0 ; tell printer latest fw version
G90 ; use absolute coordinates
M83 ; extruder relative mode
M104 S215 ; set extruder temp
M140 S60 ; set bed temp
M190 S60 ; wait for bed temp
M109 S215 ; wait for extruder temp
G28 W ; home all without mesh bed level
G80 ; mesh bed leveling
G1 Y-3.0 F1000.0 ; go outside print area
G92 E0.0
G1 X60.0 E9.0 F1000.0 ; intro line
G1 X100.0 E12.5 F1000.0 ; intro line
G92 E0.0
M221 S95

; Don't change E values below. Excessive value can damage the printer.

M907 E538 ; set extruder motor current
G21 ; set units to millimeters
G90 ; use absolute coordinates
M83 ; use relative distances for extrusion
M900 K0.05 ; Filament gcode LA 1.5
M900 K30 ; Filament gcode LA 1.0
M107
;LAYER_CHANGE
;Z:0.2
;HEIGHT:0.2
;BEFORE_LAYER_CHANGE
G92 E0.0
;0.2


G1 E-.8 F2100
G1 Z.4 F10800
;AFTER_LAYER_CHANGE
;0.2
G1 X52.515 Y31.193
G1 Z.2
G1 E.8 F2100
M204 S1000
;TYPE:Skirt/Brim
;WIDTH:0.42
G1 F1200
G1 X53.56 Y30.317 E.04278
G1 X54.5 Y30.123 E.03008
G1 X195.5 Y30.123 E4.42096
G1 X196.807 Y30.515 E.04278
M73 Q0 S254
G1 X197.683 Y31.56 E.04278
G1 X197.877 Y32.5 E.03008
G1 X197.877 Y177.5 E4.54637
G1 X197.485 Y178.807 E.04278
G1 X196.44 Y179.683 E.04278
G1 X195.5 Y179.877 E.03008
G1 X54.5 Y179.877 E4.42096
G1 X53.193 Y179.485 E.04278
G1 X52.317 Y178.44 E.04278
G1 X52.123 Y177.5 E.03008
G1 X52.123 Y32.5 E4.54637
G1 X52.497 Y31.25 E.0409
; printing object souper_cube_cover.amf id:0 copy 0
;WIPE_START
M73 P0 R238
G1 F8640
G1 X53.56 Y30.317 E-.32671
G1 X54.5 Y30.123 E-.22155
G1 X55.417 Y30.123 E-.21174
;WIPE_END
G1 E-.04 F2100
G1 Z.6 F10800
G1 X55.287 Y33.287
G1 Z.2
G1 E.8 F2100
;TYPE:Perimeter
G1 F1200
G1 X194.713 Y33.287 E4.3716
G1 X194.713 Y176.713 E4.49702
G1 X55.287 Y176.713 E4.3716
G1 X55.287 Y33.347 E4.49514
G1 X54.91 Y32.91 F10800
;TYPE:External perimeter
G1 F1200
G1 X195.09 Y32.91 E4.39525
G1 X195.09 Y177.09 E4.52066
M73 Q0 S253
G1 X54.91 Y177.09 E4.39525
G1 X54.91 Y32.97 E4.51878
G1 X55.296 Y33.015 F10800
;WIPE_START
M73 P0 R237
G1 F8640
G1 X58.201 Y32.969 E-.76
;WIPE_END
G1 E-.04 F2100
G1 Z.6 F10800
G1 X193.836 Y33.4
G1 Z.2
G1 E.8 F2100
;TYPE:Solid infill
;WIDTH:0.420499
G1 F1200
G1 X194.43 Y33.994 E.02636
G1 X194.43 Y34.528 E.01676
G1 X193.472 Y33.57 E.04253
G1 X192.938 Y33.57 E.01676
G1 X194.43 Y35.062 E.06624
G1 X194.43 Y35.596 E.01676
G1 X192.404 Y33.57 E.08995
G1 X191.87 Y33.57 E.01676
G1 X194.43 Y36.13 E.11366
G1 X194.43 Y36.664 E.01676
G1 X191.336 Y33.57 E.13737
G1 X190.802 Y33.57 E.01676
G1 X194.43 Y37.198 E.16108
G1 X194.43 Y37.732 E.01676
G1 X190.268 Y33.57 E.18479
G1 X189.734 Y33.57 E.01676
G1 X194.43 Y38.266 E.20849
G1 X194.43 Y38.8 E.01676
G1 X189.2 Y33.57 E.2322
G1 X188.666 Y33.57 E.01676
G1 X194.43 Y39.334 E.25591
G1 X194.43 Y39.868 E.01676
G1 X188.132 Y33.57 E.27962
G1 X187.598 Y33.57 E.01676
G1 X194.43 Y40.402 E.30333
G1 X194.43 Y40.936 E.01676
G1 X187.064 Y33.57 E.32704
G1 X186.53 Y33.57 E.01676
G1 X194.43 Y41.47 E.35075
G1 X194.43 Y42.003 E.01676
G1 X185.997 Y33.57 E.37446
G1 X185.463 Y33.57 E.01676
G1 X194.43 Y42.537 E.39816
G1 X194.43 Y43.071 E.01676
G1 X184.929 Y33.57 E.42187
G1 X184.395 Y33.57 E.01676
G1 X194.43 Y43.605 E.44558
G1 X194.43 Y44.139 E.01676
G1 X183.861 Y33.57 E.46929
G1 X183.327 Y33.57 E.01676
G1 X194.43 Y44.673 E.493
G1 X194.43 Y45.207 E.01676
G1 X182.793 Y33.57 E.51671
G1 X182.259 Y33.57 E.01676
G1 X194.43 Y45.741 E.54042
G1 X194.43 Y46.275 E.01676
G1 X181.725 Y33.57 E.56413
G1 X181.191 Y33.57 E.01676
G1 X194.43 Y46.809 E.58784
G1 X194.43 Y47.343 E.01676
G1 X180.657 Y33.57 E.61154
G1 X180.123 Y33.57 E.01676
G1 X194.43 Y47.877 E.63525
G1 X194.43 Y48.411 E.01676
G1 X179.589 Y33.57 E.65896
G1 X179.055 Y33.57 E.01676
G1 X194.43 Y48.945 E.68267
G1 X194.43 Y49.479 E.01676
G1 X178.521 Y33.57 E.70638
G1 X177.987 Y33.57 E.01676
G1 X194.43 Y50.013 E.73009
G1 X194.43 Y50.547 E.01676
G1 X177.453 Y33.57 E.7538
G1 X176.919 Y33.57 E.01676
G1 X194.43 Y51.081 E.77751
G1 X194.43 Y51.615 E.01676
G1 X176.385 Y33.57 E.80121
G1 X175.851 Y33.57 E.01676
G1 X194.43 Y52.149 E.82492
G1 X194.43 Y52.683 E.01676
G1 X175.317 Y33.57 E.84863
G1 X174.783 Y33.57 E.01676
G1 X194.43 Y53.217 E.87234
G1 X194.43 Y53.751 E.01676
G1 X174.249 Y33.57 E.89605
G1 X173.715 Y33.57 E.01676
G1 X194.43 Y54.285 E.91976
G1 X194.43 Y54.819 E.01676
G1 X173.181 Y33.57 E.94347
G1 X172.647 Y33.57 E.01676
G1 X194.43 Y55.353 E.96718
G1 X194.43 Y55.887 E.01676
G1 X172.113 Y33.57 E.99089
G1 X171.579 Y33.57 E.01676
M73 Q0 S252
G1 X194.43 Y56.421 E1.01459
G1 X194.43 Y56.955 E.01676
G1 X171.045 Y33.57 E1.0383
G1 X170.511 Y33.57 E.01676
G1 X194.43 Y57.489 E1.06201
G1 X194.43 Y58.023 E.01676
G1 X169.977 Y33.57 E1.08572
G1 X169.443 Y33.57 E.01676
G1 X194.43 Y58.557 E1.10943
G1 X194.43 Y59.091 E.01676
G1 X168.909 Y33.57 E1.13314
G1 X168.375 Y33.57 E.01676
G1 X194.43 Y59.625 E1.15685
G1 X194.43 Y60.159 E.01676
G1 X167.841 Y33.57 E1.18056
G1 X167.307 Y33.57 E.01676
M73 P1 R237
G1 X194.43 Y60.693 E1.20426
G1 X194.43 Y61.227 E.01676
G1 X166.773 Y33.57 E1.22797
G1 X166.239 Y33.57 E.01676
G1 X194.43 Y61.761 E1.25168
G1 X194.43 Y62.295 E.01676
G1 X165.705 Y33.57 E1.27539
G1 X165.171 Y33.57 E.01676
G1 X194.43 Y62.829 E1.2991
G1 X194.43 Y63.363 E.01676
M73 P1 R236
M73 Q1 S252
G1 X164.637 Y33.57 E1.32281
G1 X164.103 Y33.57 E.01676
G1 X194.43 Y63.897 E1.34652
G1 X194.43 Y64.431 E.01676
G1 X163.569 Y33.57 E1.37023
G1 X163.035 Y33.57 E.01676
G1 X194.43 Y64.965 E1.39393
G1 X194.43 Y65.498 E.01676
G1 X162.502 Y33.57 E1.41764
G1 X161.968 Y33.57 E.01676
G1 X194.43 Y66.032 E1.44135
G1 X194.43 Y66.566 E.01676
G1 X161.434 Y33.57 E1.46506
G1 X160.9 Y33.57 E.01676
G1 X194.43 Y67.1 E1.48877
G1 X194.43 Y67.634 E.01676
G1 X160.366 Y33.57 E1.51248
G1 X159.832 Y33.57 E.01676
G1 X194.43 Y68.168 E1.53619
G1 X194.43 Y68.702 E.01676
G1 X159.298 Y33.57 E1.5599
G1 X158.764 Y33.57 E.01676
G1 X194.43 Y69.236 E1.58361
G1 X194.43 Y69.77 E.01676
G1 X158.23 Y33.57 E1.60731
G1 X157.696 Y33.57 E.01676
G1 X194.43 Y70.304 E1.63102
G1 X194.43 Y70.838 E.01676
G1 X157.162 Y33.57 E1.65473
G1 X156.628 Y33.57 E.01676
M73 Q1 S251
G1 X194.43 Y71.372 E1.67844
G1 X194.43 Y71.906 E.01676
G1 X156.094 Y33.57 E1.70215
G1 X155.56 Y33.57 E.01676
G1 X194.43 Y72.44 E1.72586
G1 X194.43 Y72.974 E.01676
G1 X155.026 Y33.57 E1.74957
G1 X154.492 Y33.57 E.01676
G1 X194.43 Y73.508 E1.77328
G1 X194.43 Y74.042 E.01676
G1 X153.958 Y33.57 E1.79698
G1 X153.424 Y33.57 E.01676
G1 X194.43 Y74.576 E1.82069
G1 X194.43 Y75.11 E.01676
G1 X152.89 Y33.57 E1.8444
G1 X152.356 Y33.57 E.01676
G1 X194.43 Y75.644 E1.86811
G1 X194.43 Y76.178 E.01676
M73 P1 R235
G1 X151.822 Y33.57 E1.89182
G1 X151.288 Y33.57 E.01676
G1 X194.43 Y76.712 E1.91553
G1 X194.43 Y77.246 E.01676
G1 X150.754 Y33.57 E1.93924
G1 X150.22 Y33.57 E.01676
G1 X194.43 Y77.78 E1.96295
G1 X194.43 Y78.314 E.01676
G1 X149.686 Y33.57 E1.98665
G1 X149.152 Y33.57 E.01676
G1 X194.43 Y78.848 E2.01036
G1 X194.43 Y79.382 E.01676
G1 X148.618 Y33.57 E2.03407
G1 X148.084 Y33.57 E.01676
G1 X194.43 Y79.916 E2.05778
G1 X194.43 Y80.45 E.01676
G1 X147.55 Y33.57 E2.08149
G1 X147.016 Y33.57 E.01676
G1 X194.43 Y80.984 E2.1052
G1 X194.43 Y81.518 E.01676
G1 X146.482 Y33.57 E2.12891
G1 X145.948 Y33.57 E.01676
M73 Q1 S250
G1 X194.43 Y82.052 E2.15262
G1 X194.43 Y82.586 E.01676
G1 X145.414 Y33.57 E2.17633
G1 X144.88 Y33.57 E.01676
G1 X194.43 Y83.12 E2.20003
G1 X194.43 Y83.654 E.01676
G1 X144.346 Y33.57 E2.22374
G1 X143.812 Y33.57 E.01676
G1 X194.43 Y84.188 E2.24745
G1 X194.43 Y84.722 E.01676
G1 X143.278 Y33.57 E2.27116
G1 X142.744 Y33.57 E.01676
G1 X194.43 Y85.256 E2.29487
G1 X194.43 Y85.79 E.01676
M73 P1 R234
G1 X142.21 Y33.57 E2.31858
G1 X141.676 Y33.57 E.01676
G1 X194.43 Y86.324 E2.34229
G1 X194.43 Y86.858 E.01676
G1 X141.142 Y33.57 E2.366
G1 X140.608 Y33.57 E.01676
M73 P2 R234
G1 X194.43 Y87.392 E2.3897
G1 X194.43 Y87.926 E.01676
G1 X140.074 Y33.57 E2.41341
G1 X139.54 Y33.57 E.01676
G1 X194.43 Y88.46 E2.43712
G1 X194.43 Y88.994 E.01676
G1 X139.007 Y33.57 E2.46083
G1 X138.473 Y33.57 E.01676
G1 X194.43 Y89.527 E2.48454
G1 X194.43 Y90.061 E.01676
M73 Q2 S250
G1 X137.939 Y33.57 E2.50825
G1 X137.405 Y33.57 E.01676
M73 Q2 S249
G1 X194.43 Y90.595 E2.53196
G1 X194.43 Y91.129 E.01676
G1 X136.871 Y33.57 E2.55567
G1 X136.337 Y33.57 E.01676
G1 X194.43 Y91.663 E2.57938
G1 X194.43 Y92.197 E.01676
G1 X135.803 Y33.57 E2.60308
G1 X135.269 Y33.57 E.01676
G1 X194.43 Y92.731 E2.62679
G1 X194.43 Y93.265 E.01676
G1 X134.735 Y33.57 E2.6505
G1 X134.201 Y33.57 E.01676
M73 P2 R233
G1 X194.43 Y93.799 E2.67421
G1 X194.43 Y94.333 E.01676
G1 X133.667 Y33.57 E2.69792
G1 X133.133 Y33.57 E.01676
G1 X194.43 Y94.867 E2.72163
G1 X194.43 Y95.401 E.01676
G1 X132.599 Y33.57 E2.74534
G1 X132.065 Y33.57 E.01676
G1 X194.43 Y95.935 E2.76905
G1 X194.43 Y96.469 E.01676
G1 X131.531 Y33.57 E2.79275
G1 X130.997 Y33.57 E.01676
G1 X194.43 Y97.003 E2.81646
G1 X194.43 Y97.537 E.01676
G1 X130.463 Y33.57 E2.84017
G1 X129.929 Y33.57 E.01676
M73 Q2 S248
G1 X194.43 Y98.071 E2.86388
G1 X194.43 Y98.605 E.01676
G1 X129.395 Y33.57 E2.88759
G1 X128.861 Y33.57 E.01676
G1 X194.43 Y99.139 E2.9113
G1 X194.43 Y99.673 E.01676
G1 X128.327 Y33.57 E2.93501
G1 X127.793 Y33.57 E.01676
G1 X194.43 Y100.207 E2.95872
G1 X194.43 Y100.741 E.01676
M73 P2 R232
G1 X127.259 Y33.57 E2.98242
G1 X126.725 Y33.57 E.01676
G1 X194.43 Y101.275 E3.00613
G1 X194.43 Y101.809 E.01676
G1 X126.191 Y33.57 E3.02984
G1 X125.657 Y33.57 E.01676
G1 X194.43 Y102.343 E3.05355
G1 X194.43 Y102.877 E.01676
G1 X125.123 Y33.57 E3.07726
G1 X124.589 Y33.57 E.01676
G1 X194.43 Y103.411 E3.10097
G1 X194.43 Y103.945 E.01676
G1 X124.055 Y33.57 E3.12468
G1 X123.521 Y33.57 E.01676
M73 Q2 S247
G1 X194.43 Y104.479 E3.14839
G1 X194.43 Y105.013 E.01676
M73 P3 R232
G1 X122.987 Y33.57 E3.1721
G1 X122.453 Y33.57 E.01676
G1 X194.43 Y105.547 E3.1958
G1 X194.43 Y106.081 E.01676
G1 X121.919 Y33.57 E3.21951
G1 X121.385 Y33.57 E.01676
G1 X194.43 Y106.615 E3.24322
G1 X194.43 Y107.149 E.01676
M73 P3 R231
G1 X120.851 Y33.57 E3.26693
G1 X120.317 Y33.57 E.01676
M73 Q3 S247
G1 X194.43 Y107.683 E3.29064
G1 X194.43 Y108.217 E.01676
G1 X119.783 Y33.57 E3.31435
G1 X119.249 Y33.57 E.01676
G1 X194.43 Y108.751 E3.33806
G1 X194.43 Y109.285 E.01676
G1 X118.715 Y33.57 E3.36177
G1 X118.181 Y33.57 E.01676
G1 X194.43 Y109.819 E3.38547
G1 X194.43 Y110.353 E.01676
G1 X117.647 Y33.57 E3.40918
G1 X117.113 Y33.57 E.01676
M73 Q3 S246
G1 X194.43 Y110.887 E3.43289
G1 X194.43 Y111.421 E.01676
G1 X116.579 Y33.57 E3.4566
G1 X116.045 Y33.57 E.01676
G1 X194.43 Y111.955 E3.48031
G1 X194.43 Y112.489 E.01676
G1 X115.511 Y33.57 E3.50402
G1 X114.978 Y33.57 E.01676
M73 P3 R230
G1 X194.43 Y113.022 E3.52773
G1 X194.43 Y113.556 E.01676
G1 X114.444 Y33.57 E3.55144
G1 X113.91 Y33.57 E.01676
G1 X194.43 Y114.09 E3.57515
G1 X194.43 Y114.624 E.01676
G1 X113.376 Y33.57 E3.59885
G1 X112.842 Y33.57 E.01676
G1 X194.43 Y115.158 E3.62256
G1 X194.43 Y115.692 E.01676
G1 X112.308 Y33.57 E3.64627
G1 X111.774 Y33.57 E.01676
M73 Q3 S245
G1 X194.43 Y116.226 E3.66998
G1 X194.43 Y116.76 E.01676
G1 X111.24 Y33.57 E3.69369
G1 X110.706 Y33.57 E.01676
G1 X194.43 Y117.294 E3.7174
G1 X194.43 Y117.828 E.01676
G1 X110.172 Y33.57 E3.74111
G1 X109.638 Y33.57 E.01676
M73 P3 R229
G1 X194.43 Y118.362 E3.76482
G1 X194.43 Y118.896 E.01676
M73 P4 R229
G1 X109.104 Y33.57 E3.78852
G1 X108.57 Y33.57 E.01676
G1 X194.43 Y119.43 E3.81223
G1 X194.43 Y119.964 E.01676
G1 X108.036 Y33.57 E3.83594
G1 X107.502 Y33.57 E.01676
G1 X194.43 Y120.498 E3.85965
G1 X194.43 Y121.032 E.01676
G1 X106.968 Y33.57 E3.88336
G1 X106.434 Y33.57 E.01676
M73 Q3 S244
G1 X194.43 Y121.566 E3.90707
G1 X194.43 Y122.1 E.01676
M73 Q4 S244
G1 X105.9 Y33.57 E3.93078
G1 X105.366 Y33.57 E.01676
G1 X194.43 Y122.634 E3.95449
G1 X194.43 Y123.168 E.01676
G1 X104.832 Y33.57 E3.97819
G1 X104.298 Y33.57 E.01676
M73 P4 R228
G1 X194.43 Y123.702 E4.0019
G1 X194.43 Y124.236 E.01676
G1 X103.764 Y33.57 E4.02561
G1 X103.23 Y33.57 E.01676
G1 X194.43 Y124.77 E4.04932
G1 X194.43 Y125.304 E.01676
G1 X102.696 Y33.57 E4.07303
G1 X102.162 Y33.57 E.01676
G1 X194.43 Y125.838 E4.09674
G1 X194.43 Y126.372 E.01676
G1 X101.628 Y33.57 E4.12045
G1 X101.094 Y33.57 E.01676
M73 Q4 S243
G1 X194.43 Y126.906 E4.14416
G1 X194.43 Y127.44 E.01676
G1 X100.56 Y33.57 E4.16787
G1 X100.026 Y33.57 E.01676
G1 X194.43 Y127.974 E4.19157
G1 X194.43 Y128.508 E.01676
M73 P4 R227
G1 X99.492 Y33.57 E4.21528
G1 X98.958 Y33.57 E.01676
G1 X194.43 Y129.042 E4.23899
G1 X194.43 Y129.576 E.01676
G1 X98.424 Y33.57 E4.2627
G1 X97.89 Y33.57 E.01676
G1 X194.43 Y130.11 E4.28641
G1 X194.43 Y130.644 E.01676
M73 P5 R227
G1 X97.356 Y33.57 E4.31012
G1 X96.822 Y33.57 E.01676
M73 Q4 S242
G1 X194.43 Y131.178 E4.33383
G1 X194.43 Y131.712 E.01676
G1 X96.288 Y33.57 E4.35754
G1 X95.754 Y33.57 E.01676
G1 X194.43 Y132.246 E4.38124
G1 X194.43 Y132.78 E.01676
G1 X95.22 Y33.57 E4.40495
G1 X94.686 Y33.57 E.01676
M73 P5 R226
G1 X194.43 Y133.314 E4.42866
G1 X194.43 Y133.848 E.01676
G1 X94.152 Y33.57 E4.45237
G1 X93.618 Y33.57 E.01676
M73 Q5 S242
G1 X194.43 Y134.382 E4.47608
G1 X194.43 Y134.916 E.01676
G1 X93.084 Y33.57 E4.49979
G1 X92.55 Y33.57 E.01676
G1 X194.43 Y135.45 E4.5235
G1 X194.43 Y135.984 E.01676
M73 Q5 S241
G1 X92.016 Y33.57 E4.54721
G1 X91.483 Y33.57 E.01676
G1 X194.43 Y136.517 E4.57092
G1 X194.43 Y137.051 E.01676
G1 X90.949 Y33.57 E4.59462
G1 X90.415 Y33.57 E.01676
M73 P5 R225
G1 X194.43 Y137.585 E4.61833
G1 X194.43 Y138.119 E.01676
G1 X89.881 Y33.57 E4.64204
G1 X89.347 Y33.57 E.01676
G1 X194.43 Y138.653 E4.66575
G1 X194.43 Y139.187 E.01676
G1 X88.813 Y33.57 E4.68946
G1 X88.279 Y33.57 E.01676
G1 X194.43 Y139.721 E4.71317
G1 X194.43 Y140.255 E.01676
M73 Q5 S240
G1 X87.745 Y33.57 E4.73688
G1 X87.211 Y33.57 E.01676
G1 X194.43 Y140.789 E4.76059
G1 X194.43 Y141.323 E.01676
M73 P6 R225
G1 X86.677 Y33.57 E4.78429
G1 X86.143 Y33.57 E.01676
M73 P6 R224
G1 X194.43 Y141.857 E4.808
G1 X194.43 Y142.391 E.01676
G1 X85.609 Y33.57 E4.83171
G1 X85.075 Y33.57 E.01676
G1 X194.43 Y142.925 E4.85542
G1 X194.43 Y143.459 E.01676
G1 X84.541 Y33.57 E4.87913
G1 X84.007 Y33.57 E.01676
G1 X194.43 Y143.993 E4.90284
G1 X194.43 Y144.527 E.01676
M73 Q5 S239
G1 X83.473 Y33.57 E4.92655
G1 X82.939 Y33.57 E.01676
M73 Q6 S239
G1 X194.43 Y145.061 E4.95026
G1 X194.43 Y145.595 E.01676
G1 X82.405 Y33.57 E4.97396
G1 X81.871 Y33.57 E.01676
M73 P6 R223
G1 X194.43 Y146.129 E4.99767
G1 X194.43 Y146.663 E.01676
G1 X81.337 Y33.57 E5.02138
G1 X80.803 Y33.57 E.01676
G1 X194.43 Y147.197 E5.04509
G1 X194.43 Y147.731 E.01676
G1 X80.269 Y33.57 E5.0688
G1 X79.735 Y33.57 E.01676
M73 Q6 S238
G1 X194.43 Y148.265 E5.09251
G1 X194.43 Y148.799 E.01676
G1 X79.201 Y33.57 E5.11622
G1 X78.667 Y33.57 E.01676
G1 X194.43 Y149.333 E5.13993
G1 X194.43 Y149.867 E.01676
M73 P6 R222
G1 X78.133 Y33.57 E5.16364
G1 X77.599 Y33.57 E.01676
G1 X194.43 Y150.401 E5.18734
G1 X194.43 Y150.935 E.01676
M73 P7 R222
G1 X77.065 Y33.57 E5.21105
G1 X76.531 Y33.57 E.01676
G1 X194.43 Y151.469 E5.23476
G1 X194.43 Y152.003 E.01676
G1 X75.997 Y33.57 E5.25847
G1 X75.463 Y33.57 E.01676
M73 Q6 S237
G1 X194.43 Y152.537 E5.28218
G1 X194.43 Y153.071 E.01676
G1 X74.929 Y33.57 E5.30589
G1 X74.395 Y33.57 E.01676
G1 X194.43 Y153.605 E5.3296
G1 X194.43 Y154.139 E.01676
M73 P7 R221
G1 X73.861 Y33.57 E5.35331
G1 X73.327 Y33.57 E.01676
G1 X194.43 Y154.673 E5.37701
G1 X194.43 Y155.207 E.01676
M73 Q7 S237
G1 X72.793 Y33.57 E5.40072
G1 X72.259 Y33.57 E.01676
G1 X194.43 Y155.741 E5.42443
G1 X194.43 Y156.275 E.01676
M73 Q7 S236
G1 X71.725 Y33.57 E5.44814
G1 X71.191 Y33.57 E.01676
G1 X194.43 Y156.809 E5.47185
G1 X194.43 Y157.343 E.01676
G1 X70.657 Y33.57 E5.49556
G1 X70.123 Y33.57 E.01676
M73 P7 R220
G1 X194.43 Y157.877 E5.51927
G1 X194.43 Y158.411 E.01676
G1 X69.589 Y33.57 E5.54298
G1 X69.055 Y33.57 E.01676
G1 X194.43 Y158.945 E5.56668
