; generated by PrusaSlicer 2.3.1+win64 on 2021-06-27 at 22:24:58 UTC

; 

; external perimeters extrusion width = 0.45mm
; perimeters extrusion width = 0.45mm
; infill extrusion width = 0.45mm
; solid infill extrusion width = 0.45mm
; top infill extrusion width = 0.40mm
; first layer extrusion width = 0.42mm

M73 P0 R113
M73 Q0 S116
M201 X1000 Y1000 Z200 E5000 ; sets maximum accelerations, mm/sec^2
M203 X200 Y200 Z12 E120 ; sets maximum feedrates, mm/sec
M204 P1250 R1250 T1250 ; sets acceleration (P, T) and retract acceleration (R), mm/sec^2
M205 X8.00 Y8.00 Z0.40 E4.50 ; sets the jerk limits, mm/sec
M205 S0 T0 ; sets the minimum extruding and travel feed rate, mm/sec
M107
;TYPE:Custom
M862.3 P "MK3S" ; printer model check
M862.1 P0.4 ; nozzle diameter check
M115 U3.9.3 ; tell printer latest fw version
G90 ; use absolute coordinates
M83 ; extruder relative mode
M104 S215 ; set extruder temp
M140 S60 ; set bed temp
M190 S60 ; wait for bed temp
M109 S215 ; wait for extruder temp
G28 W ; home all without mesh bed level
G80 ; mesh bed leveling
G1 Y-3.0 F1000.0 ; go outside print area
G92 E0.0
G1 X60.0 E9.0 F1000.0 ; intro line
M73 P0 R112
G1 X100.0 E12.5 F1000.0 ; intro line
G92 E0.0
M221 S95

; Don't change E values below. Excessive value can damage the printer.

M907 E538 ; set extruder motor current
G21 ; set units to millimeters
G90 ; use absolute coordinates
M83 ; use relative distances for extrusion
M900 K0.05 ; Filament gcode LA 1.5
M900 K30 ; Filament gcode LA 1.0
;LAYER_CHANGE
;Z:0.2
;HEIGHT:0.2
;BEFORE_LAYER_CHANGE
G92 E0.0
;0.2


G1 E-0.80000 F2100.000
G1 Z0.400 F10800.000
;AFTER_LAYER_CHANGE
;0.2
G1 X84.929 Y73.355
G1 Z0.200
G1 E0.80000 F2100.000
M204 S1000
;TYPE:Skirt
;WIDTH:0.42
G1 F1200.000
G1 X88.705 Y68.800 E0.18551
G1 X92.677 Y64.937 E0.17372
G1 X97.132 Y61.440 E0.17760
G1 X101.931 Y58.438 E0.17748
G1 X107.028 Y55.959 E0.17772
G1 X112.353 Y54.039 E0.17748
G1 X117.855 Y52.695 E0.17760
G1 X123.470 Y51.943 E0.17760
G1 X129.075 Y51.791 E0.17581
G1 X134.778 Y52.244 E0.17939
G1 X140.340 Y53.292 E0.17748
G1 X145.767 Y54.928 E0.17772
G1 X150.871 Y57.079 E0.17366
G1 X156.047 Y59.945 E0.18551
G1 X160.582 Y63.135 E0.17384
G1 X164.924 Y66.948 E0.18117
G1 X168.683 Y71.025 E0.17390
G1 X172.061 Y75.572 E0.17760
G1 X174.934 Y80.449 E0.17748
G1 X177.275 Y85.607 E0.17760
G1 X179.054 Y90.985 E0.17760
G1 X180.252 Y96.521 E0.17760
G1 X180.854 Y102.153 E0.17760
G1 X180.857 Y107.692 E0.17366
G1 X180.228 Y113.575 E0.18551
G1 X179.053 Y118.993 E0.17384
G1 X177.228 Y124.476 E0.18117
G1 X174.934 Y129.525 E0.17390
G1 X172.058 Y134.405 E0.17760
G1 X168.682 Y138.948 E0.17748
G1 X164.840 Y143.110 E0.17760
G1 X160.577 Y146.840 E0.17760
G1 X155.942 Y150.096 E0.17760
G1 X150.987 Y152.841 E0.17760
G1 X145.886 Y154.998 E0.17366
G1 X140.221 Y156.706 E0.18551
G1 X134.776 Y157.729 E0.17372
G1 X129.069 Y158.181 E0.17950
G1 X123.468 Y158.029 E0.17569
G1 X117.853 Y157.277 E0.17760
G1 X112.355 Y155.934 E0.17748
G1 X107.026 Y154.012 E0.17760
G1 X101.932 Y151.535 E0.17760
G1 X97.131 Y148.531 E0.17760
G1 X92.675 Y145.033 E0.17760
G1 X88.705 Y141.172 E0.17366
G1 X84.929 Y136.617 E0.18551
G1 X81.867 Y131.995 E0.17384
G1 X79.211 Y126.863 E0.18117
G1 X77.195 Y121.696 E0.17390
G1 X75.705 Y116.231 E0.17760
G1 X74.805 Y110.643 E0.17748
G1 X74.503 Y104.987 E0.17760
G1 X74.804 Y99.331 E0.17760
G1 X75.705 Y93.739 E0.17760
G1 X77.195 Y88.274 E0.17760
G1 X79.211 Y83.111 E0.17378
G1 X81.868 Y77.976 E0.18129
G1 X84.895 Y73.405 E0.17190
; printing object Starfleet 2.0 Coaster.stl id:0 copy 0
;WIPE_START
G1 F8640.000
G1 X86.993 Y70.869 E-0.76000
;WIPE_END
G1 E-0.04000 F2100.000
G1 Z0.600 F10800.000
G1 X87.532 Y75.154
G1 Z0.200
G1 E0.80000 F2100.000
;TYPE:Perimeter
G1 F1200.000
G1 X90.942 Y71.038 E0.16760
G1 X94.759 Y67.322 E0.16703
G1 X98.949 Y64.032 E0.16703
G1 X103.465 Y61.206 E0.16703
G1 X108.256 Y58.876 E0.16703
G1 X113.268 Y57.069 E0.16703
G1 X118.443 Y55.805 E0.16703
G1 X123.723 Y55.098 E0.16703
G1 X129.048 Y54.956 E0.16703
G1 X134.359 Y55.381 E0.16703
G1 X139.594 Y56.368 E0.16703
G1 X144.694 Y57.906 E0.16703
G1 X149.602 Y59.977 E0.16703
G1 X154.263 Y62.559 E0.16703
G1 X158.622 Y65.621 E0.16703
G1 X162.631 Y69.129 E0.16703
G1 X166.245 Y73.043 E0.16703
G1 X169.422 Y77.320 E0.16703
G1 X172.105 Y81.873 E0.16571
M73 Q0 S115
G1 X174.328 Y86.761 E0.16836
G1 X176.001 Y91.818 E0.16703
G1 X177.127 Y97.025 E0.16703
G1 X177.693 Y102.322 E0.16703
G1 X177.693 Y107.650 E0.16703
G1 X177.127 Y112.947 E0.16703
G1 X176.001 Y118.154 E0.16703
G1 X174.327 Y123.211 E0.16703
G1 X172.126 Y128.063 E0.16703
G1 X169.422 Y132.652 E0.16703
G1 X166.245 Y136.929 E0.16703
G1 X162.631 Y140.843 E0.16703
G1 X158.622 Y144.351 E0.16703
G1 X154.263 Y147.413 E0.16703
G1 X149.602 Y149.995 E0.16703
G1 X144.694 Y152.066 E0.16703
G1 X139.594 Y153.604 E0.16703
G1 X134.359 Y154.591 E0.16703
G1 X129.048 Y155.016 E0.16703
G1 X123.723 Y154.874 E0.16703
G1 X118.443 Y154.167 E0.16703
G1 X113.268 Y152.903 E0.16703
G1 X108.256 Y151.096 E0.16703
G1 X103.465 Y148.766 E0.16703
G1 X98.949 Y145.940 E0.16703
G1 X94.759 Y142.651 E0.16703
G1 X90.942 Y138.934 E0.16703
G1 X87.542 Y134.833 E0.16703
G1 X84.597 Y130.394 E0.16703
G1 X82.141 Y125.666 E0.16703
G1 X80.201 Y120.705 E0.16703
G1 X78.799 Y115.565 E0.16703
G1 X77.952 Y110.306 E0.16703
G1 X77.668 Y104.986 E0.16703
G1 X77.952 Y99.666 E0.16703
G1 X78.799 Y94.407 E0.16703
G1 X80.201 Y89.267 E0.16703
G1 X82.141 Y84.306 E0.16703
G1 X84.597 Y79.578 E0.16703
G1 X87.499 Y75.204 E0.16459
G1 X87.185 Y74.996 F10800.000
;TYPE:External perimeter
G1 F1200.000
G1 X90.665 Y70.782 E0.17135
G1 X94.510 Y67.037 E0.16829
G1 X98.732 Y63.723 E0.16829
G1 X103.282 Y60.876 E0.16829
G1 X108.109 Y58.528 E0.16829
G1 X113.159 Y56.708 E0.16829
G1 X118.373 Y55.434 E0.16829
G1 X123.693 Y54.721 E0.16829
G1 X129.058 Y54.578 E0.16829
G1 X134.409 Y55.007 E0.16829
G1 X139.683 Y56.001 E0.16829
G1 X144.822 Y57.551 E0.16829
G1 X149.768 Y59.638 E0.16829
G1 X154.463 Y62.239 E0.16829
G1 X158.855 Y65.324 E0.16829
G1 X162.895 Y68.858 E0.16829
G1 X166.535 Y72.802 E0.16829
G1 X169.736 Y77.111 E0.16829
G1 X172.440 Y81.699 E0.16696
G1 X174.679 Y86.623 E0.16962
G1 X176.365 Y91.719 E0.16829
G1 X177.500 Y96.965 E0.16829
G1 X178.070 Y102.302 E0.16829
G1 X178.070 Y107.670 E0.16829
G1 X177.500 Y113.007 E0.16829
G1 X176.365 Y118.253 E0.16829
G1 X174.679 Y123.349 E0.16829
G1 X172.461 Y128.237 E0.16829
G1 X169.736 Y132.861 E0.16829
G1 X166.535 Y137.170 E0.16829
G1 X162.895 Y141.114 E0.16829
G1 X158.855 Y144.648 E0.16829
G1 X154.463 Y147.733 E0.16829
G1 X149.768 Y150.334 E0.16829
G1 X144.822 Y152.421 E0.16829
G1 X139.683 Y153.971 E0.16829
G1 X134.409 Y154.965 E0.16829
G1 X129.058 Y155.394 E0.16829
G1 X123.693 Y155.251 E0.16829
G1 X118.373 Y154.538 E0.16829
G1 X113.159 Y153.264 E0.16829
G1 X108.109 Y151.444 E0.16829
G1 X103.282 Y149.096 E0.16829
G1 X98.732 Y146.249 E0.16829
G1 X94.510 Y142.935 E0.16829
G1 X90.665 Y139.190 E0.16829
G1 X87.239 Y135.058 E0.16829
G1 X84.272 Y130.585 E0.16829
G1 X81.797 Y125.822 E0.16829
G1 X79.842 Y120.823 E0.16829
G1 X78.430 Y115.645 E0.16829
G1 X77.576 Y110.346 E0.16829
G1 X77.291 Y104.986 E0.16829
G1 X77.576 Y99.626 E0.16829
G1 X78.430 Y94.327 E0.16829
G1 X79.842 Y89.149 E0.16829
G1 X81.797 Y84.150 E0.16829
G1 X84.272 Y79.387 E0.16829
G1 X87.152 Y75.046 E0.16334
G1 X87.582 Y75.041 F10800.000
;WIPE_START
G1 F8640.000
G1 X89.245 Y72.505 E-0.76000
;WIPE_END
G1 E-0.04000 F2100.000
G1 Z0.600 F10800.000
G1 X165.445 Y72.344
G1 Z0.200
G1 E0.80000 F2100.000
;TYPE:Solid infill
;WIDTH:0.421187
G1 F1200.000
G1 X162.429 Y69.328 E0.13417
G1 X158.447 Y65.844 E0.16643
G1 X158.322 Y65.756 E0.00481
G1 X166.710 Y74.144 E0.37311
G1 X168.256 Y76.225 E0.08154
G1 X156.524 Y64.493 E0.52185
G1 X154.727 Y63.230 E0.06910
G1 X169.492 Y77.995 E0.65677
G1 X170.259 Y79.298 E0.04755
G1 X153.323 Y62.362 E0.75334
G1 X152.124 Y61.697 E0.04312
G1 X171.026 Y80.600 E0.84082
G1 X171.794 Y81.902 E0.04755
G1 X150.924 Y61.033 E0.92830
M73 P0 R111
G1 X149.725 Y60.369 E0.04312
G1 X172.265 Y82.909 E1.00260
G1 X172.711 Y83.890 E0.03390
G1 X148.743 Y59.922 E1.06612
G1 X147.818 Y59.531 E0.03160
M73 P1 R111
G1 X173.157 Y84.871 E1.12714
M73 Q1 S115
G1 X173.604 Y85.852 E0.03390
G1 X146.892 Y59.141 E1.18816
G1 X145.967 Y58.750 E0.03160
G1 X174.050 Y86.833 E1.24918
G1 X174.320 Y87.638 E0.02671
G1 X145.041 Y58.359 E1.30237
G1 X144.598 Y58.172 E0.01512
G1 X144.199 Y58.052 E0.01312
G1 X174.584 Y88.438 E1.35159
G1 X174.849 Y89.237 E0.02648
G1 X143.433 Y57.821 E1.39743
G1 X142.667 Y57.590 E0.02516
G1 X175.113 Y90.036 E1.44326
G1 X175.378 Y90.836 E0.02648
G1 X141.901 Y57.359 E1.48909
G1 X141.135 Y57.128 E0.02516
G1 X175.642 Y91.635 E1.53492
G1 X175.727 Y91.893 E0.00853
G1 X175.827 Y92.355 E0.01489
G1 X140.369 Y56.897 E1.57723
M73 Q1 S114
G1 X139.603 Y56.666 E0.02516
G1 X175.975 Y93.038 E1.61786
G1 X176.123 Y93.721 E0.02197
G1 X138.933 Y56.531 E1.65423
G1 X138.274 Y56.407 E0.02110
G1 X176.270 Y94.403 E1.69012
G1 X176.418 Y95.086 E0.02197
G1 X137.615 Y56.283 E1.72601
G1 X136.956 Y56.158 E0.02110
G1 X176.566 Y95.768 E1.76190
G1 X176.713 Y96.451 E0.02197
G1 X136.296 Y56.034 E1.79779
G1 X135.637 Y55.910 E0.02110
G1 X176.853 Y97.126 E1.83334
G1 X176.917 Y97.725 E0.01895
G1 X134.978 Y55.786 E1.86551
G1 X134.319 Y55.662 E0.02109
G1 X176.981 Y98.324 E1.89767
G1 X177.045 Y98.923 E0.01895
G1 X133.737 Y55.615 E1.92638
G1 X133.156 Y55.568 E0.01835
G1 X177.109 Y99.522 E1.95510
G1 X177.173 Y100.121 E0.01895
G1 X132.574 Y55.522 E1.98381
M73 P1 R110
G1 X131.993 Y55.475 E0.01835
G1 X177.237 Y100.720 E2.01253
G1 X177.301 Y101.319 E0.01895
G1 X131.411 Y55.429 E2.04124
G1 X130.830 Y55.382 E0.01835
G1 X177.365 Y101.918 E2.06995
G1 X177.410 Y102.497 E0.01829
G1 X130.248 Y55.336 E2.09781
M73 P2 R110
G1 X129.667 Y55.289 E0.01835
G1 X177.410 Y103.032 E2.12368
M73 Q2 S114
G1 X177.410 Y103.567 E0.01683
G1 X129.086 Y55.243 E2.14955
G1 X128.560 Y55.252 E0.01654
G1 X177.410 Y104.102 E2.17293
G1 X177.410 Y104.637 E0.01683
G1 X128.039 Y55.266 E2.19611
M73 Q2 S113
G1 X127.518 Y55.280 E0.01640
G1 X177.410 Y105.172 E2.21929
G1 X177.410 Y105.707 E0.01683
G1 X126.997 Y55.293 E2.24246
G1 X126.476 Y55.307 E0.01640
G1 X177.410 Y106.242 E2.26564
G1 X177.410 Y106.777 E0.01683
G1 X125.954 Y55.321 E2.28882
G1 X125.433 Y55.335 E0.01640
G1 X177.410 Y107.312 E2.31200
G1 X177.410 Y107.635 E0.01015
G1 X177.390 Y107.826 E0.00607
G1 X124.912 Y55.349 E2.33426
G1 X124.391 Y55.363 E0.01640
G1 X177.338 Y108.310 E2.35514
G1 X177.286 Y108.793 E0.01529
G1 X123.870 Y55.377 E2.37602
G1 X123.387 Y55.428 E0.01530
G1 X177.235 Y109.276 E2.39524
M73 P2 R109
G1 X177.183 Y109.760 E0.01529
G1 X122.915 Y55.491 E2.41392
G1 X122.443 Y55.554 E0.01497
G1 X177.131 Y110.243 E2.43261
G1 X177.080 Y110.726 E0.01529
G1 X121.971 Y55.618 E2.45130
G1 X121.499 Y55.681 E0.01497
G1 X177.028 Y111.209 E2.46998
G1 X176.976 Y111.693 E0.01529
G1 X121.028 Y55.744 E2.48867
M73 P3 R109
G1 X120.556 Y55.807 E0.01497
G1 X176.925 Y112.176 E2.50736
M73 Q3 S112
G1 X176.873 Y112.659 E0.01529
G1 X120.084 Y55.870 E2.52605
G1 X119.612 Y55.934 E0.01497
G1 X176.800 Y113.121 E2.54377
G1 X176.705 Y113.561 E0.01415
G1 X119.141 Y55.997 E2.56052
G1 X118.669 Y56.060 E0.01497
G1 X176.610 Y114.001 E2.57728
G1 X176.514 Y114.440 E0.01415
G1 X118.224 Y56.150 E2.59285
G1 X117.794 Y56.255 E0.01392
G1 X176.419 Y114.880 E2.60775
G1 X176.324 Y115.320 E0.01415
G1 X117.364 Y56.360 E2.62264
G1 X116.934 Y56.465 E0.01392
G1 X176.229 Y115.760 E2.63753
G1 X176.134 Y116.200 E0.01415
G1 X116.504 Y56.570 E2.65242
M73 P3 R108
G1 X116.074 Y56.675 E0.01392
G1 X176.039 Y116.640 E2.66732
G1 X175.944 Y117.079 E0.01415
G1 X115.644 Y56.780 E2.68221
G1 X115.214 Y56.885 E0.01392
G1 X175.849 Y117.519 E2.69710
G1 X175.753 Y117.959 E0.01415
G1 X114.784 Y56.990 E2.71199
G1 X114.354 Y57.095 E0.01392
G1 X175.631 Y118.371 E2.72566
G1 X175.498 Y118.773 E0.01332
G1 X113.924 Y57.200 E2.73887
M73 P4 R108
M73 Q3 S111
G1 X113.494 Y57.305 E0.01392
G1 X175.365 Y119.175 E2.75208
G1 X175.232 Y119.577 E0.01332
G1 X113.089 Y57.434 E2.76420
M73 Q4 S111
G1 X112.696 Y57.576 E0.01315
G1 X175.099 Y119.979 E2.77578
G1 X174.966 Y120.381 E0.01332
G1 X112.303 Y57.718 E2.78735
G1 X111.909 Y57.860 E0.01315
G1 X174.833 Y120.783 E2.79892
G1 X174.700 Y121.185 E0.01332
G1 X111.516 Y58.001 E2.81050
G1 X111.123 Y58.143 E0.01315
G1 X174.567 Y121.587 E2.82207
M73 P4 R107
G1 X174.434 Y121.989 E0.01332
G1 X110.730 Y58.285 E2.83364
G1 X110.337 Y58.427 E0.01315
G1 X174.301 Y122.391 E2.84522
G1 X174.168 Y122.793 E0.01332
G1 X109.944 Y58.569 E2.85679
G1 X109.550 Y58.710 E0.01315
G1 X174.028 Y123.188 E2.86804
G1 X173.861 Y123.556 E0.01271
G1 X109.157 Y58.852 E2.87810
G1 X108.764 Y58.994 E0.01315
G1 X173.694 Y123.924 E2.88816
M73 Q4 S110
G1 X173.527 Y124.292 E0.01271
G1 X108.371 Y59.136 E2.89822
G1 X108.011 Y59.310 E0.01259
G1 X173.360 Y124.660 E2.90682
M73 P5 R107
G1 X173.193 Y125.028 E0.01271
G1 X107.651 Y59.485 E2.91540
G1 X107.291 Y59.660 E0.01259
G1 X173.026 Y125.396 E2.92399
M73 Q5 S110
G1 X172.859 Y125.764 E0.01271
G1 X106.931 Y59.835 E2.93257
G1 X106.571 Y60.010 E0.01259
G1 X172.692 Y126.132 E2.94115
G1 X172.525 Y126.499 E0.01271
G1 X106.211 Y60.185 E2.94973
M73 P5 R106
G1 X105.851 Y60.360 E0.01259
G1 X172.358 Y126.867 E2.95832
G1 X172.191 Y127.235 E0.01271
G1 X105.491 Y60.535 E2.96690
G1 X105.131 Y60.711 E0.01259
G1 X172.024 Y127.603 E2.97548
G1 X171.854 Y127.968 E0.01266
G1 X104.771 Y60.886 E2.98392
G1 X104.411 Y61.061 E0.01259
G1 X171.655 Y128.305 E2.99110
G1 X171.457 Y128.641 E0.01229
G1 X104.051 Y61.236 E2.99829
M73 Q5 S109
G1 X103.691 Y61.411 E0.01259
G1 X171.259 Y128.978 E3.00548
G1 X171.060 Y129.314 E0.01229
G1 X103.355 Y61.609 E3.01163
G1 X103.026 Y61.815 E0.01221
G1 X170.862 Y129.651 E3.01745
M73 P6 R106
G1 X170.664 Y129.988 E0.01229
G1 X102.697 Y62.021 E3.02326
G1 X102.368 Y62.227 E0.01221
G1 X170.465 Y130.324 E3.02908
G1 X170.267 Y130.661 E0.01229
G1 X102.039 Y62.432 E3.03489
M73 Q6 S109
G1 X101.709 Y62.638 E0.01221
G1 X170.069 Y130.997 E3.04071
M73 P6 R105
G1 X169.870 Y131.334 E0.01229
G1 X101.380 Y62.844 E3.04652
G1 X101.051 Y63.050 E0.01221
G1 X169.672 Y131.671 E3.05233
G1 X169.474 Y132.007 E0.01229
G1 X100.722 Y63.256 E3.05815
G1 X100.393 Y63.462 E0.01221
G1 X169.275 Y132.344 E3.06396
G1 X169.061 Y132.664 E0.01213
G1 X100.064 Y63.668 E3.06905
M73 Q6 S108
G1 X99.735 Y63.874 E0.01221
G1 X168.833 Y132.971 E3.07355
G1 X168.605 Y133.278 E0.01203
G1 X99.406 Y64.080 E3.07804
G1 X99.080 Y64.289 E0.01218
G1 X168.377 Y133.585 E3.08240
G1 X168.149 Y133.892 E0.01203
G1 X98.780 Y64.524 E3.08558
G1 X98.481 Y64.759 E0.01198
G1 X167.920 Y134.199 E3.08877
M73 P7 R105
G1 X167.692 Y134.506 E0.01203
G1 X98.181 Y64.994 E3.09196
G1 X97.881 Y65.230 E0.01198
G1 X167.464 Y134.813 E3.09514
M73 P7 R104
G1 X167.236 Y135.120 E0.01203
G1 X97.582 Y65.465 E3.09833
M73 Q7 S108
G1 X97.282 Y65.700 E0.01198
G1 X167.008 Y135.427 E3.10152
G1 X166.780 Y135.733 E0.01203
G1 X96.982 Y65.936 E3.10471
G1 X96.683 Y66.171 E0.01198
G1 X166.552 Y136.040 E3.10789
G1 X166.324 Y136.347 E0.01203
G1 X96.383 Y66.406 E3.11108
M73 Q7 S107
G1 X96.083 Y66.641 E0.01198
G1 X166.096 Y136.654 E3.11427
G1 X165.848 Y136.941 E0.01193
G1 X95.784 Y66.877 E3.11656
G1 X95.484 Y67.112 E0.01198
G1 X165.591 Y137.219 E3.11847
G1 X165.335 Y137.498 E0.01191
G1 X95.184 Y67.347 E3.12038
G1 X94.890 Y67.588 E0.01196
G1 X165.078 Y137.776 E3.12203
G1 X164.821 Y138.054 E0.01191
G1 X94.619 Y67.852 E3.12266
G1 X94.348 Y68.116 E0.01190
G1 X164.564 Y138.332 E3.12330
M73 P8 R103
G1 X164.308 Y138.610 E0.01191
G1 X94.077 Y68.380 E3.12393
G1 X93.806 Y68.644 E0.01190
G1 X164.051 Y138.888 E3.12456
G1 X163.794 Y139.167 E0.01191
G1 X93.535 Y68.908 E3.12520
M73 Q8 S107
G1 X93.264 Y69.172 E0.01190
G1 X163.537 Y139.445 E3.12583
G1 X163.280 Y139.723 E0.01191
G1 X92.993 Y69.436 E3.12647
M73 Q8 S106
G1 X92.722 Y69.700 E0.01190
G1 X163.024 Y140.001 E3.12710
G1 X162.767 Y140.279 E0.01191
G1 X92.451 Y69.963 E3.12773
G1 X92.180 Y70.227 E0.01190
G1 X162.510 Y140.557 E3.12837
G1 X162.233 Y140.815 E0.01190
G1 X91.909 Y70.491 E3.12811
G1 X91.638 Y70.755 E0.01190
G1 X161.948 Y141.065 E3.12748
G1 X161.663 Y141.315 E0.01192
G1 X91.367 Y71.019 E3.12684
G1 X91.150 Y71.230 E0.00951
