; generated by PrusaSlicer 2.7.2+win64 on 2024-09-02 at 12:42:04 UTC


;
;
; 

; external perimeters extrusion width = 0.45mm
; perimeters extrusion width = 0.45mm
; infill extrusion width = 0.45mm
; solid infill extrusion width = 0.45mm
; top infill extrusion width = 0.40mm
; first layer extrusion width = 0.42mm

; external perimeters extrusion width = 0.45mm
; perimeters extrusion width = 0.45mm
; infill extrusion width = 0.45mm
; solid infill extrusion width = 0.45mm
; top infill extrusion width = 0.40mm
; first layer extrusion width = 0.42mm

; external perimeters extrusion width = 0.45mm
; perimeters extrusion width = 0.45mm
; infill extrusion width = 0.45mm
; solid infill extrusion width = 0.45mm
; top infill extrusion width = 0.40mm
; first layer extrusion width = 0.42mm

; external perimeters extrusion width = 0.45mm
; perimeters extrusion width = 0.45mm
; infill extrusion width = 0.45mm
; solid infill extrusion width = 0.45mm
; top infill extrusion width = 0.40mm
; first layer extrusion width = 0.42mm

; external perimeters extrusion width = 0.45mm
; perimeters extrusion width = 0.45mm
; infill extrusion width = 0.45mm
; solid infill extrusion width = 0.45mm
; top infill extrusion width = 0.40mm
; first layer extrusion width = 0.42mm

M73 P0 R152
M73 Q0 S152
M201 X1000 Y1000 Z200 E5000 ; sets maximum accelerations, mm/sec^2
M203 X200 Y200 Z12 E120 ; sets maximum feedrates, mm / sec
M204 S1250 T1250 ; sets acceleration (S) and retract acceleration (R), mm/sec^2
M205 X8.00 Y8.00 Z0.40 E4.50 ; sets the jerk limits, mm/sec
M205 S0 T0 ; sets the minimum extruding and travel feed rate, mm/sec

; printing object 0_4 id:4 copy 0
; stop printing object 0_4 id:4 copy 0
; printing object 0_4 id:2 copy 0
; stop printing object 0_4 id:2 copy 0
; printing object 0_4 id:3 copy 0
; stop printing object 0_4 id:3 copy 0
; printing object 0_3 id:0 copy 0
; stop printing object 0_3 id:0 copy 0
; printing object 0_4 id:1 copy 0
; stop printing object 0_4 id:1 copy 0

;TYPE:Custom
M862.3 P "MK3S" ; printer model check
M862.1 P0.4 ; nozzle diameter check
M115 U3.12.2 ; tell printer latest fw version
G90 ; use absolute coordinates
M83 ; extruder relative mode
M104 S215 ; set extruder temp
M140 S60 ; set bed temp
M190 S60 ; wait for bed temp
M109 S215 ; wait for extruder temp
G28 W ; home all without mesh bed level
G80 ; mesh bed leveling

G1 Z0.2 F720
G1 Y-3 F1000 ; go outside print area
G92 E0
G1 X60 E9 F1000 ; intro line
G1 X100 E12.5 F1000 ; intro line
M73 P0 R151

G92 E0
M221 S95

; Don't change E values below. Excessive value can damage the printer.

M907 E538 ; set extruder motor current
G21 ; set units to millimeters
G90 ; use absolute coordinates
M83 ; use relative distances for extrusion
M900 K0.05 ; Filament gcode LA 1.5
M900 K30 ; Filament gcode LA 1.0
M107
;LAYER_CHANGE
;Z:0.2
;HEIGHT:0.2
G1 E-.8 F2100
G1 Z.6 F720
G1 X34.048 Y41.706 F10800
G1 Z.2 F720
G1 E.8 F2100
M204 S800
;TYPE:Skirt/Brim
;WIDTH:0.42
G1 F1200
G1 X35.729 Y41.01 E.05705
G1 X142.554 Y41.01 E3.34942
G1 X143.862 Y41.402 E.04281
G1 X188.221 Y70.626 E1.66555
G1 X191.582 Y73.917 E.14749
G1 X192.278 Y75.598 E.05705
G1 X192.277 Y116.493 E1.28223
G1 X190.73 Y169.131 E1.65114
G1 X190.035 Y170.742 E.05501
M73 Q0 S151
G1 X187.047 Y173.729 E.13247
G1 X185.824 Y174.381 E.04346
G1 X142.554 Y182.814 E1.38223
G1 X35.729 Y182.814 E3.34942
G1 X34.048 Y182.117 E.05706
G1 X31.061 Y179.13 E.13245
G1 X30.365 Y177.449 E.05705
G1 X30.365 Y46.374 E4.10976
G1 X31.061 Y44.693 E.05705
G1 X34.006 Y41.748 E.13059
M204 S1000
;WIPE_START
G1 F8640
G1 X34.048 Y41.706 E-.01371
G1 X35.729 Y41.01 E-.4201
G1 X37.315 Y41.01 E-.36619
;WIPE_END
G1 Z.6 F720
G1 X160.343 Y127.911 F10800
G1 Z.2 F720
G1 E.8 F2100
M204 S800
G1 F1200
G1 X161.298 Y127.02 E.04095
G1 X162.307 Y126.478 E.03591
G1 X163.444 Y126.187 E.0368
G1 X166.268 Y126.18 E.08854
G1 X167.212 Y126.394 E.03035
G1 X168.067 Y126.772 E.02931
G1 X169.186 Y127.665 E.04489
G1 X170.079 Y129.003 E.05044
G1 X170.487 Y130.548 E.0501
G1 X170.487 Y167.993 E1.17406
G1 X170.027 Y169.654 E.05404
G1 X169.404 Y170.627 E.03623
G1 X168.45 Y171.518 E.04093
G1 X167.441 Y172.059 E.0359
G1 X166.308 Y172.35 E.03668
G1 X163.662 Y172.383 E.08297
G1 X162.169 Y172.002 E.04831
G1 X160.833 Y171.144 E.04978
G1 X159.871 Y169.964 E.04774
G1 X159.26 Y168.015 E.06404
G1 X159.26 Y130.545 E1.17485
G1 X159.72 Y128.884 E.05404
G1 X160.311 Y127.961 E.03436
M204 S1000
G1 X160.311 Y127.961 F10800
G1 X160.62 Y128.168
M204 S800
G1 F1200
G1 X161.498 Y127.34 E.03784
G1 X162.464 Y126.822 E.03437
G1 X163.513 Y126.559 E.03391
G1 X166.207 Y126.553 E.08447
G1 X167.077 Y126.746 E.02794
G1 X167.892 Y127.106 E.02794
G1 X168.927 Y127.94 E.04168
G1 X169.723 Y129.131 E.04492
G1 X170.11 Y130.573 E.04681
G1 X170.11 Y167.967 E1.17246
G1 X169.693 Y169.476 E.04909
G1 X169.127 Y170.37 E.03318
G1 X168.249 Y171.198 E.03784
G1 X167.284 Y171.716 E.03434
G1 X166.239 Y171.979 E.03379
G1 X163.683 Y172.006 E.08015
G1 X162.294 Y171.645 E.045
G1 X161.093 Y170.87 E.04482
G1 X160.196 Y169.771 E.04448
G1 X159.637 Y167.987 E.05862
G1 X159.637 Y130.571 E1.17315
G1 X160.054 Y129.062 E.04909
G1 X160.588 Y128.219 E.03129
M204 S1000
G1 X160.588 Y128.219 F10800
G1 X160.898 Y128.424
M204 S800
G1 F1200
G1 X161.701 Y127.659 E.03477
G1 X162.579 Y127.182 E.03133
G1 X163.582 Y126.93 E.03243
G1 X166.147 Y126.926 E.08042
G1 X166.942 Y127.099 E.02551
G1 X167.716 Y127.441 E.02653
G1 X168.666 Y128.214 E.0384
G1 X169.391 Y129.312 E.04125
G1 X169.733 Y130.597 E.04169
G1 X169.733 Y167.942 E1.17093
G1 X169.359 Y169.3 E.04416
G1 X168.85 Y170.114 E.0301
G1 X168.047 Y170.879 E.03477
G1 X167.168 Y171.356 E.03136
G1 X166.169 Y171.607 E.0323
G1 X163.705 Y171.628 E.07726
G1 X162.471 Y171.311 E.03995
G1 X161.353 Y170.596 E.04161
G1 X160.522 Y169.579 E.04118
G1 X160.014 Y167.958 E.05326
G1 X160.014 Y130.596 E1.17146
G1 X160.388 Y129.238 E.04416
G1 X160.866 Y128.475 E.02823
M204 S1000
G1 X160.866 Y128.475 F10800
G1 X161.177 Y128.678
M204 S800
G1 F1200
G1 X161.904 Y127.978 E.03164
G1 X162.737 Y127.525 E.02973
G1 X163.649 Y127.302 E.02944
G1 X166.087 Y127.299 E.07644
G1 X166.842 Y127.463 E.02422
G1 X167.538 Y127.774 E.0239
G1 X168.404 Y128.486 E.03515
G1 X169.058 Y129.492 E.03762
G1 X169.356 Y130.621 E.03661
G1 X169.356 Y167.917 E1.16939
G1 X169.024 Y169.125 E.03928
G1 X168.57 Y169.86 E.02709
G1 X167.844 Y170.56 E.03162
G1 X167.01 Y171.013 E.02976
G1 X166.101 Y171.236 E.02935
G1 X163.728 Y171.251 E.07441
G1 X162.596 Y170.954 E.03669
G1 X161.614 Y170.323 E.0366
G1 X160.847 Y169.387 E.03794
G1 X160.391 Y167.929 E.0479
G1 X160.391 Y130.621 E1.16977
G1 X160.723 Y129.413 E.03928
G1 X161.146 Y128.729 E.02522
M204 S1000
G1 X161.146 Y128.729 F10800
G1 X161.458 Y128.93
M204 S800
G1 F1200
G1 X162.109 Y128.295 E.02851
G1 X162.852 Y127.885 E.02661
G1 X163.717 Y127.673 E.02792
G1 X166.028 Y127.671 E.07246
G1 X166.707 Y127.816 E.02177
G1 X167.36 Y128.108 E.02243
G1 X168.141 Y128.757 E.03184
G1 X168.702 Y129.619 E.03225
G1 X168.979 Y130.647 E.03338
G1 X168.979 Y167.891 E1.16776
G1 X168.688 Y168.952 E.0345
G1 X168.289 Y169.607 E.02405
G1 X167.638 Y170.243 E.02854
G1 X166.896 Y170.653 E.02658
G1 X166.033 Y170.864 E.02786
G1 X163.751 Y170.874 E.07155
G1 X162.773 Y170.62 E.03168
G1 X161.874 Y170.048 E.03341
G1 X161.174 Y169.196 E.03457
G1 X160.768 Y167.901 E.04255
G1 X160.768 Y130.646 E1.1681
G1 X161.059 Y129.586 E.03447
G1 X161.427 Y128.982 E.02218
M204 S1000
G1 X161.427 Y128.982 F10800
G1 X161.741 Y129.18
M204 S800
G1 F1200
G1 X162.315 Y128.612 E.02532
G1 X163.011 Y128.228 E.02492
G1 X163.782 Y128.045 E.02485
G1 X165.971 Y128.045 E.06863
G1 X166.573 Y128.169 E.01927
M73 P0 R150
G1 X167.182 Y128.441 E.02091
G1 X167.875 Y129.026 E.02844
G1 X168.369 Y129.797 E.02871
G1 X168.602 Y130.671 E.02836
G1 X168.602 Y167.866 E1.16622
G1 X168.351 Y168.781 E.02975
G1 X168.006 Y169.357 E.02105
G1 X167.433 Y169.926 E.02532
G1 X166.736 Y170.31 E.02495
G1 X165.968 Y170.492 E.02475
G1 X163.775 Y170.497 E.06876
G1 X162.899 Y170.263 E.02843
G1 X162.134 Y169.774 E.02847
G1 X161.501 Y169.005 E.03123
G1 X161.146 Y167.872 E.03723
G1 X161.146 Y130.672 E1.16638
G1 X161.396 Y129.757 E.02974
G1 X161.711 Y129.232 E.0192
M204 S1000
G1 X161.711 Y129.232 F10800
G1 X162.027 Y129.428
M204 S800
G1 F1200
G1 X162.521 Y128.929 E.02202
G1 X163.169 Y128.571 E.02321
G1 X163.844 Y128.418 E.0217
G1 X165.95 Y128.422 E.06603
G1 X166.473 Y128.533 E.01676
G1 X167 Y128.773 E.01816
G1 X167.608 Y129.294 E.02511
G1 X168.013 Y129.925 E.02351
G1 X168.225 Y130.697 E.0251
G1 X168.225 Y167.841 E1.16462
G1 X168.013 Y168.612 E.02507
G1 X167.72 Y169.11 E.01812
G1 X167.226 Y169.609 E.02202
G1 X166.578 Y169.966 E.0232
G1 X165.906 Y170.12 E.02162
G1 X163.802 Y170.12 E.06597
G1 X163.027 Y169.908 E.02519
G1 X162.395 Y169.501 E.02357
G1 X161.828 Y168.817 E.02786
G1 X161.523 Y167.843 E.032
G1 X161.523 Y130.697 E1.16469
G1 X161.734 Y129.926 E.02506
G1 X161.996 Y129.48 E.01622
M204 S1000
G1 X161.996 Y129.48 F10800
G1 X162.319 Y129.674
M204 S800
G1 F1200
G1 X162.337 Y129.644 E.0011
G1 X162.766 Y129.216 E.019
G1 X163.324 Y128.916 E.01986
G1 X163.864 Y128.795 E.01735
G1 X165.928 Y128.799 E.06472
G1 X166.37 Y128.896 E.01419
G1 X166.816 Y129.103 E.01542
G1 X167.34 Y129.56 E.0218
G1 X167.658 Y130.055 E.01845
G1 X167.848 Y130.724 E.02181
G1 X167.848 Y167.814 E1.16293
G1 X167.658 Y168.484 E.02184
G1 X167.411 Y168.894 E.01501
G1 X166.981 Y169.321 E.019
G1 X166.423 Y169.622 E.01988
G1 X165.885 Y169.743 E.01729
G1 X163.828 Y169.743 E.0645
G1 X163.158 Y169.553 E.02184
G1 X162.656 Y169.227 E.01877
G1 X162.301 Y168.845 E.01635
G1 X162.156 Y168.629 E.00816
G1 X161.9 Y167.814 E.02678
G1 X161.9 Y130.724 E1.16293
G1 X162.089 Y130.054 E.02183
G1 X162.288 Y129.725 E.01206
M204 S1000
G1 X162.288 Y129.725 F10800
G1 X162.607 Y129.923
M204 S800
G1 F1200
G1 X162.644 Y129.863 E.00221
G1 X163.009 Y129.506 E.01601
G1 X163.475 Y129.262 E.01649
G1 X163.883 Y129.172 E.0131
G1 X165.905 Y129.176 E.0634
G1 X166.629 Y129.431 E.02407
G1 X167.069 Y129.823 E.01848
G1 X167.305 Y130.188 E.01363
G1 X167.471 Y130.752 E.01843
G1 X167.471 Y167.786 E1.16118
G1 X167.304 Y168.351 E.01847
G1 X167.103 Y168.674 E.01193
G1 X166.739 Y169.031 E.01599
G1 X166.272 Y169.276 E.01654
G1 X165.865 Y169.366 E.01307
G1 X163.857 Y169.366 E.06296
G1 X163.292 Y169.2 E.01846
G1 X162.917 Y168.954 E.01406
G1 X162.485 Y168.444 E.02096
G1 X162.277 Y167.785 E.02167
G1 X162.277 Y130.752 E1.16114
G1 X162.443 Y130.187 E.01846
M73 Q0 S150
G1 X162.575 Y129.974 E.00786
M204 S1000
G1 X162.575 Y129.974 F10800
G1 X162.932 Y130.125
M204 S800
G1 F1200
G1 X162.948 Y130.088 E.00126
G1 X163.248 Y129.799 E.01306
G1 X163.903 Y129.549 E.02198
G1 X166.121 Y129.608 E.06957
G1 X166.441 Y129.759 E.01109
G1 X166.796 Y130.084 E.01509
G1 X167.093 Y130.781 E.02376
G1 X167.093 Y167.757 E1.15936
G1 X166.8 Y168.45 E.02359
G1 X166.499 Y168.739 E.01308
G1 X165.845 Y168.989 E.02195
G1 X163.886 Y168.989 E.06142
G1 X163.431 Y168.848 E.01494
G1 X162.877 Y168.357 E.02321
G1 X162.654 Y167.756 E.0201
G1 X162.654 Y130.781 E1.15933
G1 X162.908 Y130.18 E.02046
M204 S1000
G1 X162.908 Y130.18 F10800
G1 X163.228 Y130.339
M204 S800
G1 F1200
G1 X163.447 Y130.121 E.00969
G1 X163.77 Y129.958 E.01134
G1 X165.861 Y129.93 E.06557
G1 X166.252 Y130.087 E.01321
G1 X166.52 Y130.342 E.0116
G1 X166.716 Y130.813 E.016
G1 X166.716 Y167.725 E1.15735
G1 X166.519 Y168.198 E.01607
G1 X166.301 Y168.416 E.00967
G1 X165.977 Y168.58 E.01139
G1 X163.918 Y168.612 E.06457
G1 X163.44 Y168.409 E.01628
G1 X163.15 Y168.086 E.01361
G1 X163.031 Y167.725 E.01192
G1 X163.031 Y130.813 E1.15735
G1 X163.205 Y130.395 E.0142
M204 S1000
G1 X163.205 Y130.395 F10800
G1 X163.508 Y130.594
M204 S800
G1 F1200
G1 X163.907 Y130.31 E.01536
G1 X165.809 Y130.303 E.05964
G1 X166.24 Y130.594 E.01631
G1 X166.339 Y130.848 E.00855
G1 X166.339 Y167.69 E1.15516
G1 X166.24 Y167.944 E.00855
M73 Q1 S150
G1 X165.841 Y168.228 E.01536
G1 X163.953 Y168.235 E.0592
G1 X163.701 Y168.137 E.00848
M73 P1 R150
G1 X163.484 Y167.903 E.01001
G1 X163.408 Y167.69 E.00709
G1 X163.408 Y130.848 E1.15516
G1 X163.486 Y130.65 E.00667
M204 S1000
G1 X163.486 Y130.65 F10800
G1 X163.785 Y130.89
M204 S800
G1 F1200
G1 X163.995 Y130.68 E.00931
G1 X165.822 Y130.709 E.05729
G1 X165.962 Y130.89 E.00717
G1 X165.962 Y167.648 E1.15252
G1 X165.753 Y167.857 E.00927
G1 X163.995 Y167.857 E.05512
G1 X163.785 Y167.648 E.00929
G1 X163.785 Y130.95 E1.15064
M204 S1000
;WIPE_START
G1 F8640
G1 X163.785 Y130.89 E-.01385
G1 X163.995 Y130.68 E-.06857
G1 X165.822 Y130.709 E-.42191
G1 X165.962 Y130.89 E-.05284
G1 X165.962 Y131.942 E-.24283
;WIPE_END
G1 Z.6 F720
G1 X176.841 Y130.95 F10800
G1 Z.2 F720
G1 E.8 F2100
M204 S800
G1 F1200
G1 X176.841 Y129.925 E.03214
G1 X177.301 Y128.264 E.05404
G1 X177.924 Y127.29 E.03625
G1 X178.878 Y126.399 E.04093
G1 X179.887 Y125.858 E.0359
G1 X181.024 Y125.567 E.0368
G1 X183.849 Y125.56 E.08858
G1 X184.792 Y125.774 E.03032
G1 X185.648 Y126.151 E.02933
G1 X186.767 Y127.044 E.04489
G1 X187.659 Y128.382 E.05042
G1 X188.068 Y129.927 E.05011
G1 X188.068 Y167.372 E1.17406
G1 X187.608 Y169.034 E.05407
G1 X186.984 Y170.007 E.03624
G1 X186.03 Y170.898 E.04093
G1 X185.022 Y171.439 E.03587
G1 X183.889 Y171.729 E.03667
G1 X181.242 Y171.763 E.083
G1 X179.75 Y171.382 E.04828
G1 X178.413 Y170.523 E.04983
G1 X177.452 Y169.344 E.04769
G1 X176.841 Y167.395 E.06404
G1 X176.841 Y131.01 E1.14083
M204 S1000
G1 X176.841 Y131.01 F10800
G1 X177.218 Y131.01
M204 S800
G1 F1200
G1 X177.218 Y129.95 E.03324
G1 X177.634 Y128.441 E.04908
G1 X178.2 Y127.548 E.03315
G1 X179.079 Y126.72 E.03786
G1 X180.044 Y126.202 E.03434
G1 X181.093 Y125.938 E.03392
G1 X183.788 Y125.933 E.0845
G1 X184.657 Y126.126 E.02791
G1 X185.472 Y126.486 E.02794
G1 X186.508 Y127.32 E.0417
G1 X187.303 Y128.51 E.04487
G1 X187.691 Y129.952 E.04682
G1 X187.691 Y167.347 E1.17249
G1 X187.274 Y168.856 E.04909
G1 X186.708 Y169.75 E.03318
G1 X185.83 Y170.578 E.03784
G1 X184.864 Y171.095 E.03435
G1 X183.819 Y171.358 E.03379
G1 X181.264 Y171.385 E.08011
G1 X179.874 Y171.024 E.04503
G1 X178.674 Y170.25 E.04477
G1 X177.777 Y169.151 E.04448
G1 X177.218 Y167.366 E.05865
G1 X177.218 Y131.07 E1.13804
M204 S1000
G1 X177.218 Y131.07 F10800
G1 X177.595 Y131.07
M204 S800
G1 F1200
G1 X177.595 Y129.976 E.0343
G1 X177.969 Y128.618 E.04416
G1 X178.478 Y127.804 E.0301
G1 X179.281 Y127.038 E.0348
G1 X180.16 Y126.561 E.03136
G1 X181.162 Y126.31 E.03239
G1 X183.727 Y126.305 E.08042
G1 X184.523 Y126.479 E.02555
G1 X185.297 Y126.821 E.02653
G1 X186.247 Y127.593 E.03838
G1 X186.972 Y128.692 E.04128
G1 X187.313 Y129.977 E.04168
G1 X187.313 Y167.322 E1.17093
G1 X186.94 Y168.68 E.04416
G1 X186.43 Y169.494 E.03012
G1 X185.627 Y170.259 E.03477
G1 X184.749 Y170.736 E.03133
G1 X183.749 Y170.987 E.03233
G1 X181.285 Y171.008 E.07726
G1 X180.052 Y170.69 E.03992
G1 X178.934 Y169.976 E.04159
G1 X178.102 Y168.958 E.04122
G1 X177.595 Y167.338 E.05322
G1 X177.595 Y131.13 E1.13528
M204 S1000
G1 X177.595 Y131.13 F10800
G1 X177.972 Y131.13
M204 S800
G1 F1200
G1 X177.972 Y130.001 E.0354
G1 X178.304 Y128.792 E.03931
G1 X178.758 Y128.058 E.02706
G1 X179.484 Y127.357 E.03164
G1 X180.318 Y126.905 E.02974
G1 X181.23 Y126.681 E.02945
G1 X183.667 Y126.678 E.07641
G1 X184.423 Y126.843 E.02426
G1 X185.119 Y127.154 E.0239
G1 X185.984 Y127.865 E.03511
G1 X186.639 Y128.871 E.03764
G1 X186.936 Y130.001 E.03663
G1 X186.936 Y167.296 E1.16936
G1 X186.604 Y168.505 E.03931
G1 X186.151 Y169.239 E.02704
G1 X185.424 Y169.94 E.03167
G1 X184.591 Y170.392 E.02972
G1 X183.681 Y170.616 E.02938
G1 X181.308 Y170.631 E.07441
G1 X180.177 Y170.334 E.03666
G1 X179.194 Y169.702 E.03664
G1 X178.428 Y168.766 E.03792
G1 X177.972 Y167.309 E.04787
G1 X177.972 Y131.19 E1.13249
M204 S1000
G1 X177.972 Y131.19 F10800
G1 X178.349 Y131.19
M204 S800
G1 F1200
G1 X178.349 Y130.026 E.0365
G1 X178.64 Y128.965 E.0345
G1 X179.039 Y128.31 E.02405
G1 X179.689 Y127.675 E.02849
G1 X180.432 Y127.265 E.02661
G1 X181.297 Y127.053 E.02792
G1 X183.608 Y127.051 E.07246
G1 X184.288 Y127.196 E.0218
G1 X184.941 Y127.488 E.02243
G1 X185.721 Y128.137 E.03181
G1 X186.283 Y128.999 E.03226
G1 X186.559 Y130.026 E.03334
G1 X186.559 Y167.271 E1.16779
