; generated by PrusaSlicer 2.3.1+win64 on 2021-06-30 at 22:53:57 UTC

; 

; external perimeters extrusion width = 0.45mm
; perimeters extrusion width = 0.45mm
; infill extrusion width = 0.45mm
; solid infill extrusion width = 0.45mm
; top infill extrusion width = 0.40mm
; first layer extrusion width = 0.42mm

M73 P0 R191
M73 Q0 S193
M201 X1000 Y1000 Z200 E5000 ; sets maximum accelerations, mm/sec^2
M203 X200 Y200 Z12 E120 ; sets maximum feedrates, mm/sec
M204 P1250 R1250 T1250 ; sets acceleration (P, T) and retract acceleration (R), mm/sec^2
M205 X8.00 Y8.00 Z0.40 E4.50 ; sets the jerk limits, mm/sec
M205 S0 T0 ; sets the minimum extruding and travel feed rate, mm/sec
M107
;TYPE:Custom
M862.3 P "MK3S" ; printer model check
M862.1 P0.4 ; nozzle diameter check
M115 U3.9.3 ; tell printer latest fw version
G90 ; use absolute coordinates
M83 ; extruder relative mode
M104 S215 ; set extruder temp
M140 S60 ; set bed temp
M190 S60 ; wait for bed temp
M109 S215 ; wait for extruder temp
G28 W ; home all without mesh bed level
G80 ; mesh bed leveling
G1 Y-3.0 F1000.0 ; go outside print area
G92 E0.0
G1 X60.0 E9.0 F1000.0 ; intro line
G1 X100.0 E12.5 F1000.0 ; intro line
G92 E0.0
M221 S95

; Don't change E values below. Excessive value can damage the printer.
M907 E430 ; set extruder motor current
G21 ; set units to millimeters
G90 ; use absolute coordinates
M83 ; use relative distances for extrusion
M900 K0.05 ; Filament gcode LA 1.5
M900 K30 ; Filament gcode LA 1.0
;LAYER_CHANGE
;Z:0.2
;HEIGHT:0.2
;BEFORE_LAYER_CHANGE
G92 E0.0
;0.2


G1 E-0.80000 F2100.000
G1 Z0.400 F10800.000
;AFTER_LAYER_CHANGE
;0.2
G1 X60.342 Y35.630
G1 Z0.200
G1 E0.80000 F2100.000
M204 S1000
;TYPE:Skirt
;WIDTH:0.42
G1 F1200.000
G1 X60.992 Y35.027 E0.02780
G1 X61.456 Y34.735 E0.01716
G1 X62.214 Y34.417 E0.02578
G1 X63.195 Y34.264 E0.03113
G1 X187.235 Y34.252 E3.88920
G1 X188.083 Y34.328 E0.02669
G1 X188.830 Y34.567 E0.02460
G1 X189.269 Y34.787 E0.01538
G1 X189.924 Y35.265 E0.02543
G1 X190.521 Y35.957 E0.02865
G1 X190.885 Y36.651 E0.02459
G1 X191.058 Y37.159 E0.01680
G1 X191.149 Y37.861 E0.02221
G1 X191.092 Y171.463 E4.18901
G1 X190.937 Y172.952 E0.04693
G1 X190.678 Y174.260 E0.04180
G1 X190.217 Y175.823 E0.05110
G1 X189.723 Y177.062 E0.04180
G1 X189.083 Y178.330 E0.04455
G1 X188.332 Y179.537 E0.04455
G1 X187.484 Y180.662 E0.04419
G1 X186.512 Y181.735 E0.04539
G1 X185.387 Y182.762 E0.04777
G1 X184.340 Y183.563 E0.04132
G1 X183.222 Y184.275 E0.04156
G1 X181.878 Y184.975 E0.04753
G1 X180.544 Y185.517 E0.04515
G1 X179.092 Y185.953 E0.04753
G1 X177.794 Y186.222 E0.04157
G1 X176.485 Y186.378 E0.04133
G1 X175.046 Y186.426 E0.04514
G1 X74.925 Y186.425 E3.13922
G1 X73.533 Y186.336 E0.04375
G1 X72.128 Y186.120 E0.04455
G1 X70.749 Y185.779 E0.04455
G1 X69.488 Y185.347 E0.04180
G1 X68.001 Y184.679 E0.05110
G1 X66.840 Y184.023 E0.04180
G1 X65.607 Y183.169 E0.04705
G1 X64.504 Y182.243 E0.04514
G1 X63.569 Y181.314 E0.04132
G1 X62.714 Y180.301 E0.04157
G1 X61.839 Y179.063 E0.04753
G1 X61.125 Y177.817 E0.04503
G1 X60.528 Y176.515 E0.04491
G1 X60.027 Y175.081 E0.04765
G1 X59.702 Y173.803 E0.04132
G1 X59.487 Y172.499 E0.04144
G1 X59.371 Y170.995 E0.04729
G1 X58.899 Y132.692 E1.20105
G1 X58.907 Y117.409 E0.47920
G1 X59.421 Y38.200 E2.48359
M73 P0 R190
G1 X59.496 Y37.377 E0.02591
G1 X59.722 Y36.656 E0.02369
G1 X60.311 Y35.681 E0.03572
;WIPE_START
G1 F8640.000
G1 X60.992 Y35.027 E-0.21809
G1 X61.456 Y34.735 E-0.12637
G1 X62.214 Y34.417 E-0.18982
G1 X63.180 Y34.266 E-0.22573
;WIPE_END
G1 E-0.04000 F2100.000
G1 Z0.600 F10800.000
G1 X59.082 Y61.435
G1 Z0.200
G1 E0.80000 F2100.000
G1 F1200.000
G1 X58.442 Y60.056 E0.04766
G1 X57.889 Y58.519 E0.05122
G1 X57.450 Y56.818 E0.05507
G1 X57.193 Y55.220 E0.05074
G1 X57.077 Y53.567 E0.05196
G1 X57.085 Y38.130 E0.48402
G1 X57.159 Y37.146 E0.03093
G1 X57.784 Y35.276 E0.06181
G1 X58.976 Y33.668 E0.06278
G1 X59.902 Y32.935 E0.03704
G1 X60.963 Y32.378 E0.03757
G1 X62.460 Y31.986 E0.04851
G1 X187.708 Y31.939 E3.92707
G1 X189.130 Y32.188 E0.04525
G1 X190.342 Y32.705 E0.04134
G1 X191.398 Y33.449 E0.04052
M73 Q0 S192
G1 X192.732 Y35.083 E0.06612
G1 X193.198 Y36.147 E0.03642
G1 X193.447 Y37.262 E0.03582
G1 X193.488 Y53.144 E0.49795
G1 X193.470 Y54.161 E0.03190
G1 X193.291 Y55.871 E0.05390
G1 X192.954 Y57.547 E0.05361
G1 X192.498 Y59.080 E0.05014
G1 X191.911 Y60.564 E0.05005
G1 X191.328 Y61.728 E0.04083
G1 X190.950 Y62.390 F10800.000
G1 F1200.000
G1 X190.357 Y63.352 E0.03545
G1 X189.242 Y64.829 E0.05802
G1 X188.212 Y65.957 E0.04792
G1 X187.091 Y66.996 E0.04790
G1 X185.625 Y68.121 E0.05794
G1 X184.315 Y68.944 E0.04850
G1 X182.943 Y69.652 E0.04840
G1 X181.452 Y70.264 E0.05054
G1 X179.909 Y70.743 E0.05067
G1 X178.238 Y71.099 E0.05357
G1 X176.509 Y71.298 E0.05455
G1 X174.965 Y71.337 E0.04844
G1 X173.423 Y71.244 E0.04842
G1 X171.810 Y71.005 E0.05113
G1 X170.201 Y70.616 E0.05191
G1 X168.474 Y70.018 E0.05729
G1 X167.218 Y69.454 E0.04320
G1 X163.733 Y67.811 E0.12079
G1 X158.169 Y65.564 E0.18814
G1 X152.489 Y63.676 E0.18768
G1 X146.705 Y62.149 E0.18755
G1 X140.638 Y60.961 E0.19387
G1 X134.896 Y60.196 E0.18162
G1 X128.924 Y59.780 E0.18768
G1 X122.939 Y59.739 E0.18768
G1 X116.962 Y60.074 E0.18768
G1 X111.018 Y60.784 E0.18768
G1 X105.131 Y61.866 E0.18768
G1 X99.323 Y63.315 E0.18768
G1 X93.622 Y65.125 E0.18757
G1 X87.878 Y67.366 E0.19331
G1 X82.222 Y69.973 E0.19528
G1 X81.238 Y70.338 E0.03289
G1 X79.883 Y70.750 E0.04442
G1 X78.257 Y71.096 E0.05212
G1 X76.597 Y71.292 E0.05239
G1 X74.927 Y71.336 E0.05240
G1 X73.263 Y71.227 E0.05230
G1 X71.685 Y70.980 E0.05006
G1 X70.151 Y70.601 E0.04954
G1 X68.641 Y70.084 E0.05005
G1 X67.194 Y69.444 E0.04963
G1 X65.560 Y68.526 E0.05873
G1 X64.246 Y67.613 E0.05018
G1 X63.019 Y66.589 E0.05010
G1 X61.886 Y65.462 E0.05012
G1 X60.846 Y64.227 E0.05061
G1 X59.920 Y62.906 E0.05060
G1 X59.455 Y62.098 E0.02922
G1 X59.460 Y61.351 F10800.000
G1 F1200.000
G1 X60.234 Y62.696 E0.04866
G1 X61.140 Y63.991 E0.04956
G1 X62.158 Y65.201 E0.04956
G1 X63.279 Y66.316 E0.04959
G1 X64.481 Y67.318 E0.04906
G1 X65.768 Y68.211 E0.04913
G1 X67.355 Y69.102 E0.05706
G1 X68.771 Y69.730 E0.04858
G1 X70.250 Y70.237 E0.04902
G1 X71.768 Y70.612 E0.04902
G1 X73.312 Y70.853 E0.04901
G1 X74.943 Y70.959 E0.05123
G1 X76.562 Y70.917 E0.05078
G1 X78.187 Y70.725 E0.05131
G1 X79.781 Y70.387 E0.05109
G1 X81.123 Y69.979 E0.04398
G1 X82.084 Y69.622 E0.03213
G1 X87.730 Y67.019 E0.19496
G1 X93.496 Y64.770 E0.19404
G1 X99.221 Y62.952 E0.18832
G1 X105.051 Y61.497 E0.18843
G1 X110.962 Y60.411 E0.18843
G1 X116.929 Y59.699 E0.18843
G1 X122.929 Y59.362 E0.18843
G1 X128.939 Y59.403 E0.18843
G1 X134.934 Y59.821 E0.18843
G1 X140.699 Y60.589 E0.18235
G1 X146.790 Y61.781 E0.19461
G1 X152.597 Y63.315 E0.18831
G1 X158.299 Y65.210 E0.18843
G1 X163.884 Y67.465 E0.18884
G1 X167.377 Y69.112 E0.12107
G1 X168.621 Y69.671 E0.04277
G1 X170.299 Y70.251 E0.05565
G1 X171.874 Y70.633 E0.05083
G1 X173.454 Y70.868 E0.05008
G1 X174.979 Y70.960 E0.04791
G1 X176.491 Y70.922 E0.04742
G1 X178.168 Y70.728 E0.05292
G1 X179.805 Y70.380 E0.05248
G1 X181.317 Y69.912 E0.04961
G1 X182.778 Y69.313 E0.04950
G1 X184.135 Y68.612 E0.04789
G1 X185.417 Y67.806 E0.04747
G1 X186.841 Y66.713 E0.05630
G1 X187.939 Y65.697 E0.04688
G1 X188.958 Y64.581 E0.04739
G1 X190.041 Y63.147 E0.05636
G1 X190.863 Y61.814 E0.04909
G1 X190.951 Y61.639 E0.00614
G1 X191.328 Y60.887 F10800.000
G1 F1200.000
G1 X191.563 Y60.417 E0.01646
G1 X192.139 Y58.964 E0.04901
G1 X192.586 Y57.464 E0.04908
G1 X192.917 Y55.822 E0.05250
G1 X193.093 Y54.146 E0.05285
G1 X193.111 Y53.143 E0.03146
G1 X193.075 Y37.324 E0.49597
G1 X192.834 Y36.248 E0.03459
G1 X192.397 Y35.259 E0.03389
G1 X191.160 Y33.743 E0.06136
G1 X190.142 Y33.025 E0.03907
G1 X189.003 Y32.544 E0.03875
G1 X187.660 Y32.313 E0.04272
G1 X62.531 Y32.357 E3.92335
G1 X61.118 Y32.722 E0.04575
G1 X60.122 Y33.242 E0.03522
G1 X59.230 Y33.948 E0.03568
G1 X58.105 Y35.475 E0.05947
G1 X57.525 Y37.241 E0.05828
G1 X57.462 Y38.136 E0.02814
G1 X57.454 Y53.560 E0.48361
G1 X57.568 Y55.185 E0.05106
G1 X57.821 Y56.749 E0.04968
G1 X58.247 Y58.399 E0.05343
G1 X58.788 Y59.905 E0.05016
G1 X59.088 Y60.552 E0.02237
G1 X59.465 Y60.471 F10800.000
G1 F1200.000
G1 X59.784 Y61.159 E0.02377
G1 X60.557 Y62.501 E0.04855
G1 X61.444 Y63.768 E0.04851
G1 X62.441 Y64.951 E0.04851
G1 X63.539 Y66.043 E0.04855
G1 X64.716 Y67.023 E0.04802
G1 X65.976 Y67.896 E0.04807
G1 X67.516 Y68.761 E0.05538
G1 X68.916 Y69.382 E0.04804
G1 X70.364 Y69.877 E0.04798
G1 X71.850 Y70.244 E0.04798
G1 X73.362 Y70.479 E0.04797
G1 X74.959 Y70.582 E0.05017
G1 X76.543 Y70.540 E0.04970
G1 X78.117 Y70.354 E0.04970
G1 X79.679 Y70.024 E0.05006
G1 X81.008 Y69.620 E0.04354
G1 X81.945 Y69.271 E0.03136
G1 X87.583 Y66.672 E0.19464
G1 X93.370 Y64.414 E0.19478
G1 X99.118 Y62.589 E0.18907
G1 X104.972 Y61.129 E0.18917
G1 X110.906 Y60.038 E0.18917
G1 X116.896 Y59.323 E0.18917
G1 X122.920 Y58.985 E0.18917
G1 X128.953 Y59.026 E0.18917
G1 X134.972 Y59.445 E0.18917
G1 X140.760 Y60.217 E0.18308
G1 X146.874 Y61.414 E0.19535
G1 X152.704 Y62.953 E0.18906
G1 X158.430 Y64.856 E0.18917
G1 X164.035 Y67.120 E0.18955
G1 X167.536 Y68.770 E0.12135
G1 X168.768 Y69.324 E0.04235
G1 X170.396 Y69.887 E0.05402
G1 X171.938 Y70.262 E0.04975
G1 X173.485 Y70.492 E0.04904
G1 X174.978 Y70.583 E0.04689
G1 X176.473 Y70.545 E0.04690
G1 X178.099 Y70.357 E0.05130
G1 X179.702 Y70.018 E0.05140
G1 X181.182 Y69.560 E0.04856
G1 X182.612 Y68.974 E0.04847
G1 X183.941 Y68.289 E0.04687
G1 X185.208 Y67.492 E0.04695
G1 X186.592 Y66.430 E0.05466
G1 X187.677 Y65.426 E0.04636
G1 X188.673 Y64.333 E0.04637
G1 X189.725 Y62.941 E0.05471
G1 X190.530 Y61.637 E0.04804
G1 X190.951 Y60.798 E0.02944
G1 X191.328 Y59.987 F10800.000
G1 F1200.000
G1 X191.780 Y58.848 E0.03842
G1 X192.218 Y57.381 E0.04801
G1 X192.543 Y55.774 E0.05140
G1 X192.716 Y54.131 E0.05180
G1 X192.733 Y53.142 E0.03103
G1 X192.702 Y37.385 E0.49403
G1 X192.482 Y36.383 E0.03219
G1 X192.062 Y35.435 E0.03250
G1 X190.922 Y34.036 E0.05659
G1 X189.942 Y33.345 E0.03761
G1 X188.878 Y32.900 E0.03613
G1 X187.614 Y32.688 E0.04021
G1 X62.601 Y32.728 E3.91969
G1 X61.273 Y33.067 E0.04297
G1 X60.313 Y33.568 E0.03395
G1 X59.484 Y34.227 E0.03321
G1 X58.454 Y35.623 E0.05439
G1 X57.899 Y37.291 E0.05513
G1 X57.839 Y38.143 E0.02677
G1 X57.831 Y53.554 E0.48319
G1 X57.944 Y55.150 E0.05017
G1 X58.192 Y56.680 E0.04861
G1 X58.604 Y58.280 E0.05181
G1 X59.094 Y59.644 E0.04542
G1 X59.471 Y59.581 F10800.000
G1 F1200.000
G1 X60.115 Y60.978 E0.04822
G1 X60.879 Y62.305 E0.04802
G1 X61.748 Y63.544 E0.04746
G1 X62.724 Y64.702 E0.04746
G1 X63.799 Y65.769 E0.04750
G1 X64.951 Y66.727 E0.04697
G1 X66.183 Y67.581 E0.04702
G1 X67.677 Y68.420 E0.05372
G1 X69.046 Y69.028 E0.04698
G1 X70.463 Y69.513 E0.04694
G1 X71.932 Y69.876 E0.04746
G1 X73.411 Y70.105 E0.04693
G1 X74.957 Y70.205 E0.04858
G1 X76.508 Y70.165 E0.04863
G1 X78.048 Y69.983 E0.04862
G1 X79.578 Y69.660 E0.04902
G1 X80.893 Y69.261 E0.04310
G1 X81.807 Y68.920 E0.03059
G1 X87.435 Y66.324 E0.19433
G1 X93.245 Y64.058 E0.19552
G1 X99.015 Y62.226 E0.18983
G1 X104.892 Y60.760 E0.18991
G1 X110.849 Y59.665 E0.18991
G1 X116.863 Y58.947 E0.18991
G1 X122.911 Y58.608 E0.18991
G1 X128.968 Y58.649 E0.18991
G1 X135.010 Y59.070 E0.18991
G1 X140.821 Y59.844 E0.18382
G1 X146.959 Y61.046 E0.19610
G1 X152.812 Y62.591 E0.18982
G1 X158.560 Y64.502 E0.18991
G1 X164.186 Y66.774 E0.19026
G1 X167.695 Y68.428 E0.12163
G1 X168.915 Y68.976 E0.04192
G1 X170.494 Y69.523 E0.05240
G1 X172.003 Y69.890 E0.04867
G1 X173.517 Y70.117 E0.04800
G1 X174.977 Y70.206 E0.04586
G1 X176.455 Y70.168 E0.04638
G1 X178.029 Y69.987 E0.04968
G1 X179.599 Y69.655 E0.05031
G1 X181.047 Y69.207 E0.04750
G1 X182.447 Y68.635 E0.04743
G1 X183.761 Y67.957 E0.04636
G1 X185.000 Y67.177 E0.04591
G1 X186.342 Y66.148 E0.05303
G1 X187.403 Y65.166 E0.04533
G1 X188.389 Y64.086 E0.04584
G1 X189.409 Y62.735 E0.05306
G1 X190.196 Y61.461 E0.04698
G1 X190.869 Y60.123 E0.04693
M73 P0 R189
G1 X190.951 Y59.915 E0.00702
;WIPE_START
G1 F8640.000
G1 X190.869 Y60.123 E-0.05170
G1 X190.196 Y61.461 E-0.34558
G1 X189.409 Y62.735 E-0.34601
G1 X189.365 Y62.793 E-0.01671
;WIPE_END
G1 E-0.04000 F2100.000
G1 Z0.600 F10800.000
G1 X191.329 Y58.965
G1 Z0.200
G1 E0.80000 F2100.000
G1 F1200.000
G1 X191.422 Y58.732 E0.00786
G1 X191.850 Y57.298 E0.04695
G1 X192.169 Y55.725 E0.05030
G1 X192.339 Y54.116 E0.05074
G1 X192.356 Y53.140 E0.03060
G1 X192.329 Y37.446 E0.49207
G1 X192.117 Y36.483 E0.03094
G1 X191.729 Y35.612 E0.02989
G1 X190.647 Y34.296 E0.05341
G1 X189.744 Y33.666 E0.03454
G1 X188.755 Y33.257 E0.03355
G1 X187.568 Y33.062 E0.03770
G1 X62.670 Y33.100 E3.91610
G1 X61.426 Y33.412 E0.04020
G1 X60.533 Y33.874 E0.03154
G1 X59.739 Y34.506 E0.03183
G1 X58.776 Y35.821 E0.05110
G1 X58.274 Y37.341 E0.05019
G1 X58.216 Y38.150 E0.02542
G1 X58.208 Y53.547 E0.48277
G1 X58.320 Y55.115 E0.04926
G1 X58.563 Y56.611 E0.04754
G1 X58.962 Y58.161 E0.05019
G1 X59.101 Y58.548 E0.01287
G1 X59.478 Y58.484 F10800.000
G1 F1200.000
G1 X59.825 Y59.453 E0.03227
G1 X60.446 Y60.797 E0.04643
G1 X61.193 Y62.096 E0.04696
G1 X62.042 Y63.308 E0.04641
G1 X62.995 Y64.440 E0.04641
G1 X64.058 Y65.496 E0.04697
G1 X65.185 Y66.432 E0.04593
G1 X66.390 Y67.266 E0.04596
G1 X67.838 Y68.079 E0.05206
G1 X69.177 Y68.674 E0.04593
G1 X70.577 Y69.154 E0.04641
G1 X72.014 Y69.508 E0.04641
G1 X73.460 Y69.731 E0.04588
G1 X74.973 Y69.828 E0.04752
G1 X76.489 Y69.788 E0.04756
G1 X77.995 Y69.610 E0.04755
G1 X79.476 Y69.297 E0.04745
G1 X80.778 Y68.902 E0.04266
G1 X81.669 Y68.570 E0.02981
G1 X87.287 Y65.977 E0.19402
M73 Q0 S191
G1 X93.119 Y63.702 E0.19626
G1 X98.912 Y61.863 E0.19058
G1 X104.812 Y60.391 E0.19066
G1 X110.793 Y59.292 E0.19066
G1 X116.830 Y58.571 E0.19066
G1 X122.901 Y58.231 E0.19066
G1 X128.982 Y58.272 E0.19066
G1 X135.048 Y58.695 E0.19066
G1 X140.882 Y59.472 E0.18455
G1 X147.043 Y60.678 E0.19684
G1 X152.920 Y62.230 E0.19057
G1 X158.690 Y64.148 E0.19066
G1 X164.338 Y66.428 E0.19096
G1 X167.855 Y68.086 E0.12191
G1 X169.062 Y68.629 E0.04150
G1 X170.592 Y69.159 E0.05078
G1 X172.067 Y69.518 E0.04760
G1 X173.548 Y69.741 E0.04695
G1 X174.991 Y69.829 E0.04534
G1 X176.437 Y69.792 E0.04535
G1 X177.960 Y69.616 E0.04807
G1 X179.496 Y69.292 E0.04923
G1 X180.912 Y68.855 E0.04645
G1 X182.282 Y68.296 E0.04639
G1 X183.567 Y67.634 E0.04533
G1 X184.792 Y66.863 E0.04538
G1 X186.092 Y65.865 E0.05139
G1 X187.141 Y64.895 E0.04481
G1 X188.104 Y63.838 E0.04481
G1 X189.093 Y62.529 E0.05143
G1 X189.863 Y61.284 E0.04593
G1 X190.521 Y59.976 E0.04588
G1 X190.952 Y58.893 E0.03655
;WIPE_START
G1 F8640.000
G1 X190.521 Y59.976 E-0.26918
G1 X189.863 Y61.284 E-0.33791
G1 X189.515 Y61.847 E-0.15291
;WIPE_END
G1 E-0.04000 F2100.000
G1 Z0.600 F10800.000
G1 X191.329 Y57.725
G1 Z0.200
G1 E0.80000 F2100.000
G1 F1200.000
G1 X191.487 Y57.198 E0.01724
G1 X191.797 Y55.659 E0.04922
G1 X191.962 Y54.101 E0.04913
G1 X191.979 Y53.139 E0.03017
G1 X191.956 Y37.506 E0.49016
G1 X191.765 Y36.618 E0.02848
G1 X191.395 Y35.789 E0.02847
G1 X190.410 Y34.590 E0.04866
G1 X189.580 Y34.007 E0.03180
G1 X188.631 Y33.614 E0.03218
G1 X187.524 Y33.437 E0.03516
G1 X62.738 Y33.471 E3.91259
M73 P1 R189
M73 Q1 S191
G1 X61.580 Y33.757 E0.03740
G1 X60.723 Y34.201 E0.03023
G1 X59.994 Y34.785 E0.02931
G1 X59.124 Y35.969 E0.04607
G1 X58.648 Y37.392 E0.04705
G1 X58.593 Y38.157 E0.02404
G1 X58.585 Y53.541 E0.48235
G1 X58.695 Y55.079 E0.04836
G1 X58.933 Y56.542 E0.04648
G1 X59.109 Y57.224 E0.02209
G1 X59.487 Y57.181 F10800.000
G1 F1200.000
G1 X59.678 Y57.924 E0.02406
G1 X60.171 Y59.303 E0.04592
G1 X60.777 Y60.617 E0.04538
G1 X61.507 Y61.887 E0.04591
G1 X62.336 Y63.072 E0.04536
G1 X63.267 Y64.179 E0.04536
G1 X64.306 Y65.211 E0.04591
G1 X65.420 Y66.136 E0.04540
G1 X66.598 Y66.951 E0.04491
G1 X67.999 Y67.738 E0.05041
G1 X69.307 Y68.320 E0.04487
G1 X70.675 Y68.790 E0.04537
G1 X72.080 Y69.136 E0.04536
G1 X73.509 Y69.357 E0.04535
G1 X74.988 Y69.451 E0.04645
G1 X76.470 Y69.411 E0.04649
G1 X77.926 Y69.239 E0.04595
G1 X79.374 Y68.934 E0.04641
G1 X80.662 Y68.543 E0.04222
G1 X81.530 Y68.219 E0.02904
G1 X87.140 Y65.630 E0.19371
G1 X92.993 Y63.347 E0.19700
G1 X98.809 Y61.500 E0.19133
G1 X104.732 Y60.022 E0.19140
G1 X110.736 Y58.919 E0.19140
G1 X116.797 Y58.195 E0.19140
