; generated by PrusaSlicer 2.3.3+win64 on 2021-10-31 at 00:56:27 UTC

; 

; external perimeters extrusion width = 0.45mm
; perimeters extrusion width = 0.45mm
; infill extrusion width = 0.45mm
; solid infill extrusion width = 0.45mm
; top infill extrusion width = 0.40mm
; support material extrusion width = 0.35mm
; first layer extrusion width = 0.42mm

M73 P0 R121
M73 Q0 S122
M201 X1000 Y1000 Z200 E5000 ; sets maximum accelerations, mm/sec^2
M203 X200 Y200 Z12 E120 ; sets maximum feedrates, mm/sec
M204 P1250 R1250 T1250 ; sets acceleration (P, T) and retract acceleration (R), mm/sec^2
M205 X8.00 Y8.00 Z0.40 E4.50 ; sets the jerk limits, mm/sec
M205 S0 T0 ; sets the minimum extruding and travel feed rate, mm/sec
M107
;TYPE:Custom
M862.3 P "MK3S" ; printer model check
M862.1 P0.4 ; nozzle diameter check
M115 U3.10.0 ; tell printer latest fw version
G90 ; use absolute coordinates
M83 ; extruder relative mode
M104 S215 ; set extruder temp
M140 S60 ; set bed temp
M190 S60 ; wait for bed temp
M109 S215 ; wait for extruder temp
G28 W ; home all without mesh bed level
G80 ; mesh bed leveling
G1 Y-3.0 F1000.0 ; go outside print area
G92 E0.0
G1 X60.0 E9.0 F1000.0 ; intro line
G1 X100.0 E12.5 F1000.0 ; intro line
G92 E0.0
M221 S95

; Don't change E values below. Excessive value can damage the printer.
M907 E430 ; set extruder motor current
G21 ; set units to millimeters
G90 ; use absolute coordinates
M83 ; use relative distances for extrusion
M900 K0.05 ; Filament gcode LA 1.5
M900 K30 ; Filament gcode LA 1.0
;LAYER_CHANGE
;Z:0.2
;HEIGHT:0.2
;BEFORE_LAYER_CHANGE
G92 E0.0
;0.2


G1 E-0.80000 F2100.000
G1 Z0.400 F10800.000
;AFTER_LAYER_CHANGE
;0.2
G1 X85.276 Y67.414
G1 Z0.200
G1 E0.80000 F2100.000
M204 S1000
;TYPE:Skirt
;WIDTH:0.42
G1 F1200.000
G1 X91.823 Y67.189 E0.20538
G1 X115.982 Y67.359 E0.75752
G1 X116.854 Y67.537 E0.02790
G1 X117.500 Y67.934 E0.02378
G1 X138.883 Y86.521 E0.88831
G1 X165.985 Y116.596 E1.26939
G1 X166.355 Y117.148 E0.02083
G1 X166.530 Y117.638 E0.01633
G1 X166.593 Y118.159 E0.01645
G1 X166.593 Y140.479 E0.69983
G1 X166.401 Y141.371 E0.02860
G1 X165.887 Y142.125 E0.02860
G1 X165.469 Y142.454 E0.01668
G1 X164.991 Y142.681 E0.01657
G1 X157.798 Y144.919 E0.23620
G1 X146.897 Y145.118 E0.34185
G1 X142.664 Y145.078 E0.13273
G1 X132.719 Y142.483 E0.32227
G1 X132.278 Y142.259 E0.01550
G1 X131.896 Y141.951 E0.01538
G1 X111.241 Y121.170 E0.91868
G1 X84.084 Y93.646 E1.21235
G1 X83.771 Y93.249 E0.01585
G1 X83.548 Y92.791 E0.01597
G1 X83.407 Y91.989 E0.02555
G1 X83.407 Y69.725 E0.69808
G1 X83.522 Y69.005 E0.02284
G1 X83.787 Y68.446 E0.01941
G1 X84.188 Y67.974 E0.01941
G1 X84.694 Y67.624 E0.01929
G1 X85.220 Y67.434 E0.01753
;WIPE_START
G1 F8640.000
G1 X88.509 Y67.312 E-0.76000
;WIPE_END
G1 E-0.04000 F2100.000
G1 Z0.600 F10800.000
G1 X98.364 Y64.841
G1 Z0.200
G1 E0.80000 F2100.000
G1 F1200.000
G1 X92.226 Y64.834 E0.19244
G1 X91.972 Y64.861 E0.00803
G1 X91.165 Y64.849 E0.02530
G1 X90.454 Y65.005 E0.02282
G1 X89.199 Y65.005 E0.03935
G1 X88.479 Y64.841 E0.02313
G1 X85.068 Y64.872 E0.10697
G1 X83.921 Y65.180 E0.03724
G1 X82.914 Y65.740 E0.03611
G1 X81.987 Y66.620 E0.04009
G1 X81.357 Y67.583 E0.03608
G1 X80.889 Y69.218 E0.05334
G1 X80.882 Y92.499 E0.72996
G1 X81.246 Y93.888 E0.04502
G1 X81.991 Y95.049 E0.04325
G1 X83.177 Y96.073 E0.04913
G1 X84.181 Y96.518 E0.03441
G1 X85.203 Y96.701 E0.03257
G1 X85.938 Y96.691 E0.02305
G1 X86.191 Y96.717 E0.00797
G1 X86.849 Y96.717 E0.02063
G1 X87.379 Y96.717 F10800.000
G1 F1200.000
G1 X92.164 Y96.717 E0.15004
G1 X92.404 Y96.692 E0.00755
G1 X93.008 Y96.717 E0.01898
G1 X95.935 Y96.717 E0.09175
G1 X96.174 Y96.692 E0.00755
G1 X96.779 Y96.717 E0.01898
G1 X103.506 Y96.717 E0.21093
G1 X103.506 Y113.062 E0.51248
G1 X103.662 Y113.756 F10800.000
G1 F1200.000
G1 X104.152 Y115.213 E0.04820
G1 X104.632 Y115.829 E0.02447
G1 X105.381 Y116.546 E0.03252
G1 X106.303 Y117.069 E0.03323
G1 X106.751 Y117.858 E0.02846
G1 X107.650 Y118.763 E0.03998
G1 X108.031 Y119.012 E0.01428
G1 X108.039 Y119.944 E0.02924
G1 X108.262 Y121.050 E0.03537
G1 X109.109 Y122.597 E0.05529
G1 X110.082 Y123.510 E0.04184
G1 X111.314 Y124.148 E0.04351
G1 X112.574 Y124.402 E0.04028
G1 X114.188 Y124.402 E0.05063
G1 X114.720 Y124.402 F10800.000
G1 F1200.000
G1 X117.051 Y124.402 E0.07309
G1 X117.291 Y124.377 E0.00755
G1 X117.896 Y124.402 E0.01898
G1 X122.331 Y124.402 E0.13906
G1 X122.598 Y124.374 E0.00842
G1 X123.426 Y124.377 E0.02596
G1 X123.882 Y124.300 E0.01452
G1 X124.428 Y124.386 E0.01731
G1 X125.154 Y124.376 E0.02279
G1 X125.407 Y124.402 E0.00797
G1 X128.669 Y124.402 E0.10226
G1 X128.682 Y138.450 E0.44044
G1 X128.682 Y138.985 F10800.000
G1 F1200.000
G1 X128.684 Y140.798 E0.05683
G1 X128.919 Y141.876 E0.03461
G1 X129.405 Y142.891 E0.03527
G1 X130.384 Y143.992 E0.04619
G1 X131.170 Y144.569 E0.03059
G1 X133.090 Y145.166 E0.06303
G1 X134.397 Y145.166 E0.04099
G1 X134.636 Y145.141 E0.00755
G1 X135.241 Y145.166 E0.01898
G1 X138.855 Y145.166 E0.11329
G1 X139.025 Y145.455 E0.01051
G1 X140.217 Y146.643 E0.05278
G1 X141.253 Y147.190 E0.03672
G1 X142.389 Y147.448 E0.03653
G1 X143.240 Y147.445 E0.02667
G1 X143.507 Y147.473 E0.00841
G1 X146.463 Y147.473 E0.09270
G1 X146.703 Y147.448 E0.00755
G1 X147.308 Y147.473 E0.01898
G1 X157.918 Y147.473 E0.33268
G1 X159.690 Y146.942 E0.05800
G1 X160.606 Y146.318 E0.03475
G1 X161.447 Y145.410 E0.03881
G1 X161.603 Y145.147 E0.00959
G1 X163.810 Y145.166 E0.06919
G1 X164.076 Y145.138 E0.00838
G1 X165.109 Y145.116 E0.03241
G1 X166.271 Y144.798 E0.03777
G1 X167.433 Y144.078 E0.04286
G1 X168.411 Y142.983 E0.04602
G1 X168.820 Y142.166 E0.02865
G1 X169.118 Y140.943 E0.03947
G1 X169.118 Y117.701 E0.72876
G1 X168.674 Y116.107 E0.05188
G1 X167.921 Y114.955 E0.04314
G1 X167.247 Y114.313 E0.02920
G1 X166.492 Y113.815 E0.02835
G1 X164.686 Y113.282 E0.05902
G1 X163.252 Y113.282 E0.04496
G1 X162.745 Y113.282 F10800.000
G1 F1200.000
G1 X152.557 Y113.282 E0.31944
G1 X152.296 Y113.310 E0.00821
G1 X151.503 Y113.302 E0.02487
G1 X150.446 Y113.516 E0.03382
G1 X150.188 Y113.624 E0.00877
G1 X148.841 Y113.282 E0.04358
G1 X144.231 Y113.282 E0.14453
G1 X144.231 Y92.737 E0.64418
G1 X144.168 Y92.104 F10800.000
G1 F1200.000
G1 X143.741 Y90.630 E0.04811
G1 X143.121 Y89.681 E0.03555
G1 X142.074 Y88.707 E0.04482
G1 X142.022 Y87.246 E0.04582
G1 X141.563 Y85.930 E0.04372
G1 X140.801 Y84.859 E0.04120
G1 X139.616 Y83.902 E0.04775
G1 X138.645 Y83.489 E0.03310
G1 X137.569 Y83.291 E0.03430
G1 X135.455 Y83.291 E0.06627
G1 X134.880 Y83.291 F10800.000
G1 F1200.000
G1 X124.630 Y83.290 E0.32140
G1 X123.940 Y83.407 E0.02195
G1 X123.308 Y83.307 E0.02004
G1 X122.583 Y83.317 E0.02274
G1 X122.330 Y83.290 E0.00797
G1 X120.852 Y83.290 E0.04635
G1 X120.837 Y71.084 E0.38272
G1 X120.837 Y70.584 F10800.000
G1 F1200.000
G1 X120.835 Y69.142 E0.04522
G1 X120.536 Y67.963 E0.03813
G1 X119.972 Y66.899 E0.03777
G1 X119.129 Y65.988 E0.03890
G1 X118.107 Y65.311 E0.03845
G1 X116.411 Y64.834 E0.05522
G1 X111.724 Y64.834 E0.14696
G1 X110.957 Y65.006 E0.02466
G1 X108.872 Y65.005 E0.06536
G1 X108.108 Y64.834 E0.02456
G1 X101.918 Y64.834 E0.19407
G1 X101.135 Y65.012 E0.02518
G1 X99.103 Y65.014 E0.06371
G1 X98.364 Y64.841 E0.02382
;WIPE_START
G1 F8640.000
G1 X99.103 Y65.014 E-0.17543
G1 X101.135 Y65.012 E-0.46919
G1 X101.623 Y64.901 E-0.11538
;WIPE_END
G1 E-0.04000 F2100.000
G1 Z0.600 F10800.000
G1 X92.237 Y65.211
G1 Z0.200
G1 E0.80000 F2100.000
G1 F1200.000
G1 X91.990 Y65.238 E0.00778
G1 X91.182 Y65.226 E0.02533
G1 X90.496 Y65.382 E0.02205
G1 X89.154 Y65.382 E0.04208
G1 X88.459 Y65.218 E0.02240
G1 X85.140 Y65.242 E0.10404
G1 X84.081 Y65.522 E0.03434
G1 X83.156 Y66.030 E0.03311
G1 X82.263 Y66.878 E0.03860
G1 X81.689 Y67.764 E0.03311
G1 X81.266 Y69.245 E0.04828
G1 X81.259 Y92.474 E0.72835
M73 Q0 S121
G1 X81.602 Y93.761 E0.04176
G1 X82.292 Y94.821 E0.03965
G1 X83.357 Y95.740 E0.04412
G1 X84.272 Y96.151 E0.03143
G1 X85.216 Y96.324 E0.03011
G1 X85.957 Y96.313 E0.02322
G1 X86.202 Y96.340 E0.00773
G1 X86.477 Y96.340 E0.00863
G1 X87.007 Y96.340 F10800.000
G1 F1200.000
G1 X92.153 Y96.340 E0.16136
G1 X92.390 Y96.314 E0.00748
G1 X93.012 Y96.340 E0.01952
G1 X95.924 Y96.340 E0.09129
G1 X96.161 Y96.314 E0.00748
G1 X96.783 Y96.340 E0.01952
G1 X103.883 Y96.340 E0.22263
G1 X103.883 Y113.265 E0.53065
G1 X103.975 Y113.537 E0.00901
G1 X104.249 Y114.352 F10800.000
G1 F1200.000
G1 X104.469 Y115.008 E0.02170
G1 X104.903 Y115.566 E0.02218
G1 X105.624 Y116.257 E0.03131
G1 X106.581 Y116.792 E0.03437
G1 X107.038 Y117.611 E0.02941
G1 X107.902 Y118.481 E0.03845
G1 X108.408 Y118.803 E0.01880
G1 X108.412 Y119.888 E0.03401
G1 X108.626 Y120.948 E0.03389
G1 X109.389 Y122.343 E0.04984
G1 X110.321 Y123.216 E0.04005
G1 X111.462 Y123.800 E0.04021
G1 X112.592 Y124.025 E0.03612
G1 X113.814 Y124.025 E0.03830
G1 X114.345 Y124.025 F10800.000
G1 F1200.000
G1 X117.040 Y124.025 E0.08450
G1 X117.278 Y123.999 E0.00748
G1 X117.900 Y124.025 E0.01952
G1 X122.320 Y124.025 E0.13859
G1 X122.577 Y123.997 E0.00812
G1 X123.410 Y124.000 E0.02611
G1 X123.880 Y123.917 E0.01497
G1 X124.439 Y124.009 E0.01777
G1 X125.173 Y123.998 E0.02300
G1 X125.418 Y124.025 E0.00773
G1 X129.046 Y124.025 E0.11374
G1 X129.055 Y138.826 E0.46406
G1 X129.056 Y139.361 F10800.000
G1 F1200.000
G1 X129.057 Y140.738 E0.04319
G1 X129.270 Y141.736 E0.03198
G1 X129.705 Y142.661 E0.03205
G1 X130.652 Y143.726 E0.04467
G1 X131.366 Y144.246 E0.02772
G1 X133.118 Y144.789 E0.05750
G1 X134.386 Y144.789 E0.03976
G1 X134.623 Y144.763 E0.00748
G1 X135.245 Y144.789 E0.01952
G1 X139.081 Y144.789 E0.12026
G1 X139.313 Y145.210 E0.01507
G1 X140.421 Y146.324 E0.04926
G1 X141.363 Y146.828 E0.03352
G1 X142.410 Y147.071 E0.03369
G1 X143.261 Y147.067 E0.02667
G1 X143.518 Y147.096 E0.00811
G1 X146.453 Y147.096 E0.09202
G1 X146.690 Y147.070 E0.00748
G1 X147.312 Y147.096 E0.01952
G1 X157.891 Y147.096 E0.33169
G1 X159.503 Y146.613 E0.05278
G1 X160.344 Y146.046 E0.03182
G1 X161.154 Y145.171 E0.03736
G1 X161.364 Y144.798 E0.01343
G1 X161.775 Y144.763 E0.01295
G1 X162.395 Y144.789 E0.01945
G1 X163.798 Y144.789 E0.04400
G1 X164.052 Y144.761 E0.00801
G1 X165.035 Y144.746 E0.03084
G1 X166.098 Y144.462 E0.03449
G1 X167.172 Y143.805 E0.03947
G1 X168.086 Y142.790 E0.04283
G1 X168.460 Y142.054 E0.02587
G1 X168.741 Y140.920 E0.03664
G1 X168.741 Y117.727 E0.72719
M73 P0 R120
G1 X168.319 Y116.238 E0.04853
G1 X167.645 Y115.213 E0.03848
G1 X167.024 Y114.618 E0.02694
G1 X166.307 Y114.146 E0.02692
G1 X164.659 Y113.660 E0.05388
G1 X163.592 Y113.660 E0.03346
G1 X163.085 Y113.660 F10800.000
G1 F1200.000
G1 X152.568 Y113.660 E0.32976
G1 X152.316 Y113.688 E0.00794
G1 X151.520 Y113.680 E0.02496
G1 X150.544 Y113.880 E0.03125
G1 X150.222 Y114.023 E0.01102
G1 X148.816 Y113.660 E0.04553
G1 X143.759 Y113.660 E0.15858
G1 X143.854 Y113.239 E0.01352
G1 X143.854 Y92.350 E0.65497
G1 X143.841 Y92.304 E0.00148
G1 X143.602 Y91.475 F10800.000
G1 F1200.000
G1 X143.410 Y90.811 E0.02168
G1 X142.846 Y89.940 E0.03252
G1 X141.916 Y89.073 E0.03987
G1 X141.703 Y88.946 E0.00777
G1 X141.656 Y87.341 E0.05035
G1 X141.239 Y86.124 E0.04032
G1 X140.542 Y85.135 E0.03795
G1 X139.444 Y84.239 E0.04443
G1 X138.517 Y83.845 E0.03158
G1 X137.522 Y83.666 E0.03169
G1 X135.901 Y83.679 E0.05083
G1 X135.326 Y83.678 F10800.000
G1 F1200.000
G1 X124.646 Y83.668 E0.33486
G1 X123.941 Y83.790 E0.02242
G1 X123.297 Y83.684 E0.02048
G1 X122.565 Y83.695 E0.02296
G1 X122.319 Y83.668 E0.00773
G1 X120.475 Y83.668 E0.05783
G1 X120.465 Y70.761 E0.40469
G1 X120.464 Y70.261 F10800.000
G1 F1200.000
G1 X120.464 Y69.212 E0.03289
G1 X120.176 Y68.077 E0.03669
G1 X119.677 Y67.135 E0.03342
G1 X118.902 Y66.289 E0.03598
G1 X117.923 Y65.642 E0.03679
G1 X116.386 Y65.211 E0.05007
G1 X111.746 Y65.211 E0.14546
G1 X111.001 Y65.384 E0.02400
G1 X108.829 Y65.382 E0.06809
G1 X108.086 Y65.211 E0.02390
G1 X101.941 Y65.211 E0.19268
G1 X101.180 Y65.389 E0.02451
G1 X99.058 Y65.392 E0.06653
G1 X98.340 Y65.218 E0.02315
G1 X92.237 Y65.211 E0.19137
;WIPE_START
G1 F8640.000
G1 X95.528 Y65.215 E-0.76000
;WIPE_END
G1 E-0.04000 F2100.000
G1 Z0.600 F10800.000
G1 X98.316 Y65.595
G1 Z0.200
G1 E0.80000 F2100.000
G1 F1200.000
G1 X92.248 Y65.588 E0.19027
G1 X92.010 Y65.615 E0.00752
G1 X91.201 Y65.604 E0.02536
G1 X90.541 Y65.759 E0.02126
G1 X89.108 Y65.759 E0.04492
G1 X88.437 Y65.595 E0.02167
G1 X85.211 Y65.613 E0.10113
G1 X84.242 Y65.864 E0.03140
G1 X83.360 Y66.349 E0.03156
G1 X82.541 Y67.134 E0.03558
G1 X82.021 Y67.944 E0.03017
G1 X81.643 Y69.271 E0.04327
G1 X81.636 Y92.450 E0.72677
G1 X81.936 Y93.582 E0.03673
G1 X82.561 Y94.555 E0.03625
G1 X83.539 Y95.409 E0.04072
G1 X84.364 Y95.785 E0.02842
G1 X85.230 Y95.947 E0.02762
G1 X85.976 Y95.936 E0.02340
G1 X86.091 Y95.949 E0.00362
G1 X86.635 Y95.963 F10800.000
G1 F1200.000
G1 X92.142 Y95.963 E0.17267
G1 X92.376 Y95.936 E0.00740
G1 X93.016 Y95.963 E0.02009
G1 X95.913 Y95.963 E0.09081
G1 X96.147 Y95.936 E0.00740
G1 X96.787 Y95.963 E0.02009
G1 X104.261 Y95.963 E0.23432
G1 X104.261 Y113.234 E0.54152
G1 X104.562 Y114.132 E0.02970
;WIPE_START
G1 F8640.000
G1 X104.261 Y113.234 E-0.21875
G1 X104.261 Y110.890 E-0.54125
;WIPE_END
G1 E-0.04000 F2100.000
G1 Z0.600 F10800.000
G1 X105.124 Y115.239
G1 Z0.200
G1 E0.80000 F2100.000
G1 F1200.000
G1 X105.428 Y115.547 E0.01359
;WIPE_START
G1 F8640.000
G1 X105.124 Y115.239 E-0.10009
;WIPE_END
G1 E-0.69991 F2100.000
G1 Z0.600 F10800.000
G1 X108.785 Y118.949
G1 Z0.200
G1 E0.80000 F2100.000
G1 F1200.000
G1 X108.785 Y119.832 E0.02768
G1 X108.990 Y120.845 E0.03240
G1 X109.668 Y122.088 E0.04439
G1 X110.558 Y122.922 E0.03824
G1 X111.608 Y123.452 E0.03687
G1 X112.610 Y123.648 E0.03201
G1 X113.439 Y123.648 E0.02599
G1 X113.971 Y123.648 F10800.000
G1 F1200.000
G1 X117.029 Y123.648 E0.09590
G1 X117.263 Y123.621 E0.00740
G1 X117.904 Y123.648 E0.02009
G1 X122.308 Y123.648 E0.13810
G1 X122.555 Y123.619 E0.00780
G1 X123.393 Y123.623 E0.02627
G1 X123.878 Y123.534 E0.01544
G1 X124.452 Y123.631 E0.01826
G1 X125.192 Y123.621 E0.02322
G1 X125.429 Y123.648 E0.00748
G1 X129.422 Y123.648 E0.12520
G1 X129.429 Y139.202 E0.48767
G1 X129.429 Y139.737 F10800.000
G1 F1200.000
G1 X129.430 Y140.681 E0.02960
G1 X129.621 Y141.596 E0.02930
G1 X130.034 Y142.475 E0.03046
G1 X130.918 Y143.458 E0.04145
G1 X131.561 Y143.922 E0.02488
G1 X133.146 Y144.412 E0.05200
G1 X134.375 Y144.412 E0.03852
G1 X134.609 Y144.385 E0.00740
G1 X135.249 Y144.412 E0.02009
G1 X139.311 Y144.412 E0.12735
G1 X139.603 Y144.967 E0.01967
G1 X140.626 Y146.007 E0.04573
G1 X141.475 Y146.467 E0.03030
G1 X142.431 Y146.694 E0.03080
G1 X143.282 Y146.690 E0.02668
G1 X143.529 Y146.719 E0.00779
G1 X146.441 Y146.719 E0.09131
G1 X146.676 Y146.692 E0.00740
G1 X147.316 Y146.719 E0.02009
G1 X157.863 Y146.719 E0.33071
G1 X159.318 Y146.284 E0.04760
G1 X160.083 Y145.773 E0.02885
G1 X160.860 Y144.934 E0.03585
G1 X161.142 Y144.412 E0.01860
G1 X161.524 Y144.412 E0.01199
G1 X161.759 Y144.385 E0.00740
G1 X162.399 Y144.412 E0.02009
G1 X163.787 Y144.412 E0.04352
G1 X164.028 Y144.384 E0.00763
G1 X164.964 Y144.375 E0.02934
G1 X165.928 Y144.125 E0.03121
G1 X166.912 Y143.530 E0.03605
G1 X167.763 Y142.595 E0.03965
G1 X168.100 Y141.940 E0.02309
G1 X168.364 Y140.896 E0.03376
G1 X168.364 Y117.754 E0.72560
G1 X167.965 Y116.371 E0.04514
G1 X167.369 Y115.471 E0.03386
G1 X166.776 Y114.903 E0.02574
G1 X166.125 Y114.477 E0.02442
G1 X164.632 Y114.037 E0.04878
G1 X163.932 Y114.037 E0.02195
G1 X163.424 Y114.037 F10800.000
G1 F1200.000
G1 X152.579 Y114.037 E0.34005
G1 X152.336 Y114.065 E0.00766
G1 X151.537 Y114.057 E0.02506
G1 X150.644 Y114.245 E0.02861
G1 X150.208 Y114.446 E0.01507
G1 X150.036 Y114.364 E0.00597
G1 X148.792 Y114.037 E0.04034
G1 X143.266 Y114.037 E0.17325
G1 X143.477 Y113.213 E0.02666
G1 X143.477 Y92.376 E0.65332
G1 X143.275 Y91.676 E0.02284
;WIPE_START
G1 F8640.000
G1 X143.477 Y92.376 E-0.16818
G1 X143.477 Y94.939 E-0.59182
;WIPE_END
G1 E-0.04000 F2100.000
G1 Z0.600 F10800.000
G1 X142.863 Y90.656
G1 Z0.200
G1 E0.80000 F2100.000
G1 F1200.000
G1 X142.571 Y90.200 E0.01697
G1 X141.823 Y89.501 E0.03210
G1 X141.326 Y88.950 F10800.000
G1 F1200.000
G1 X141.289 Y87.433 E0.04757
G1 X140.914 Y86.317 E0.03693
G1 X140.281 Y85.408 E0.03470
G1 X139.271 Y84.575 E0.04107
G1 X138.389 Y84.200 E0.03004
