; generated by PrusaSlicer 2.4.1+win64 on 2022-04-30 at 23:32:36 UTC

; 

; external perimeters extrusion width = 0.60mm
; perimeters extrusion width = 0.50mm
; infill extrusion width = 0.50mm
; solid infill extrusion width = 0.50mm
; top infill extrusion width = 0.45mm
; first layer extrusion width = 0.42mm

M73 P0 R97
M73 Q0 S97
M107
;TYPE:Custom
M862.3 P "MK3S" ; printer model check
M862.1 P0.4 ; nozzle diameter check
M115 U3.10.0 ; tell printer latest fw version
G90 ; use absolute coordinates
M83 ; extruder relative mode
M104 S215 ; set extruder temp
M140 S60 ; set bed temp
M190 S60 ; wait for bed temp
M109 S215 ; wait for extruder temp
G28 W ; home all without mesh bed level
G80 ; mesh bed leveling
G1 Y-3.0 F1000.0 ; go outside print area
G92 E0.0
G1 X60.0 E9.0 F1000.0 ; intro line
G1 X100.0 E12.5 F1000.0 ; intro line
G92 E0.0
M221 S95

; Don't change E values below. Excessive value can damage the printer.

M907 E538 ; set extruder motor current
G21 ; set units to millimeters
G90 ; use absolute coordinates
M83 ; use relative distances for extrusion
M900 K0.05 ; Filament gcode LA 1.5
M900 K30 ; Filament gcode LA 1.0
M107
;LAYER_CHANGE
;Z:0.2
;HEIGHT:0.2
;BEFORE_LAYER_CHANGE
G92 E0.0
;0.2


G1 E-.8 F2100
G1 Z.4 F10800
;AFTER_LAYER_CHANGE
;0.2
G1 X86.898 Y72.045
G1 Z.2
M73 P0 R96
G1 E.8 F2100
M204 S1000
;TYPE:Skirt/Brim
;WIDTH:0.42
G1 F1200
G1 X88.311 Y70.478 E.06616
G1 X91.254 Y67.596 E.12916
G1 X94.582 Y64.844 E.1354
G1 X96.29 Y63.605 E.06617
G1 X99.769 Y61.398 E.12916
G1 X103.506 Y59.439 E.13229
G1 X107.487 Y57.766 E.1354
G1 X111.501 Y56.466 E.13229
G1 X115.511 Y55.525 E.12917
G1 X117.592 Y55.171 E.06616
G1 X121.787 Y54.726 E.13229
G1 X126.105 Y54.636 E.13541
G1 X130.216 Y54.894 E.12917
G1 X132.31 Y55.157 E.06616
G1 X136.552 Y55.966 E.1354
G1 X140.615 Y57.104 E.13229
G1 X142.607 Y57.8 E.06616
G1 X146.404 Y59.397 E.12916
G1 X150.145 Y61.348 E.13229
G1 X153.792 Y63.662 E.13541
G1 X157.073 Y66.152 E.12917
G1 X158.672 Y67.53 E.06616
G1 X161.757 Y70.551 E.13541
G1 X164.511 Y73.748 E.13229
G1 X165.785 Y75.43 E.06616
G1 X168.065 Y78.861 E.12917
G1 X170.145 Y82.645 E.13541
G1 X171.857 Y86.501 E.13229
G1 X172.591 Y88.48 E.06616
G1 X173.782 Y92.424 E.12916
G1 X174.663 Y96.55 E.13229
G1 X175.204 Y100.834 E.13541
G1 X175.377 Y104.95 E.12917
G1 X175.334 Y107.06 E.06616
G1 X174.986 Y111.265 E.13229
G1 X174.265 Y115.523 E.1354
G1 X173.782 Y117.576 E.06616
G1 X172.591 Y121.52 E.12916
G1 X171.001 Y125.535 E.13541
G1 X170.101 Y127.444 E.06616
G1 X168.116 Y131.054 E.12917
G1 X165.726 Y134.651 E.13541
G1 X163.102 Y137.955 E.13229
G1 X161.689 Y139.522 E.06616
G1 X158.746 Y142.404 E.12916
G1 X155.418 Y145.156 E.1354
G1 X153.71 Y146.395 E.06617
G1 X150.231 Y148.602 E.12916
G1 X146.494 Y150.561 E.13229
G1 X142.513 Y152.234 E.1354
G1 X138.499 Y153.534 E.13229
G1 X134.489 Y154.475 E.12917
G1 X132.408 Y154.829 E.06616
G1 X128.213 Y155.274 E.13229
G1 X123.895 Y155.364 E.13541
G1 X119.784 Y155.106 E.12917
G1 X117.69 Y154.843 E.06616
G1 X113.448 Y154.034 E.1354
G1 X109.385 Y152.896 E.13229
G1 X107.393 Y152.2 E.06616
G1 X103.596 Y150.603 E.12916
G1 X99.855 Y148.652 E.13229
G1 X96.208 Y146.338 E.13541
G1 X92.927 Y143.848 E.12917
G1 X91.329 Y142.47 E.06615
M73 Q0 S96
G1 X88.243 Y139.449 E.13541
G1 X85.489 Y136.252 E.13229
G1 X84.215 Y134.57 E.06616
G1 X81.935 Y131.139 E.12917
G1 X79.855 Y127.355 E.13541
G1 X78.143 Y123.499 E.13229
G1 X77.409 Y121.52 E.06616
G1 X76.218 Y117.576 E.12916
G1 X75.321 Y113.352 E.13541
G1 X74.796 Y109.166 E.13229
G1 X74.623 Y105.05 E.12917
G1 X74.666 Y102.94 E.06616
G1 X75.014 Y98.735 E.13229
G1 X75.735 Y94.477 E.1354
G1 X76.218 Y92.424 E.06616
G1 X77.409 Y88.48 E.12916
G1 X78.999 Y84.465 E.13541
G1 X79.899 Y82.556 E.06616
G1 X81.884 Y78.946 E.12917
G1 X84.274 Y75.349 E.13541
G1 X86.86 Y72.092 E.13041
; printing object WaterLineCap.amf id:0 copy 0
;WIPE_START
G1 F8640
G1 X88.311 Y70.478 E-.50106
G1 X89.112 Y69.694 E-.25894
;WIPE_END
G1 E-.04 F2100
G1 Z.6 F10800
G1 X89.26 Y74.15
G1 Z.2
G1 E.8 F2100
;TYPE:Perimeter
G1 F1200
G1 X90.583 Y72.681 E.062
G1 X91.967 Y71.268 E.062
G1 X93.408 Y69.914 E.062
G1 X94.905 Y68.622 E.062
G1 X96.455 Y67.394 E.062
G1 X98.055 Y66.231 E.062
G1 X99.702 Y65.137 E.062
G1 X101.394 Y64.113 E.06201
G1 X103.127 Y63.16 E.062
G1 X104.898 Y62.281 E.062
G1 X106.704 Y61.476 E.062
G1 X108.543 Y60.748 E.062
G1 X110.41 Y60.098 E.062
G1 X112.303 Y59.526 E.062
G1 X114.219 Y59.035 E.06201
G1 X116.153 Y58.624 E.062
G1 X118.103 Y58.294 E.062
G1 X120.065 Y58.046 E.062
G1 X122.035 Y57.88 E.062
G1 X124.011 Y57.798 E.062
G1 X125.989 Y57.798 E.062
G1 X127.965 Y57.88 E.062
G1 X129.935 Y58.046 E.062
G1 X131.897 Y58.294 E.062
G1 X133.847 Y58.624 E.062
G1 X135.781 Y59.035 E.062
G1 X137.697 Y59.526 E.06201
G1 X139.59 Y60.098 E.062
G1 X141.457 Y60.748 E.062
G1 X143.296 Y61.476 E.062
G1 X145.102 Y62.281 E.062
G1 X146.873 Y63.16 E.062
G1 X148.606 Y64.113 E.062
G1 X150.298 Y65.137 E.06201
G1 X151.945 Y66.231 E.062
G1 X153.545 Y67.394 E.062
G1 X155.095 Y68.622 E.062
G1 X156.592 Y69.914 E.062
G1 X158.033 Y71.268 E.062
G1 X159.417 Y72.681 E.062
G1 X160.74 Y74.15 E.062
G1 X162 Y75.674 E.062
G1 X163.196 Y77.249 E.062
G1 X164.324 Y78.873 E.062
G1 X165.384 Y80.543 E.062
G1 X166.373 Y82.255 E.062
G1 X167.289 Y84.008 E.062
G1 X168.131 Y85.797 E.062
G1 X168.897 Y87.62 E.062
G1 X169.587 Y89.473 E.062
G1 X170.198 Y91.354 E.062
G1 X170.729 Y93.259 E.062
G1 X171.181 Y95.184 E.062
G1 X171.552 Y97.126 E.062
G1 X171.84 Y99.083 E.062
G1 X172.047 Y101.049 E.062
G1 X172.171 Y103.023 E.062
G1 X172.213 Y105 E.062
G1 X172.171 Y106.977 E.062
G1 X172.047 Y108.951 E.062
G1 X171.84 Y110.917 E.062
G1 X171.552 Y112.874 E.062
G1 X171.181 Y114.816 E.062
G1 X170.729 Y116.741 E.062
G1 X170.198 Y118.646 E.062
G1 X169.587 Y120.527 E.062
G1 X168.897 Y122.38 E.062
G1 X168.131 Y124.203 E.062
G1 X167.289 Y125.992 E.062
G1 X166.373 Y127.745 E.062
G1 X165.384 Y129.457 E.062
G1 X164.324 Y131.127 E.062
G1 X163.196 Y132.751 E.062
G1 X162 Y134.326 E.062
G1 X160.74 Y135.85 E.062
G1 X159.417 Y137.319 E.062
G1 X158.033 Y138.732 E.062
G1 X156.592 Y140.086 E.062
G1 X155.095 Y141.378 E.062
G1 X153.545 Y142.606 E.062
G1 X151.945 Y143.769 E.062
G1 X150.298 Y144.863 E.062
G1 X148.606 Y145.887 E.06201
G1 X146.873 Y146.84 E.062
G1 X145.102 Y147.719 E.062
G1 X143.296 Y148.524 E.062
G1 X141.457 Y149.252 E.062
G1 X139.59 Y149.902 E.062
G1 X137.697 Y150.474 E.062
G1 X135.781 Y150.965 E.06201
G1 X133.847 Y151.376 E.062
G1 X131.897 Y151.706 E.062
G1 X129.935 Y151.954 E.062
G1 X127.965 Y152.12 E.062
G1 X125.989 Y152.202 E.062
G1 X124.011 Y152.202 E.062
G1 X122.035 Y152.12 E.062
G1 X120.065 Y151.954 E.062
G1 X118.068 Y151.7 E.06313
G1 X116.153 Y151.376 E.06088
G1 X114.219 Y150.965 E.062
G1 X112.303 Y150.474 E.06201
G1 X110.41 Y149.902 E.062
G1 X108.543 Y149.252 E.062
G1 X106.704 Y148.524 E.062
G1 X104.898 Y147.719 E.062
G1 X103.127 Y146.84 E.062
G1 X101.394 Y145.887 E.062
G1 X99.702 Y144.863 E.06201
G1 X98.055 Y143.769 E.062
G1 X96.455 Y142.606 E.062
G1 X94.905 Y141.378 E.062
G1 X93.408 Y140.086 E.062
G1 X91.967 Y138.732 E.062
G1 X90.583 Y137.319 E.062
G1 X89.26 Y135.85 E.062
G1 X88 Y134.326 E.062
G1 X86.804 Y132.751 E.062
G1 X85.676 Y131.127 E.062
G1 X84.616 Y129.457 E.062
G1 X83.627 Y127.745 E.062
G1 X82.711 Y125.992 E.062
G1 X81.869 Y124.203 E.062
G1 X81.103 Y122.38 E.062
G1 X80.413 Y120.527 E.062
G1 X79.802 Y118.646 E.062
G1 X79.271 Y116.741 E.062
G1 X78.819 Y114.816 E.062
G1 X78.448 Y112.874 E.062
G1 X78.16 Y110.917 E.062
G1 X77.953 Y108.951 E.062
G1 X77.829 Y106.977 E.062
G1 X77.787 Y105 E.062
G1 X77.829 Y103.023 E.062
G1 X77.953 Y101.049 E.062
G1 X78.16 Y99.083 E.062
G1 X78.448 Y97.126 E.062
G1 X78.819 Y95.184 E.062
G1 X79.271 Y93.259 E.062
G1 X79.802 Y91.354 E.062
G1 X80.413 Y89.473 E.062
G1 X81.103 Y87.62 E.062
G1 X81.869 Y85.797 E.062
G1 X82.711 Y84.008 E.062
G1 X83.627 Y82.255 E.062
G1 X84.616 Y80.543 E.062
G1 X85.676 Y78.873 E.062
G1 X86.804 Y77.249 E.062
G1 X88 Y75.674 E.062
G1 X89.222 Y74.196 E.06012
G1 X88.975 Y73.904 F10800
;TYPE:External perimeter
G1 F1200
G1 X90.308 Y72.422 E.0625
G1 X91.703 Y70.998 E.0625
G1 X93.156 Y69.634 E.0625
G1 X94.665 Y68.331 E.0625
G1 X96.227 Y67.093 E.0625
G1 X97.84 Y65.922 E.0625
G1 X99.5 Y64.819 E.0625
G1 X101.205 Y63.786 E.0625
G1 X102.952 Y62.826 E.0625
G1 X104.737 Y61.939 E.0625
G1 X106.558 Y61.129 E.0625
G1 X108.411 Y60.395 E.0625
G1 X110.294 Y59.739 E.0625
G1 X112.202 Y59.163 E.0625
G1 X114.133 Y58.667 E.0625
G1 X116.083 Y58.253 E.0625
G1 X118.048 Y57.921 E.0625
G1 X120.025 Y57.671 E.0625
G1 X122.012 Y57.504 E.0625
G1 X124.003 Y57.42 E.0625
G1 X125.997 Y57.42 E.0625
G1 X127.988 Y57.504 E.0625
G1 X129.974 Y57.671 E.0625
G1 X131.952 Y57.921 E.0625
G1 X133.917 Y58.253 E.0625
G1 X135.867 Y58.667 E.0625
G1 X137.798 Y59.163 E.0625
G1 X139.706 Y59.739 E.0625
G1 X141.589 Y60.395 E.0625
G1 X143.442 Y61.129 E.0625
G1 X145.263 Y61.939 E.0625
G1 X147.048 Y62.826 E.0625
G1 X148.795 Y63.786 E.0625
G1 X150.5 Y64.819 E.0625
G1 X152.16 Y65.922 E.0625
G1 X153.773 Y67.093 E.0625
G1 X155.335 Y68.331 E.0625
G1 X156.844 Y69.634 E.0625
G1 X158.297 Y70.998 E.0625
G1 X159.692 Y72.422 E.0625
G1 X161.025 Y73.904 E.0625
G1 X162.296 Y75.44 E.0625
G1 X163.501 Y77.027 E.0625
G1 X164.639 Y78.664 E.0625
G1 X165.707 Y80.347 E.0625
G1 X166.703 Y82.073 E.0625
G1 X167.627 Y83.84 E.0625
G1 X168.476 Y85.643 E.0625
G1 X169.248 Y87.481 E.0625
G1 X169.943 Y89.349 E.0625
G1 X170.559 Y91.245 E.0625
G1 X171.095 Y93.165 E.0625
G1 X171.55 Y95.106 E.0625
G1 X171.923 Y97.063 E.0625
G1 X172.215 Y99.035 E.0625
G1 X172.423 Y101.018 E.0625
G1 X172.548 Y103.007 E.0625
G1 X172.59 Y105 E.0625
G1 X172.548 Y106.993 E.0625
G1 X172.423 Y108.982 E.0625
G1 X172.215 Y110.965 E.0625
G1 X171.923 Y112.937 E.0625
G1 X171.55 Y114.894 E.0625
G1 X171.095 Y116.835 E.0625
G1 X170.559 Y118.755 E.0625
G1 X169.943 Y120.651 E.0625
G1 X169.248 Y122.519 E.0625
G1 X168.476 Y124.357 E.0625
G1 X167.627 Y126.16 E.0625
G1 X166.703 Y127.927 E.0625
G1 X165.707 Y129.653 E.0625
G1 X164.639 Y131.336 E.0625
G1 X163.501 Y132.973 E.0625
G1 X162.296 Y134.56 E.0625
G1 X161.025 Y136.096 E.0625
G1 X159.692 Y137.578 E.0625
G1 X158.297 Y139.002 E.0625
G1 X156.844 Y140.366 E.0625
G1 X155.335 Y141.669 E.0625
G1 X153.773 Y142.907 E.0625
G1 X152.16 Y144.078 E.0625
G1 X150.5 Y145.181 E.0625
G1 X148.795 Y146.214 E.0625
G1 X147.048 Y147.174 E.0625
G1 X145.263 Y148.061 E.0625
G1 X143.442 Y148.871 E.0625
G1 X141.589 Y149.605 E.0625
G1 X139.706 Y150.261 E.0625
G1 X137.798 Y150.837 E.0625
G1 X135.867 Y151.333 E.0625
G1 X133.917 Y151.747 E.0625
G1 X131.952 Y152.079 E.0625
G1 X129.975 Y152.329 E.0625
G1 X127.988 Y152.496 E.0625
G1 X125.997 Y152.58 E.0625
G1 X124.003 Y152.58 E.0625
G1 X122.012 Y152.496 E.0625
G1 X120.026 Y152.329 E.06249
G1 X118.012 Y152.073 E.06363
G1 X116.083 Y151.747 E.06137
G1 X114.133 Y151.333 E.0625
G1 X112.202 Y150.837 E.0625
G1 X110.294 Y150.261 E.0625
G1 X108.411 Y149.605 E.0625
G1 X106.558 Y148.871 E.0625
G1 X104.737 Y148.061 E.0625
G1 X102.952 Y147.174 E.0625
G1 X101.205 Y146.214 E.0625
G1 X99.5 Y145.181 E.0625
G1 X97.84 Y144.078 E.0625
G1 X96.227 Y142.907 E.0625
G1 X94.665 Y141.669 E.0625
G1 X93.156 Y140.366 E.0625
G1 X91.703 Y139.002 E.0625
G1 X90.308 Y137.578 E.0625
G1 X88.975 Y136.096 E.0625
G1 X87.704 Y134.56 E.0625
G1 X86.499 Y132.973 E.0625
G1 X85.361 Y131.336 E.0625
G1 X84.293 Y129.653 E.0625
G1 X83.297 Y127.927 E.0625
G1 X82.373 Y126.16 E.0625
G1 X81.524 Y124.357 E.0625
G1 X80.752 Y122.519 E.0625
G1 X80.057 Y120.651 E.0625
G1 X79.441 Y118.755 E.0625
G1 X78.905 Y116.835 E.0625
G1 X78.45 Y114.894 E.0625
G1 X78.077 Y112.937 E.0625
G1 X77.785 Y110.965 E.0625
G1 X77.577 Y108.982 E.0625
G1 X77.452 Y106.993 E.0625
G1 X77.41 Y105 E.0625
G1 X77.452 Y103.007 E.0625
G1 X77.577 Y101.018 E.0625
G1 X77.785 Y99.035 E.0625
G1 X78.077 Y97.063 E.0625
G1 X78.45 Y95.106 E.0625
G1 X78.905 Y93.165 E.0625
G1 X79.441 Y91.245 E.0625
G1 X80.057 Y89.349 E.0625
G1 X80.752 Y87.481 E.0625
G1 X81.524 Y85.643 E.0625
G1 X82.373 Y83.84 E.0625
G1 X83.297 Y82.073 E.0625
G1 X84.293 Y80.347 E.0625
G1 X85.361 Y78.664 E.0625
G1 X86.499 Y77.027 E.0625
G1 X87.704 Y75.44 E.0625
G1 X88.936 Y73.95 E.06062
G1 X89.368 Y73.979 F10800
;WIPE_START
G1 F8640
G1 X90.308 Y72.422 E-.4741
G1 X91.175 Y71.538 E-.2859
;WIPE_END
G1 E-.04 F2100
G1 Z.6 F10800
G1 X160.97 Y74.605
G1 Z.2
G1 E.8 F2100
;TYPE:Solid infill
;WIDTH:0.42136
G1 F1200
G1 X157.819 Y71.455 E.14021
G1 X156.402 Y70.124 E.06115
G1 X154.914 Y68.84 E.06185
G1 X153.732 Y67.903 E.04749
G1 X162.094 Y76.265 E.37213
G1 X162.967 Y77.415 E.04546
G1 X163.555 Y78.261 E.03241
G1 X151.705 Y66.412 E.52732
G1 X150.116 Y65.358 E.06001
G1 X164.611 Y79.853 E.64506
G1 X165.142 Y80.689 E.03117
G1 X165.456 Y81.232 E.01974
G1 X148.759 Y64.536 E.74303
G1 X147.534 Y63.846 E.04425
M73 P1 R96
M73 Q1 S96
G1 X166.175 Y82.486 E.82954
G1 X166.761 Y83.608 E.03983
G1 X146.387 Y63.234 E.90666
G1 X145.325 Y62.707 E.03733
G1 X167.289 Y84.671 E.97743
G1 X167.764 Y85.682 E.03516
G1 X144.328 Y62.246 E1.04294
G1 X143.364 Y61.816 E.03323
G1 X168.172 Y86.625 E1.10403
G1 X168.56 Y87.548 E.03152
G1 X142.463 Y61.451 E1.16137
G1 X141.577 Y61.1 E.02999
M73 P1 R95
G1 X168.891 Y88.414 E1.21551
G1 X169.208 Y89.266 E.02861
G1 X140.74 Y60.798 E1.26686
G1 X139.919 Y60.512 E.02736
G1 X169.486 Y90.08 E1.3158
G1 X169.744 Y90.872 E.02623
G1 X139.125 Y60.253 E1.36261
G1 X138.358 Y60.022 E.0252
G1 X169.987 Y91.651 E1.40754
G1 X170.194 Y92.393 E.02426
M73 Q1 S95
G1 X137.593 Y59.792 E1.45081
G1 X136.873 Y59.607 E.02339
G1 X170.401 Y93.136 E1.49208
G1 X170.577 Y93.846 E.02303
G1 X136.153 Y59.422 E1.53192
G1 X135.449 Y59.253 E.02279
G1 X170.741 Y94.545 E1.57056
G1 X170.905 Y95.244 E.0226
G1 X134.769 Y59.109 E1.6081
G1 X134.089 Y58.964 E.02187
G1 X171.031 Y95.906 E1.64396
G1 X171.157 Y96.567 E.02119
G1 X133.43 Y58.84 E1.67893
G1 X132.786 Y58.731 E.02056
G1 X171.28 Y97.226 E1.71308
G1 X171.373 Y97.854 E.01997
G1 X132.141 Y58.622 E1.74587
G1 X131.515 Y58.53 E.01993
G1 X171.466 Y98.481 E1.77788
G1 X171.559 Y99.109 E.01997
G1 X130.902 Y58.453 E1.80927
G1 X130.29 Y58.376 E.01943
G1 X171.622 Y99.708 E1.83935
G1 X171.685 Y100.306 E.01892
G1 X129.688 Y58.309 E1.86894
G1 X129.103 Y58.26 E.01845
G1 X171.748 Y100.904 E1.89774
G1 X171.791 Y101.483 E.01826
M73 P2 R95
M73 Q2 S95
G1 X128.519 Y58.211 E1.92567
G1 X127.935 Y58.162 E.01843
G1 X171.827 Y102.054 E1.95325
G1 X171.863 Y102.625 E.01801
G1 X127.377 Y58.139 E1.97971
G1 X126.818 Y58.115 E.01759
G1 X171.892 Y103.189 E2.00586
M73 P2 R94
G1 X171.903 Y103.736 E.01721
G1 X126.26 Y58.092 E2.03123
G1 X125.713 Y58.08 E.01721
G1 X171.915 Y104.282 E2.05607
G1 X171.926 Y104.829 E.01721
G1 X125.178 Y58.08 E2.0804
G1 X124.642 Y58.08 E.01684
M73 Q2 S94
G1 X171.922 Y105.36 E2.10404
G1 X171.911 Y105.885 E.0165
G1 X124.107 Y58.08 E2.12736
G1 X123.59 Y58.098 E.01629
G1 X171.9 Y106.409 E2.1499
G1 X171.889 Y106.933 E.0165
G1 X123.076 Y58.12 E2.17227
G1 X122.563 Y58.141 E.01618
G1 X171.859 Y107.438 E2.19377
G1 X171.827 Y107.941 E.01588
G1 X122.049 Y58.163 E2.21521
G1 X121.555 Y58.205 E.01559
G1 X171.796 Y108.445 E2.23578
G1 X171.763 Y108.948 E.01585
G1 X121.062 Y58.246 E2.2563
G1 X120.568 Y58.287 E.01559
G1 X171.712 Y109.432 E2.27601
G1 X171.661 Y109.916 E.01532
G1 X120.075 Y58.33 E2.29568
G1 X119.6 Y58.39 E.01507
M73 P3 R94
M73 Q3 S94
G1 X171.61 Y110.4 E2.31456
G1 X171.559 Y110.885 E.01532
G1 X119.125 Y58.45 E2.33344
G1 X118.649 Y58.51 E.01507
G1 X171.491 Y111.351 E2.35152
G1 X171.422 Y111.817 E.01483
G1 X118.174 Y58.57 E2.3696
G1 X117.715 Y58.646 E.01464
M73 P3 R93
G1 X171.353 Y112.284 E2.38696
G1 X171.284 Y112.75 E.01483
G1 X117.258 Y58.724 E2.40426
G1 X116.8 Y58.801 E.01461
G1 X171.201 Y113.202 E2.42094
G1 X171.115 Y113.652 E.0144
M73 Q3 S93
G1 X116.342 Y58.878 E2.4375
G1 X115.896 Y58.967 E.01432
G1 X171.03 Y114.101 E2.45354
G1 X170.944 Y114.551 E.0144
G1 X115.454 Y59.061 E2.46937
G1 X115.013 Y59.155 E.0142
G1 X170.849 Y114.991 E2.48481
G1 X170.748 Y115.425 E.01401
G1 X114.572 Y59.249 E2.49993
G1 X114.136 Y59.348 E.01407
G1 X170.646 Y115.858 E2.5148
G1 X170.544 Y116.292 E.01401
G1 X113.71 Y59.457 E2.52923
G1 X113.284 Y59.567 E.01384
G1 X170.441 Y116.724 E2.54357
G1 X170.324 Y117.142 E.01367
M73 P4 R93
M73 Q4 S93
